(G-CODE GENERATED BY FLATCAM - www.flatcam.org 2018)

(Name: led_segments-B.Cu.gbr_cutout_cnc)
(Type: G-code from Geometry)
(Units: MM)

(Created on Wednesday, 16 January 2019 at 17:27)

;TOOL DIAMETER: 0.8 mm

;Feedrate: 15.0 mm/min
;Feedrate_Z: 30.0 mm/min
;Feedrate rapids 60.0 mm/min

;Z_Cut: -0.6 mm
;Z_Move: 1.0 mm
;Z Toolchange: 1.0 mm
;Z Start: None mm
;Z End: 50.0 mm
;Steps per circle: 64
;Postprocessor Geometry: marlin
;Spindle Speed: None RPM


G21
G90

G1 F15.00
G0 Z1.0000 F60.00

M3
G0 X-38.5268 Y0.8365 F60.00
G1 F30.00
G1 Z-0.6000 F15.00
G1 F15.00
G1 X-38.5268 Y42.9718 F15.00
G1 X38.6538 Y42.9718 F15.00
G1 X38.6538 Y0.8365 F15.00
G0 Z1.0000 F60.00
G0 X38.6538 Y-0.9635 F60.00
G1 F30.00
G1 Z-0.6000 F15.00
G1 F15.00
G1 X38.6538 Y-43.0988 F15.00
G1 X-38.5268 Y-43.0988 F15.00
G1 X-38.5268 Y-0.9635 F15.00
G0 Z1.0000 F60.00
M5
G0 Z1.0000 F60.00
G0 Z50.00 F60.00
G0 X0.0Y0.0 F60.00

