(G-CODE GENERATED BY FLATCAM - www.flatcam.org 2018)

(Name: led_segments.drl_cnc)
(Type: G-code from Excellon)
(Units: MM)

(Created on Wednesday, 16 January 2019 at 17:22)

;Feedrate: 30.0 mm/min
;Feedrate rapids 60.0 mm/min

;Z_Cut: -1.0 mm
;Z_Move: 2.0 mm
;Z Toolchange: 1.0 mm
;Z Start: None mm
;Z End: 50.0 mm
;Steps per circle: 64
;Postprocessor Excellon: marlin
;Spindle Speed: None RPM


G21
G90

G1 F30.00
G0 Z2.0000 F60.00

M3
G0 X-3.9460 Y8.7630 F60.00
G1 Z-1.0000 F30.00
G1 Z0 G1 F30.00
G0 Z2.0000 F60.00
G0 X-3.9460 Y6.2230 F60.00
G1 Z-1.0000 F30.00
G1 Z0 G1 F30.00
G0 Z2.0000 F60.00
G0 X-3.9460 Y3.6830 F60.00
G1 Z-1.0000 F30.00
G1 Z0 G1 F30.00
G0 Z2.0000 F60.00
G0 X-3.9460 Y1.1430 F60.00
G1 Z-1.0000 F30.00
G1 Z0 G1 F30.00
G0 Z2.0000 F60.00
G0 X-3.9460 Y-11.5570 F60.00
G1 Z-1.0000 F30.00
G1 Z0 G1 F30.00
G0 Z2.0000 F60.00
G0 X-3.9460 Y-14.0970 F60.00
G1 Z-1.0000 F30.00
G1 Z0 G1 F30.00
G0 Z2.0000 F60.00
G0 X-3.9460 Y-19.1770 F60.00
G1 Z-1.0000 F30.00
G1 Z0 G1 F30.00
G0 Z2.0000 F60.00
G0 X-3.9460 Y-21.7170 F60.00
G1 Z-1.0000 F30.00
G1 Z0 G1 F30.00
G0 Z2.0000 F60.00
G0 X-11.5660 Y-24.2570 F60.00
G1 Z-1.0000 F30.00
G1 Z0 G1 F30.00
G0 Z2.0000 F60.00
G0 X-11.5660 Y-21.7170 F60.00
G1 Z-1.0000 F30.00
G1 Z0 G1 F30.00
G0 Z2.0000 F60.00
G0 X-11.5660 Y-19.1770 F60.00
G1 Z-1.0000 F30.00
G1 Z0 G1 F30.00
G0 Z2.0000 F60.00
G0 X-11.5660 Y-16.6370 F60.00
G1 Z-1.0000 F30.00
G1 Z0 G1 F30.00
G0 Z2.0000 F60.00
G0 X-11.5660 Y-6.4770 F60.00
G1 Z-1.0000 F30.00
G1 Z0 G1 F30.00
G0 Z2.0000 F60.00
G0 X-11.5660 Y-3.9370 F60.00
G1 Z-1.0000 F30.00
G1 Z0 G1 F30.00
G0 Z2.0000 F60.00
G0 X-11.5660 Y-1.3970 F60.00
G1 Z-1.0000 F30.00
G1 Z0 G1 F30.00
G0 Z2.0000 F60.00
G0 X-11.5660 Y1.1430 F60.00
G1 Z-1.0000 F30.00
G1 Z0 G1 F30.00
G0 Z2.0000 F60.00
G0 X-11.5660 Y3.6830 F60.00
G1 Z-1.0000 F30.00
G1 Z0 G1 F30.00
G0 Z2.0000 F60.00
G0 X-11.5660 Y6.2230 F60.00
G1 Z-1.0000 F30.00
G1 Z0 G1 F30.00
G0 Z2.0000 F60.00
G0 X-11.5660 Y8.7630 F60.00
G1 Z-1.0000 F30.00
G1 Z0 G1 F30.00
G0 Z2.0000 F60.00
M3
G0 X27.8040 Y31.1150 F60.00
G1 Z-1.0000 F30.00
G1 Z0 G1 F30.00
G0 Z2.0000 F60.00
G0 X23.9940 Y31.1150 F60.00
G1 Z-1.0000 F30.00
G1 Z0 G1 F30.00
G0 Z2.0000 F60.00
G0 X10.7860 Y31.1150 F60.00
G1 Z-1.0000 F30.00
G1 Z0 G1 F30.00
G0 Z2.0000 F60.00
G0 X6.9760 Y31.1150 F60.00
G1 Z-1.0000 F30.00
G1 Z0 G1 F30.00
G0 Z2.0000 F60.00
G0 X10.7860 Y19.4310 F60.00
G1 Z-1.0000 F30.00
G1 Z0 G1 F30.00
G0 Z2.0000 F60.00
G0 X6.9760 Y19.4310 F60.00
G1 Z-1.0000 F30.00
G1 Z0 G1 F30.00
G0 Z2.0000 F60.00
G0 X-1.4060 Y12.5730 F60.00
G1 Z-1.0000 F30.00
G1 Z0 G1 F30.00
G0 Z2.0000 F60.00
G0 X-4.4540 Y16.3830 F60.00
G1 Z-1.0000 F30.00
G1 Z0 G1 F30.00
G0 Z2.0000 F60.00
G0 X-4.4540 Y20.9550 F60.00
G1 Z-1.0000 F30.00
G1 Z0 G1 F30.00
G0 Z2.0000 F60.00
G0 X-1.4060 Y25.2730 F60.00
G1 Z-1.0000 F30.00
G1 Z0 G1 F30.00
G0 Z2.0000 F60.00
G0 X-7.7560 Y23.2410 F60.00
G1 Z-1.0000 F30.00
G1 Z0 G1 F30.00
G0 Z2.0000 F60.00
G0 X-7.7560 Y25.2730 F60.00
G1 Z-1.0000 F30.00
G1 Z0 G1 F30.00
G0 Z2.0000 F60.00
G0 X-7.7560 Y27.3050 F60.00
G1 Z-1.0000 F30.00
G1 Z0 G1 F30.00
G0 Z2.0000 F60.00
G0 X-18.1700 Y24.2570 F60.00
G1 Z-1.0000 F30.00
G1 Z0 G1 F30.00
G0 Z2.0000 F60.00
G0 X-21.2180 Y27.3050 F60.00
G1 Z-1.0000 F30.00
G1 Z0 G1 F30.00
G0 Z2.0000 F60.00
G0 X-25.7900 Y27.3050 F60.00
G1 Z-1.0000 F30.00
G1 Z0 G1 F30.00
G0 Z2.0000 F60.00
G0 X-28.0760 Y29.0830 F60.00
G1 Z-1.0000 F30.00
G1 Z0 G1 F30.00
G0 Z2.0000 F60.00
G0 X-30.1080 Y29.0830 F60.00
G1 Z-1.0000 F30.00
G1 Z0 G1 F30.00
G0 Z2.0000 F60.00
G0 X-32.1400 Y29.0830 F60.00
G1 Z-1.0000 F30.00
G1 Z0 G1 F30.00
G0 Z2.0000 F60.00
G0 X-30.1080 Y24.2570 F60.00
G1 Z-1.0000 F30.00
G1 Z0 G1 F30.00
G0 Z2.0000 F60.00
G0 X-32.1400 Y17.6530 F60.00
G1 Z-1.0000 F30.00
G1 Z0 G1 F30.00
G0 Z2.0000 F60.00
G0 X-30.1080 Y17.6530 F60.00
G1 Z-1.0000 F30.00
G1 Z0 G1 F30.00
G0 Z2.0000 F60.00
G0 X-28.0760 Y17.6530 F60.00
G1 Z-1.0000 F30.00
G1 Z0 G1 F30.00
G0 Z2.0000 F60.00
G0 X-25.7900 Y15.3670 F60.00
G1 Z-1.0000 F30.00
G1 Z0 G1 F30.00
G0 Z2.0000 F60.00
G0 X-21.2180 Y15.3670 F60.00
G1 Z-1.0000 F30.00
G1 Z0 G1 F30.00
G0 Z2.0000 F60.00
G0 X-18.1700 Y12.5730 F60.00
G1 Z-1.0000 F30.00
G1 Z0 G1 F30.00
G0 Z2.0000 F60.00
G0 X-30.1080 Y12.5730 F60.00
G1 Z-1.0000 F30.00
G1 Z0 G1 F30.00
G0 Z2.0000 F60.00
G0 X-32.1400 Y5.9690 F60.00
G1 Z-1.0000 F30.00
G1 Z0 G1 F30.00
G0 Z2.0000 F60.00
G0 X-30.1080 Y5.9690 F60.00
G1 Z-1.0000 F30.00
G1 Z0 G1 F30.00
G0 Z2.0000 F60.00
G0 X-28.0760 Y5.9690 F60.00
G1 Z-1.0000 F30.00
G1 Z0 G1 F30.00
G0 Z2.0000 F60.00
G0 X-25.7900 Y3.6830 F60.00
G1 Z-1.0000 F30.00
G1 Z0 G1 F30.00
G0 Z2.0000 F60.00
G0 X-21.2180 Y3.6830 F60.00
G1 Z-1.0000 F30.00
G1 Z0 G1 F30.00
G0 Z2.0000 F60.00
G0 X-18.1700 Y1.1430 F60.00
G1 Z-1.0000 F30.00
G1 Z0 G1 F30.00
G0 Z2.0000 F60.00
G0 X-30.1080 Y1.1430 F60.00
G1 Z-1.0000 F30.00
G1 Z0 G1 F30.00
G0 Z2.0000 F60.00
G0 X-32.1400 Y-3.9370 F60.00
G1 Z-1.0000 F30.00
G1 Z0 G1 F30.00
G0 Z2.0000 F60.00
G0 X-30.1080 Y-3.9370 F60.00
G1 Z-1.0000 F30.00
G1 Z0 G1 F30.00
G0 Z2.0000 F60.00
G0 X-28.0760 Y-3.9370 F60.00
G1 Z-1.0000 F30.00
G1 Z0 G1 F30.00
G0 Z2.0000 F60.00
G0 X-25.7900 Y-6.2230 F60.00
G1 Z-1.0000 F30.00
G1 Z0 G1 F30.00
G0 Z2.0000 F60.00
G0 X-21.2180 Y-6.2230 F60.00
G1 Z-1.0000 F30.00
G1 Z0 G1 F30.00
G0 Z2.0000 F60.00
G0 X-18.1700 Y-9.2710 F60.00
G1 Z-1.0000 F30.00
G1 Z0 G1 F30.00
G0 Z2.0000 F60.00
G0 X-18.1700 Y-14.0970 F60.00
G1 Z-1.0000 F30.00
G1 Z0 G1 F30.00
G0 Z2.0000 F60.00
G0 X-21.2180 Y-16.8910 F60.00
G1 Z-1.0000 F30.00
G1 Z0 G1 F30.00
G0 Z2.0000 F60.00
G0 X-25.7900 Y-16.8910 F60.00
G1 Z-1.0000 F30.00
G1 Z0 G1 F30.00
G0 Z2.0000 F60.00
G0 X-30.1080 Y-9.2710 F60.00
G1 Z-1.0000 F30.00
G1 Z0 G1 F30.00
G0 Z2.0000 F60.00
G0 X-30.1080 Y-14.0970 F60.00
G1 Z-1.0000 F30.00
G1 Z0 G1 F30.00
G0 Z2.0000 F60.00
G0 X-32.1400 Y-18.6690 F60.00
G1 Z-1.0000 F30.00
G1 Z0 G1 F30.00
G0 Z2.0000 F60.00
G0 X-30.1080 Y-18.6690 F60.00
G1 Z-1.0000 F30.00
G1 Z0 G1 F30.00
G0 Z2.0000 F60.00
G0 X-28.0760 Y-18.6690 F60.00
G1 Z-1.0000 F30.00
G1 Z0 G1 F30.00
G0 Z2.0000 F60.00
G0 X-30.1080 Y-31.3690 F60.00
G1 Z-1.0000 F30.00
G1 Z0 G1 F30.00
G0 Z2.0000 F60.00
G0 X-32.1400 Y-35.6870 F60.00
G1 Z-1.0000 F30.00
G1 Z0 G1 F30.00
G0 Z2.0000 F60.00
G0 X-30.1080 Y-35.6870 F60.00
G1 Z-1.0000 F30.00
G1 Z0 G1 F30.00
G0 Z2.0000 F60.00
G0 X-28.0760 Y-35.6870 F60.00
G1 Z-1.0000 F30.00
G1 Z0 G1 F30.00
G0 Z2.0000 F60.00
G0 X-25.7900 Y-33.9090 F60.00
G1 Z-1.0000 F30.00
G1 Z0 G1 F30.00
G0 Z2.0000 F60.00
G0 X-21.2180 Y-33.9090 F60.00
G1 Z-1.0000 F30.00
G1 Z0 G1 F30.00
G0 Z2.0000 F60.00
G0 X-18.1700 Y-31.3690 F60.00
G1 Z-1.0000 F30.00
G1 Z0 G1 F30.00
G0 Z2.0000 F60.00
G0 X-5.9780 Y-27.8130 F60.00
G1 Z-1.0000 F30.00
G1 Z0 G1 F30.00
G0 Z2.0000 F60.00
G0 X-5.9780 Y-30.3130 F60.00
G1 Z-1.0000 F30.00
G1 Z0 G1 F30.00
G0 Z2.0000 F60.00
G0 X-5.9780 Y-33.6950 F60.00
G1 Z-1.0000 F30.00
G1 Z0 G1 F30.00
G0 Z2.0000 F60.00
G0 X-5.9780 Y-36.1950 F60.00
G1 Z-1.0000 F30.00
G1 Z0 G1 F30.00
G0 Z2.0000 F60.00
G0 X24.2480 Y-29.3370 F60.00
G1 Z-1.0000 F30.00
G1 Z0 G1 F30.00
G0 Z2.0000 F60.00
G0 X27.0420 Y-26.7970 F60.00
G1 Z-1.0000 F30.00
G1 Z0 G1 F30.00
G0 Z2.0000 F60.00
G0 X24.2480 Y-21.7170 F60.00
G1 Z-1.0000 F30.00
G1 Z0 G1 F30.00
G0 Z2.0000 F60.00
G0 X27.0420 Y-19.1770 F60.00
G1 Z-1.0000 F30.00
G1 Z0 G1 F30.00
G0 Z2.0000 F60.00
G0 X23.9940 Y19.4310 F60.00
G1 Z-1.0000 F30.00
G1 Z0 G1 F30.00
G0 Z2.0000 F60.00
G0 X27.8040 Y19.4310 F60.00
G1 Z-1.0000 F30.00
G1 Z0 G1 F30.00
G0 Z2.0000 F60.00
M3
G0 X31.8680 Y-11.5570 F60.00
G1 Z-1.0000 F30.00
G1 Z0 G1 F30.00
G0 Z2.0000 F60.00
G0 X31.8680 Y-19.1770 F60.00
G1 Z-1.0000 F30.00
G1 Z0 G1 F30.00
G0 Z2.0000 F60.00
G0 X31.8680 Y-21.7170 F60.00
G1 Z-1.0000 F30.00
G1 Z0 G1 F30.00
G0 Z2.0000 F60.00
G0 X17.8980 Y-26.7970 F60.00
G1 Z-1.0000 F30.00
G1 Z0 G1 F30.00
G0 Z2.0000 F60.00
G0 X17.8980 Y-24.2570 F60.00
G1 Z-1.0000 F30.00
G1 Z0 G1 F30.00
G0 Z2.0000 F60.00
G0 X17.8980 Y-21.7170 F60.00
G1 Z-1.0000 F30.00
G1 Z0 G1 F30.00
G0 Z2.0000 F60.00
G0 X17.8980 Y-19.1770 F60.00
G1 Z-1.0000 F30.00
G1 Z0 G1 F30.00
G0 Z2.0000 F60.00
G0 X17.8980 Y-16.6370 F60.00
G1 Z-1.0000 F30.00
G1 Z0 G1 F30.00
G0 Z2.0000 F60.00
G0 X17.8980 Y-14.0970 F60.00
G1 Z-1.0000 F30.00
G1 Z0 G1 F30.00
G0 Z2.0000 F60.00
G0 X0.1180 Y-7.7470 F60.00
G1 Z-1.0000 F30.00
G1 Z0 G1 F30.00
G0 Z2.0000 F60.00
G0 X0.1180 Y-13.0810 F60.00
G1 Z-1.0000 F30.00
G1 Z0 G1 F30.00
G0 Z2.0000 F60.00
G0 X0.1180 Y-16.6370 F60.00
G1 Z-1.0000 F30.00
G1 Z0 G1 F30.00
G0 Z2.0000 F60.00
G0 X0.1180 Y-19.1770 F60.00
G1 Z-1.0000 F30.00
G1 Z0 G1 F30.00
G0 Z2.0000 F60.00
G0 X0.1180 Y-21.7170 F60.00
G1 Z-1.0000 F30.00
G1 Z0 G1 F30.00
G0 Z2.0000 F60.00
G0 X0.1180 Y-24.2570 F60.00
G1 Z-1.0000 F30.00
G1 Z0 G1 F30.00
G0 Z2.0000 F60.00
G0 X3.9280 Y-24.2570 F60.00
G1 Z-1.0000 F30.00
G1 Z0 G1 F30.00
G0 Z2.0000 F60.00
G0 X3.9280 Y-26.7970 F60.00
G1 Z-1.0000 F30.00
G1 Z0 G1 F30.00
G0 Z2.0000 F60.00
G0 X-0.8980 Y-29.3370 F60.00
G1 Z-1.0000 F30.00
G1 Z0 G1 F30.00
G0 Z2.0000 F60.00
G0 X-0.8980 Y-31.8770 F60.00
G1 Z-1.0000 F30.00
G1 Z0 G1 F30.00
G0 Z2.0000 F60.00
G0 X-0.8980 Y-34.4170 F60.00
G1 Z-1.0000 F30.00
G1 Z0 G1 F30.00
G0 Z2.0000 F60.00
G0 X-12.8360 Y-36.1950 F60.00
G1 Z-1.0000 F30.00
G1 Z0 G1 F30.00
G0 Z2.0000 F60.00
G0 X-23.5040 Y-36.9570 F60.00
G1 Z-1.0000 F30.00
G1 Z0 G1 F30.00
G0 Z2.0000 F60.00
G0 X-12.8360 Y-31.1150 F60.00
G1 Z-1.0000 F30.00
G1 Z0 G1 F30.00
G0 Z2.0000 F60.00
G0 X-15.2490 Y-27.8130 F60.00
G1 Z-1.0000 F30.00
G1 Z0 G1 F30.00
G0 Z2.0000 F60.00
G0 X-15.2490 Y-20.1930 F60.00
G1 Z-1.0000 F30.00
G1 Z0 G1 F30.00
G0 Z2.0000 F60.00
G0 X-27.3140 Y-24.5110 F60.00
G1 Z-1.0000 F30.00
G1 Z0 G1 F30.00
G0 Z2.0000 F60.00
G0 X-25.7900 Y-11.3030 F60.00
G1 Z-1.0000 F30.00
G1 Z0 G1 F30.00
G0 Z2.0000 F60.00
G0 X-26.2980 Y10.7950 F60.00
G1 Z-1.0000 F30.00
G1 Z0 G1 F30.00
G0 Z2.0000 F60.00
G0 X-26.9330 Y21.7170 F60.00
G1 Z-1.0000 F30.00
G1 Z0 G1 F30.00
G0 Z2.0000 F60.00
G0 X-23.5040 Y35.8140 F60.00
G1 Z-1.0000 F30.00
G1 Z0 G1 F30.00
G0 Z2.0000 F60.00
G0 X-11.5660 Y28.8290 F60.00
G1 Z-1.0000 F30.00
G1 Z0 G1 F30.00
G0 Z2.0000 F60.00
G0 X3.1660 Y29.3370 F60.00
G1 Z-1.0000 F30.00
G1 Z0 G1 F30.00
G0 Z2.0000 F60.00
G0 X14.5960 Y29.3370 F60.00
G1 Z-1.0000 F30.00
G1 Z0 G1 F30.00
G0 Z2.0000 F60.00
G0 X20.1840 Y29.3370 F60.00
G1 Z-1.0000 F30.00
G1 Z0 G1 F30.00
G0 Z2.0000 F60.00
G0 X31.6140 Y29.3370 F60.00
G1 Z-1.0000 F30.00
G1 Z0 G1 F30.00
G0 Z2.0000 F60.00
M5
G0 Z50.00 F60.00
G0 X0.0Y0.0 F60.00

