(G-CODE GENERATED BY FLATCAM - www.flatcam.org 2018)

(Name: led_segments.drl_cnc)
(Type: G-code from Excellon)
(Units: MM)

(Created on Wednesday, 16 January 2019 at 19:15)

;Feedrate: 30.0 mm/min
;Feedrate rapids 500.0 mm/min

;Z_Cut: -1.0 mm
;Z_Move: 1.0 mm
;Z Toolchange: 1.0 mm
;Z Start: None mm
;Z End: 50.0 mm
;Steps per circle: 64
;Postprocessor Excellon: marlin
;Spindle Speed: None RPM


G21
G90

G1 F30.00
G0 Z1.0000 F500.00

M3
G0 X-3.9360 Y8.7630 F500.00
G1 Z-1.0000 F30.00
G1 Z0 G1 F30.00
G0 Z1.0000 F500.00
G0 X-1.3960 Y12.5730 F500.00
G1 Z-1.0000 F30.00
G1 Z0 G1 F30.00
G0 Z1.0000 F500.00
G0 X-3.9360 Y6.2230 F500.00
G1 Z-1.0000 F30.00
G1 Z0 G1 F30.00
G0 Z1.0000 F500.00
G0 X-3.9360 Y3.6830 F500.00
G1 Z-1.0000 F30.00
G1 Z0 G1 F30.00
G0 Z1.0000 F500.00
G0 X-3.9360 Y1.1430 F500.00
G1 Z-1.0000 F30.00
G1 Z0 G1 F30.00
G0 Z1.0000 F500.00
G0 X-11.5560 Y1.1430 F500.00
G1 Z-1.0000 F30.00
G1 Z0 G1 F30.00
G0 Z1.0000 F500.00
G0 X-11.5560 Y-1.3970 F500.00
G1 Z-1.0000 F30.00
G1 Z0 G1 F30.00
G0 Z1.0000 F500.00
G0 X-11.5560 Y-3.9370 F500.00
G1 Z-1.0000 F30.00
G1 Z0 G1 F30.00
G0 Z1.0000 F500.00
G0 X-11.5560 Y-6.4770 F500.00
G1 Z-1.0000 F30.00
G1 Z0 G1 F30.00
G0 Z1.0000 F500.00
G0 X-3.9360 Y-11.5570 F500.00
G1 Z-1.0000 F30.00
G1 Z0 G1 F30.00
G0 Z1.0000 F500.00
G0 X-3.9360 Y-14.0970 F500.00
G1 Z-1.0000 F30.00
G1 Z0 G1 F30.00
G0 Z1.0000 F500.00
G0 X-3.9360 Y-19.1770 F500.00
G1 Z-1.0000 F30.00
G1 Z0 G1 F30.00
G0 Z1.0000 F500.00
G0 X-3.9360 Y-21.7170 F500.00
G1 Z-1.0000 F30.00
G1 Z0 G1 F30.00
G0 Z1.0000 F500.00
G0 X-11.5560 Y-24.2570 F500.00
G1 Z-1.0000 F30.00
G1 Z0 G1 F30.00
G0 Z1.0000 F500.00
G0 X-11.5560 Y-21.7170 F500.00
G1 Z-1.0000 F30.00
G1 Z0 G1 F30.00
G0 Z1.0000 F500.00
G0 X-11.5560 Y-19.1770 F500.00
G1 Z-1.0000 F30.00
G1 Z0 G1 F30.00
G0 Z1.0000 F500.00
G0 X-11.5560 Y-16.6370 F500.00
G1 Z-1.0000 F30.00
G1 Z0 G1 F30.00
G0 Z1.0000 F500.00
G0 X-15.2390 Y-20.1930 F500.00
G1 Z-1.0000 F30.00
G1 Z0 G1 F30.00
G0 Z1.0000 F500.00
G0 X-18.1600 Y-14.0970 F500.00
G1 Z-1.0000 F30.00
G1 Z0 G1 F30.00
G0 Z1.0000 F500.00
G0 X-18.1600 Y-9.2710 F500.00
G1 Z-1.0000 F30.00
G1 Z0 G1 F30.00
G0 Z1.0000 F500.00
G0 X-25.7800 Y-11.3030 F500.00
G1 Z-1.0000 F30.00
G1 Z0 G1 F30.00
G0 Z1.0000 F500.00
G0 X-25.7800 Y-6.2230 F500.00
G1 Z-1.0000 F30.00
G1 Z0 G1 F30.00
G0 Z1.0000 F500.00
G0 X-21.2080 Y-6.2230 F500.00
G1 Z-1.0000 F30.00
G1 Z0 G1 F30.00
G0 Z1.0000 F500.00
G0 X-21.1800 Y-2.9210 F500.00
G1 Z-1.0000 F30.00
G1 Z0 G1 F30.00
G0 Z1.0000 F500.00
G0 X-18.1600 Y1.1430 F500.00
G1 Z-1.0000 F30.00
G1 Z0 G1 F30.00
G0 Z1.0000 F500.00
G0 X-21.2080 Y3.6830 F500.00
G1 Z-1.0000 F30.00
G1 Z0 G1 F30.00
G0 Z1.0000 F500.00
G0 X-21.1800 Y7.2390 F500.00
G1 Z-1.0000 F30.00
G1 Z0 G1 F30.00
G0 Z1.0000 F500.00
G0 X-23.4800 Y7.2390 F500.00
G1 Z-1.0000 F30.00
G1 Z0 G1 F30.00
G0 Z1.0000 F500.00
G0 X-25.7800 Y7.2390 F500.00
G1 Z-1.0000 F30.00
G1 Z0 G1 F30.00
G0 Z1.0000 F500.00
G0 X-28.0660 Y5.9690 F500.00
G1 Z-1.0000 F30.00
G1 Z0 G1 F30.00
G0 Z1.0000 F500.00
G0 X-30.0980 Y5.9690 F500.00
G1 Z-1.0000 F30.00
G1 Z0 G1 F30.00
G0 Z1.0000 F500.00
G0 X-32.1300 Y5.9690 F500.00
G1 Z-1.0000 F30.00
G1 Z0 G1 F30.00
G0 Z1.0000 F500.00
G0 X-30.0980 Y1.1430 F500.00
G1 Z-1.0000 F30.00
G1 Z0 G1 F30.00
G0 Z1.0000 F500.00
G0 X-25.7800 Y3.6830 F500.00
G1 Z-1.0000 F30.00
G1 Z0 G1 F30.00
G0 Z1.0000 F500.00
G0 X-23.4800 Y-2.9210 F500.00
G1 Z-1.0000 F30.00
G1 Z0 G1 F30.00
G0 Z1.0000 F500.00
G0 X-25.7800 Y-2.9210 F500.00
G1 Z-1.0000 F30.00
G1 Z0 G1 F30.00
G0 Z1.0000 F500.00
G0 X-28.0660 Y-3.9370 F500.00
G1 Z-1.0000 F30.00
G1 Z0 G1 F30.00
G0 Z1.0000 F500.00
G0 X-30.0980 Y-3.9370 F500.00
G1 Z-1.0000 F30.00
G1 Z0 G1 F30.00
G0 Z1.0000 F500.00
G0 X-32.1300 Y-3.9370 F500.00
G1 Z-1.0000 F30.00
G1 Z0 G1 F30.00
G0 Z1.0000 F500.00
G0 X-30.0980 Y-9.2710 F500.00
G1 Z-1.0000 F30.00
G1 Z0 G1 F30.00
G0 Z1.0000 F500.00
G0 X-30.0980 Y-14.0970 F500.00
G1 Z-1.0000 F30.00
G1 Z0 G1 F30.00
G0 Z1.0000 F500.00
G0 X-32.1300 Y-18.6690 F500.00
G1 Z-1.0000 F30.00
G1 Z0 G1 F30.00
G0 Z1.0000 F500.00
G0 X-30.0980 Y-18.6690 F500.00
G1 Z-1.0000 F30.00
G1 Z0 G1 F30.00
G0 Z1.0000 F500.00
G0 X-28.0660 Y-18.6690 F500.00
G1 Z-1.0000 F30.00
G1 Z0 G1 F30.00
G0 Z1.0000 F500.00
G0 X-25.7800 Y-16.8910 F500.00
G1 Z-1.0000 F30.00
G1 Z0 G1 F30.00
G0 Z1.0000 F500.00
G0 X-21.2080 Y-16.8910 F500.00
G1 Z-1.0000 F30.00
G1 Z0 G1 F30.00
G0 Z1.0000 F500.00
G0 X-21.1800 Y-20.9550 F500.00
G1 Z-1.0000 F30.00
G1 Z0 G1 F30.00
G0 Z1.0000 F500.00
G0 X-23.4800 Y-20.9550 F500.00
G1 Z-1.0000 F30.00
G1 Z0 G1 F30.00
G0 Z1.0000 F500.00
G0 X-25.7800 Y-20.9550 F500.00
G1 Z-1.0000 F30.00
G1 Z0 G1 F30.00
G0 Z1.0000 F500.00
G0 X-27.3040 Y-24.5110 F500.00
G1 Z-1.0000 F30.00
G1 Z0 G1 F30.00
G0 Z1.0000 F500.00
G0 X-23.4800 Y-28.0670 F500.00
G1 Z-1.0000 F30.00
G1 Z0 G1 F30.00
G0 Z1.0000 F500.00
G0 X-21.1800 Y-28.0670 F500.00
G1 Z-1.0000 F30.00
G1 Z0 G1 F30.00
G0 Z1.0000 F500.00
G0 X-25.7800 Y-28.0670 F500.00
G1 Z-1.0000 F30.00
G1 Z0 G1 F30.00
G0 Z1.0000 F500.00
G0 X-30.0980 Y-31.3690 F500.00
G1 Z-1.0000 F30.00
G1 Z0 G1 F30.00
G0 Z1.0000 F500.00
G0 X-32.1300 Y-35.6870 F500.00
G1 Z-1.0000 F30.00
G1 Z0 G1 F30.00
G0 Z1.0000 F500.00
G0 X-30.0980 Y-35.6870 F500.00
G1 Z-1.0000 F30.00
G1 Z0 G1 F30.00
G0 Z1.0000 F500.00
G0 X-28.0660 Y-35.6870 F500.00
G1 Z-1.0000 F30.00
G1 Z0 G1 F30.00
G0 Z1.0000 F500.00
G0 X-25.7800 Y-33.9090 F500.00
G1 Z-1.0000 F30.00
G1 Z0 G1 F30.00
G0 Z1.0000 F500.00
G0 X-23.4940 Y-36.9570 F500.00
G1 Z-1.0000 F30.00
G1 Z0 G1 F30.00
G0 Z1.0000 F500.00
G0 X-21.2080 Y-33.9090 F500.00
G1 Z-1.0000 F30.00
G1 Z0 G1 F30.00
G0 Z1.0000 F500.00
G0 X-18.1600 Y-31.3690 F500.00
G1 Z-1.0000 F30.00
G1 Z0 G1 F30.00
G0 Z1.0000 F500.00
G0 X-15.2390 Y-27.8130 F500.00
G1 Z-1.0000 F30.00
G1 Z0 G1 F30.00
G0 Z1.0000 F500.00
G0 X-12.8260 Y-31.1150 F500.00
G1 Z-1.0000 F30.00
G1 Z0 G1 F30.00
G0 Z1.0000 F500.00
G0 X-12.8260 Y-36.1950 F500.00
G1 Z-1.0000 F30.00
G1 Z0 G1 F30.00
G0 Z1.0000 F500.00
G0 X-5.9680 Y-36.1950 F500.00
G1 Z-1.0000 F30.00
G1 Z0 G1 F30.00
G0 Z1.0000 F500.00
G0 X-5.9680 Y-33.6950 F500.00
G1 Z-1.0000 F30.00
G1 Z0 G1 F30.00
G0 Z1.0000 F500.00
G0 X-5.9680 Y-30.3130 F500.00
G1 Z-1.0000 F30.00
G1 Z0 G1 F30.00
G0 Z1.0000 F500.00
G0 X-5.9680 Y-27.8130 F500.00
G1 Z-1.0000 F30.00
G1 Z0 G1 F30.00
G0 Z1.0000 F500.00
G0 X-0.8880 Y-34.4170 F500.00
G1 Z-1.0000 F30.00
G1 Z0 G1 F30.00
G0 Z1.0000 F500.00
G0 X-0.8880 Y-31.8770 F500.00
G1 Z-1.0000 F30.00
G1 Z0 G1 F30.00
G0 Z1.0000 F500.00
G0 X-0.8880 Y-29.3370 F500.00
G1 Z-1.0000 F30.00
G1 Z0 G1 F30.00
G0 Z1.0000 F500.00
G0 X3.9380 Y-26.7970 F500.00
G1 Z-1.0000 F30.00
G1 Z0 G1 F30.00
G0 Z1.0000 F500.00
G0 X3.9380 Y-24.2570 F500.00
G1 Z-1.0000 F30.00
G1 Z0 G1 F30.00
G0 Z1.0000 F500.00
G0 X0.1280 Y-24.2570 F500.00
G1 Z-1.0000 F30.00
G1 Z0 G1 F30.00
G0 Z1.0000 F500.00
G0 X0.1280 Y-21.7170 F500.00
G1 Z-1.0000 F30.00
G1 Z0 G1 F30.00
G0 Z1.0000 F500.00
G0 X0.1280 Y-19.1770 F500.00
G1 Z-1.0000 F30.00
G1 Z0 G1 F30.00
G0 Z1.0000 F500.00
G0 X0.1280 Y-16.6370 F500.00
G1 Z-1.0000 F30.00
G1 Z0 G1 F30.00
G0 Z1.0000 F500.00
G0 X0.1280 Y-13.0810 F500.00
G1 Z-1.0000 F30.00
G1 Z0 G1 F30.00
G0 Z1.0000 F500.00
G0 X0.1280 Y-7.7470 F500.00
G1 Z-1.0000 F30.00
G1 Z0 G1 F30.00
G0 Z1.0000 F500.00
G0 X17.9080 Y-14.0970 F500.00
G1 Z-1.0000 F30.00
G1 Z0 G1 F30.00
G0 Z1.0000 F500.00
G0 X17.9080 Y-16.6370 F500.00
G1 Z-1.0000 F30.00
G1 Z0 G1 F30.00
G0 Z1.0000 F500.00
G0 X17.9080 Y-19.1770 F500.00
G1 Z-1.0000 F30.00
G1 Z0 G1 F30.00
G0 Z1.0000 F500.00
G0 X17.9080 Y-21.7170 F500.00
G1 Z-1.0000 F30.00
G1 Z0 G1 F30.00
G0 Z1.0000 F500.00
G0 X17.9080 Y-24.2570 F500.00
G1 Z-1.0000 F30.00
G1 Z0 G1 F30.00
G0 Z1.0000 F500.00
G0 X17.9080 Y-26.7970 F500.00
G1 Z-1.0000 F30.00
G1 Z0 G1 F30.00
G0 Z1.0000 F500.00
G0 X24.2580 Y-29.3370 F500.00
G1 Z-1.0000 F30.00
G1 Z0 G1 F30.00
G0 Z1.0000 F500.00
G0 X27.0520 Y-26.7970 F500.00
G1 Z-1.0000 F30.00
G1 Z0 G1 F30.00
G0 Z1.0000 F500.00
G0 X24.2580 Y-21.7170 F500.00
G1 Z-1.0000 F30.00
G1 Z0 G1 F30.00
G0 Z1.0000 F500.00
G0 X27.0520 Y-19.1770 F500.00
G1 Z-1.0000 F30.00
G1 Z0 G1 F30.00
G0 Z1.0000 F500.00
G0 X31.8780 Y-21.7170 F500.00
G1 Z-1.0000 F30.00
G1 Z0 G1 F30.00
G0 Z1.0000 F500.00
G0 X31.8780 Y-19.1770 F500.00
G1 Z-1.0000 F30.00
G1 Z0 G1 F30.00
G0 Z1.0000 F500.00
G0 X31.8780 Y-11.5570 F500.00
G1 Z-1.0000 F30.00
G1 Z0 G1 F30.00
G0 Z1.0000 F500.00
G0 X24.0040 Y19.4310 F500.00
G1 Z-1.0000 F30.00
G1 Z0 G1 F30.00
G0 Z1.0000 F500.00
G0 X27.8140 Y19.4310 F500.00
G1 Z-1.0000 F30.00
G1 Z0 G1 F30.00
G0 Z1.0000 F500.00
G0 X31.6240 Y20.9550 F500.00
G1 Z-1.0000 F30.00
G1 Z0 G1 F30.00
G0 Z1.0000 F500.00
G0 X31.6240 Y23.2550 F500.00
G1 Z-1.0000 F30.00
G1 Z0 G1 F30.00
G0 Z1.0000 F500.00
G0 X31.6240 Y25.5550 F500.00
G1 Z-1.0000 F30.00
G1 Z0 G1 F30.00
G0 Z1.0000 F500.00
G0 X31.6240 Y29.3370 F500.00
G1 Z-1.0000 F30.00
G1 Z0 G1 F30.00
G0 Z1.0000 F500.00
G0 X27.8140 Y31.1150 F500.00
G1 Z-1.0000 F30.00
G1 Z0 G1 F30.00
G0 Z1.0000 F500.00
G0 X24.0040 Y31.1150 F500.00
G1 Z-1.0000 F30.00
G1 Z0 G1 F30.00
G0 Z1.0000 F500.00
G0 X20.1940 Y29.3370 F500.00
G1 Z-1.0000 F30.00
G1 Z0 G1 F30.00
G0 Z1.0000 F500.00
G0 X20.1940 Y25.5550 F500.00
G1 Z-1.0000 F30.00
G1 Z0 G1 F30.00
G0 Z1.0000 F500.00
G0 X20.1940 Y23.2550 F500.00
G1 Z-1.0000 F30.00
G1 Z0 G1 F30.00
G0 Z1.0000 F500.00
G0 X20.1940 Y20.9550 F500.00
G1 Z-1.0000 F30.00
G1 Z0 G1 F30.00
G0 Z1.0000 F500.00
G0 X14.6060 Y20.9550 F500.00
G1 Z-1.0000 F30.00
G1 Z0 G1 F30.00
G0 Z1.0000 F500.00
G0 X14.6060 Y23.2550 F500.00
G1 Z-1.0000 F30.00
G1 Z0 G1 F30.00
G0 Z1.0000 F500.00
G0 X14.6060 Y25.5550 F500.00
G1 Z-1.0000 F30.00
G1 Z0 G1 F30.00
G0 Z1.0000 F500.00
G0 X14.6060 Y29.3370 F500.00
G1 Z-1.0000 F30.00
G1 Z0 G1 F30.00
G0 Z1.0000 F500.00
G0 X10.7960 Y31.1150 F500.00
G1 Z-1.0000 F30.00
G1 Z0 G1 F30.00
G0 Z1.0000 F500.00
G0 X6.9860 Y31.1150 F500.00
G1 Z-1.0000 F30.00
G1 Z0 G1 F30.00
G0 Z1.0000 F500.00
G0 X3.1760 Y29.3370 F500.00
G1 Z-1.0000 F30.00
G1 Z0 G1 F30.00
G0 Z1.0000 F500.00
G0 X3.1760 Y25.5550 F500.00
G1 Z-1.0000 F30.00
G1 Z0 G1 F30.00
G0 Z1.0000 F500.00
G0 X10.7960 Y19.4310 F500.00
G1 Z-1.0000 F30.00
G1 Z0 G1 F30.00
G0 Z1.0000 F500.00
G0 X6.9860 Y19.4310 F500.00
G1 Z-1.0000 F30.00
G1 Z0 G1 F30.00
G0 Z1.0000 F500.00
G0 X3.1760 Y20.9550 F500.00
G1 Z-1.0000 F30.00
G1 Z0 G1 F30.00
G0 Z1.0000 F500.00
G0 X3.1760 Y23.2550 F500.00
G1 Z-1.0000 F30.00
G1 Z0 G1 F30.00
G0 Z1.0000 F500.00
G0 X-1.3960 Y25.2730 F500.00
G1 Z-1.0000 F30.00
G1 Z0 G1 F30.00
G0 Z1.0000 F500.00
G0 X-4.4440 Y20.9550 F500.00
G1 Z-1.0000 F30.00
G1 Z0 G1 F30.00
G0 Z1.0000 F500.00
G0 X-4.4440 Y16.3830 F500.00
G1 Z-1.0000 F30.00
G1 Z0 G1 F30.00
G0 Z1.0000 F500.00
G0 X-7.7460 Y16.3550 F500.00
G1 Z-1.0000 F30.00
G1 Z0 G1 F30.00
G0 Z1.0000 F500.00
G0 X-7.7460 Y18.6550 F500.00
G1 Z-1.0000 F30.00
G1 Z0 G1 F30.00
G0 Z1.0000 F500.00
G0 X-7.7460 Y20.9550 F500.00
G1 Z-1.0000 F30.00
G1 Z0 G1 F30.00
G0 Z1.0000 F500.00
G0 X-7.7460 Y23.2410 F500.00
G1 Z-1.0000 F30.00
G1 Z0 G1 F30.00
G0 Z1.0000 F500.00
G0 X-7.7460 Y25.2730 F500.00
G1 Z-1.0000 F30.00
G1 Z0 G1 F30.00
G0 Z1.0000 F500.00
G0 X-7.7460 Y27.3050 F500.00
G1 Z-1.0000 F30.00
G1 Z0 G1 F30.00
G0 Z1.0000 F500.00
G0 X-11.5560 Y28.8290 F500.00
G1 Z-1.0000 F30.00
G1 Z0 G1 F30.00
G0 Z1.0000 F500.00
G0 X-18.1600 Y24.2570 F500.00
G1 Z-1.0000 F30.00
G1 Z0 G1 F30.00
G0 Z1.0000 F500.00
G0 X-21.2080 Y27.3050 F500.00
G1 Z-1.0000 F30.00
G1 Z0 G1 F30.00
G0 Z1.0000 F500.00
G0 X-21.1800 Y31.6230 F500.00
G1 Z-1.0000 F30.00
G1 Z0 G1 F30.00
G0 Z1.0000 F500.00
G0 X-23.4940 Y35.8140 F500.00
G1 Z-1.0000 F30.00
G1 Z0 G1 F30.00
G0 Z1.0000 F500.00
G0 X-23.4800 Y31.6230 F500.00
G1 Z-1.0000 F30.00
G1 Z0 G1 F30.00
G0 Z1.0000 F500.00
G0 X-25.7800 Y31.6230 F500.00
G1 Z-1.0000 F30.00
G1 Z0 G1 F30.00
G0 Z1.0000 F500.00
G0 X-25.7800 Y27.3050 F500.00
G1 Z-1.0000 F30.00
G1 Z0 G1 F30.00
G0 Z1.0000 F500.00
G0 X-28.0660 Y29.0830 F500.00
G1 Z-1.0000 F30.00
G1 Z0 G1 F30.00
G0 Z1.0000 F500.00
G0 X-30.0980 Y29.0830 F500.00
G1 Z-1.0000 F30.00
G1 Z0 G1 F30.00
G0 Z1.0000 F500.00
G0 X-32.1300 Y29.0830 F500.00
G1 Z-1.0000 F30.00
G1 Z0 G1 F30.00
G0 Z1.0000 F500.00
G0 X-30.0980 Y24.2570 F500.00
G1 Z-1.0000 F30.00
G1 Z0 G1 F30.00
G0 Z1.0000 F500.00
G0 X-26.9230 Y21.7170 F500.00
G1 Z-1.0000 F30.00
G1 Z0 G1 F30.00
G0 Z1.0000 F500.00
G0 X-28.0660 Y17.6530 F500.00
G1 Z-1.0000 F30.00
G1 Z0 G1 F30.00
G0 Z1.0000 F500.00
G0 X-30.0980 Y17.6530 F500.00
G1 Z-1.0000 F30.00
G1 Z0 G1 F30.00
G0 Z1.0000 F500.00
G0 X-32.1300 Y17.6530 F500.00
G1 Z-1.0000 F30.00
G1 Z0 G1 F30.00
G0 Z1.0000 F500.00
G0 X-30.0980 Y12.5730 F500.00
G1 Z-1.0000 F30.00
G1 Z0 G1 F30.00
G0 Z1.0000 F500.00
G0 X-26.2880 Y10.7950 F500.00
G1 Z-1.0000 F30.00
G1 Z0 G1 F30.00
G0 Z1.0000 F500.00
G0 X-25.7800 Y15.3670 F500.00
G1 Z-1.0000 F30.00
G1 Z0 G1 F30.00
G0 Z1.0000 F500.00
G0 X-25.7800 Y18.9230 F500.00
G1 Z-1.0000 F30.00
G1 Z0 G1 F30.00
G0 Z1.0000 F500.00
G0 X-23.4800 Y18.9230 F500.00
G1 Z-1.0000 F30.00
G1 Z0 G1 F30.00
G0 Z1.0000 F500.00
G0 X-21.1800 Y18.9230 F500.00
G1 Z-1.0000 F30.00
G1 Z0 G1 F30.00
G0 Z1.0000 F500.00
G0 X-21.2080 Y15.3670 F500.00
G1 Z-1.0000 F30.00
G1 Z0 G1 F30.00
G0 Z1.0000 F500.00
G0 X-18.1600 Y12.5730 F500.00
G1 Z-1.0000 F30.00
G1 Z0 G1 F30.00
G0 Z1.0000 F500.00
G0 X-11.5560 Y8.7630 F500.00
G1 Z-1.0000 F30.00
G1 Z0 G1 F30.00
G0 Z1.0000 F500.00
G0 X-11.5560 Y6.2230 F500.00
G1 Z-1.0000 F30.00
G1 Z0 G1 F30.00
G0 Z1.0000 F500.00
G0 X-11.5560 Y3.6830 F500.00
G1 Z-1.0000 F30.00
G1 Z0 G1 F30.00
G0 Z1.0000 F500.00
M5
G0 Z50.00 F500.00
G0 X0.0Y0.0 F500.00

