(G-CODE GENERATED BY FLATCAM v8.994 - www.flatcam.org - Version Date: 2020/11/7)

(Name: led_segments-B.Cu.gbr_ncc_cnc)
(Type: G-code from Geometry)
(Units: MM)

(Created on неделя, 13 декември 2020 at 02:46)

(This preprocessor is the default preprocessor used by FlatCAM.)
(It is made to work with MACH3 compatible motion controllers.)

(TOOL DIAMETER: 0.1 mm)
(Feedrate_XY: 120.0 mm/min)
(Feedrate_Z: 60.0 mm/min)
(Feedrate rapids 1500.0 mm/min)

(Z_Cut: -0.0 mm)
(Z_Move: 2.0 mm)
(Z Start: None mm)
(Z End: 15.0 mm)
(X,Y End: None mm)
(Steps per circle: 64)
(Preprocessor Geometry: default)

(X range:  -38.7268 ...   38.8538  mm)
(Y range:  -43.2988 ...   43.1718  mm)

(Spindle Speed: 0.0 RPM)
G21
G90
G94

G01 F120.00

M5
G00 Z15.0000
G00 X0.0000 Y0.0000
T1
M6    
(MSG, Change to Tool Dia = 0.1000)
M0
G00 Z15.0000

M03
G01 F120.00
G00 X2.5758 Y0.3928
G01 F60.00
G01 Z-0.0000
G01 F120.00
G01 X2.8037 Y0.3928
G01 X2.8221 Y0.3763
G01 X2.8373 Y0.3639
G01 X2.8924 Y0.3228
G01 X2.9043 Y0.3144
G01 X2.8832 Y0.3243
G01 X2.8653 Y0.3323
G01 X2.8470 Y0.3394
G01 X2.8100 Y0.3526
G01 X2.7819 Y0.3615
G01 X2.7343 Y0.3735
G01 X2.7055 Y0.3796
G01 X2.6473 Y0.3883
G01 X2.6277 Y0.3902
G01 X2.5758 Y0.3928
G00 Z2.0000
G00 X3.0190 Y0.2480
G01 F60.00
G01 Z-0.0000
G01 F120.00
G01 X3.0556 Y0.2308
G01 X3.0404 Y0.2338
G01 X3.0190 Y0.2480
G00 Z2.0000
G00 X5.0724 Y0.2308
G01 F60.00
G01 Z-0.0000
G01 F120.00
G01 X5.1090 Y0.2480
G01 X5.0876 Y0.2338
G01 X5.0724 Y0.2308
G00 Z2.0000
G00 X5.3206 Y0.3894
G01 F60.00
G01 Z-0.0000
G01 F120.00
G01 X5.3569 Y0.4224
G01 X5.3711 Y0.4359
G01 X5.3846 Y0.4501
G01 X5.4307 Y0.5011
G01 X5.4431 Y0.5163
G01 X5.4842 Y0.5714
G01 X5.5008 Y0.5957
G01 X5.5362 Y0.6545
G01 X5.5459 Y0.6716
G01 X5.5547 Y0.6891
G01 X5.5799 Y0.7424
G01 X5.5879 Y0.7603
G01 X5.5949 Y0.7786
G01 X5.6180 Y0.8434
G01 X5.6237 Y0.8621
G01 X5.6405 Y0.9288
G01 X5.6448 Y0.9479
G01 X5.6481 Y0.9673
G01 X5.6568 Y1.0255
G01 X5.6592 Y1.0450
G01 X5.6606 Y1.0646
G01 X5.6635 Y1.1234
G01 X5.6640 Y1.1430
G01 X5.6635 Y1.1626
G01 X5.6606 Y1.2214
G01 X5.6592 Y1.2410
G01 X5.6568 Y1.2605
G01 X5.6481 Y1.3187
G01 X5.6448 Y1.3381
G01 X5.6405 Y1.3572
G01 X5.6237 Y1.4239
G01 X5.6180 Y1.4426
G01 X5.5949 Y1.5074
G01 X5.5879 Y1.5257
G01 X5.5799 Y1.5436
G01 X5.5547 Y1.5969
G01 X5.5459 Y1.6144
G01 X5.5362 Y1.6315
G01 X5.5060 Y1.6820
G01 X5.4955 Y1.6986
G01 X5.4842 Y1.7146
G01 X5.4491 Y1.7619
G01 X5.4370 Y1.7774
G01 X5.4242 Y1.7923
G01 X5.3846 Y1.8359
G01 X5.3711 Y1.8501
G01 X5.3569 Y1.8636
G01 X5.3133 Y1.9032
G01 X5.2984 Y1.9160
G01 X5.2829 Y1.9281
G01 X5.2356 Y1.9632
G01 X5.2196 Y1.9745
G01 X5.2030 Y1.9850
G01 X5.1525 Y2.0152
G01 X5.1354 Y2.0249
G01 X5.1179 Y2.0337
G01 X5.0646 Y2.0589
G01 X5.0467 Y2.0669
G01 X5.0284 Y2.0739
G01 X4.9729 Y2.0938
G01 X4.9543 Y2.0999
G01 X4.9354 Y2.1052
G01 X4.8782 Y2.1195
G01 X4.8591 Y2.1238
G01 X4.8397 Y2.1271
G01 X4.7815 Y2.1358
G01 X4.7620 Y2.1382
G01 X4.7424 Y2.1396
G01 X4.6836 Y2.1425
G01 X4.6640 Y2.1430
G01 X3.4640 Y2.1430
G01 X3.4444 Y2.1425
G01 X3.3856 Y2.1396
G01 X3.3562 Y2.1371
G01 X3.2883 Y2.1271
G01 X3.2689 Y2.1238
G01 X3.2498 Y2.1195
G01 X3.1926 Y2.1052
G01 X3.1737 Y2.0999
G01 X3.1551 Y2.0938
G01 X3.0904 Y2.0705
G01 X3.0723 Y2.0630
G01 X3.0101 Y2.0337
G01 X2.9926 Y2.0249
G01 X2.9755 Y2.0152
G01 X2.9167 Y1.9798
G01 X2.8924 Y1.9632
G01 X2.8373 Y1.9221
G01 X2.8221 Y1.9097
G01 X2.8037 Y1.8932
G01 X-11.7543 Y1.8932
G01 X-25.8683 Y16.0072
G01 X-25.8370 Y15.9788
G01 X-25.8222 Y15.9660
G01 X-25.8067 Y15.9539
G01 X-25.7751 Y15.9305
G01 X-25.7591 Y15.9192
G01 X-25.7425 Y15.9087
G01 X-25.7088 Y15.8885
G01 X-25.6917 Y15.8788
G01 X-25.6742 Y15.8700
G01 X-25.6387 Y15.8532
G01 X-25.6207 Y15.8453
G01 X-25.6024 Y15.8382
G01 X-25.5562 Y15.8218
G01 X-25.5374 Y15.8161
G01 X-25.4898 Y15.8040
G01 X-25.4706 Y15.7997
G01 X-25.4513 Y15.7964
G01 X-25.4027 Y15.7893
G01 X-25.3832 Y15.7874
G01 X-25.3341 Y15.7848
G01 X-25.3145 Y15.7844
G01 X-25.2949 Y15.7848
G01 X-25.2557 Y15.7868
G01 X-25.2361 Y15.7882
G01 X-25.2166 Y15.7906
G01 X-25.1778 Y15.7964
G01 X-25.1584 Y15.7997
G01 X-25.1393 Y15.8040
G01 X-25.1012 Y15.8136
G01 X-25.0822 Y15.8188
G01 X-25.0636 Y15.8250
G01 X-25.0174 Y15.8416
G01 X-24.9993 Y15.8491
G01 X-24.9548 Y15.8700
G01 X-24.9373 Y15.8788
G01 X-24.9202 Y15.8885
G01 X-24.8865 Y15.9087
G01 X-24.8700 Y15.9192
G01 X-24.8539 Y15.9305
G01 X-24.8224 Y15.9539
G01 X-24.8069 Y15.9660
G01 X-24.7920 Y15.9788
G01 X-24.7629 Y16.0052
G01 X-24.7487 Y16.0187
G01 X-24.7352 Y16.0329
G01 X-24.7088 Y16.0620
G01 X-24.6960 Y16.0769
G01 X-24.6839 Y16.0924
G01 X-24.6547 Y16.1319
G01 X-24.6438 Y16.1482
G01 X-24.6185 Y16.1903
G01 X-24.6088 Y16.2073
G01 X-24.6000 Y16.2249
G01 X-24.5832 Y16.2604
G01 X-24.5752 Y16.2783
G01 X-24.5682 Y16.2966
G01 X-24.5549 Y16.3336
G01 X-24.5488 Y16.3523
G01 X-24.5435 Y16.3712
G01 X-24.5340 Y16.4093
G01 X-24.5297 Y16.4284
G01 X-24.5263 Y16.4478
G01 X-24.5193 Y16.4964
G01 X-24.5173 Y16.5159
G01 X-24.5148 Y16.5649
G01 X-24.5143 Y16.5846
G01 X-24.5148 Y16.6042
G01 X-24.5173 Y16.6532
G01 X-24.5206 Y16.6825
G01 X-24.5279 Y16.7310
G01 X-24.5411 Y16.7982
G01 X-24.5329 Y16.7828
G01 X-24.5103 Y16.7448
G01 X-24.4997 Y16.7282
G01 X-24.4884 Y16.7122
G01 X-24.4680 Y16.6846
G01 X-24.4559 Y16.6691
G01 X-24.4431 Y16.6542
G01 X-24.4200 Y16.6288
G01 X-24.4065 Y16.6145
G01 X-10.9445 Y3.1525
G01 X-10.9302 Y3.1390
G01 X-10.8974 Y3.1094
G01 X-10.8744 Y3.0910
G01 X-10.8468 Y3.0706
G01 X-10.8308 Y3.0593
G01 X-10.8142 Y3.0487
G01 X-10.7847 Y3.0311
G01 X-10.7676 Y3.0214
G01 X-10.7501 Y3.0126
G01 X-10.7101 Y2.9938
G01 X-10.6828 Y2.9829
G01 X-10.6504 Y2.9713
G01 X-10.6318 Y2.9651
G01 X-10.6128 Y2.9599
G01 X-10.5795 Y2.9515
G01 X-10.5604 Y2.9472
G01 X-10.5410 Y2.9439
G01 X-10.5070 Y2.9388
G01 X-10.4875 Y2.9364
G01 X-10.4680 Y2.9350
G01 X-10.4336 Y2.9333
G01 X-10.4140 Y2.9328
G01 X2.8037 Y2.9328
G01 X2.8221 Y2.9163
G01 X2.8373 Y2.9039
G01 X2.8924 Y2.8628
G01 X2.9167 Y2.8462
G01 X2.9755 Y2.8108
G01 X2.9926 Y2.8011
G01 X3.0101 Y2.7923
G01 X3.0723 Y2.7630
G01 X3.0904 Y2.7555
G01 X3.1551 Y2.7322
G01 X3.1737 Y2.7261
G01 X3.1926 Y2.7208
G01 X3.2593 Y2.7042
G01 X3.2786 Y2.7004
G01 X3.3465 Y2.6902
G01 X3.3758 Y2.6870
G01 X3.4444 Y2.6835
G01 X3.4640 Y2.6830
G01 X4.6640 Y2.6830
G01 X4.6836 Y2.6835
G01 X4.7424 Y2.6864
G01 X4.7620 Y2.6878
G01 X4.7815 Y2.6902
G01 X4.8397 Y2.6989
G01 X4.8591 Y2.7022
G01 X4.8782 Y2.7065
G01 X4.9354 Y2.7208
G01 X4.9543 Y2.7261
G01 X4.9729 Y2.7322
G01 X5.0284 Y2.7521
G01 X5.0467 Y2.7591
G01 X5.0646 Y2.7671
G01 X5.1179 Y2.7923
G01 X5.1354 Y2.8011
G01 X5.1525 Y2.8108
G01 X5.2030 Y2.8410
G01 X5.2196 Y2.8515
G01 X5.2356 Y2.8628
G01 X5.2907 Y2.9039
G01 X5.3133 Y2.9228
G01 X5.3569 Y2.9624
G01 X5.3711 Y2.9759
G01 X5.3846 Y2.9901
G01 X5.4242 Y3.0337
G01 X5.4370 Y3.0486
G01 X5.4491 Y3.0641
G01 X5.4842 Y3.1114
G01 X5.4955 Y3.1274
G01 X5.5060 Y3.1440
G01 X5.5362 Y3.1945
G01 X5.5504 Y3.2203
G01 X5.5799 Y3.2824
G01 X5.5879 Y3.3003
G01 X5.5949 Y3.3186
G01 X5.6148 Y3.3741
G01 X5.6209 Y3.3927
G01 X5.6262 Y3.4116
G01 X5.6405 Y3.4688
G01 X5.6448 Y3.4879
G01 X5.6481 Y3.5073
G01 X5.6568 Y3.5655
G01 X5.6592 Y3.5850
G01 X5.6606 Y3.6046
G01 X5.6635 Y3.6634
G01 X5.6639 Y3.6928
G01 X5.6606 Y3.7614
G01 X5.6592 Y3.7810
G01 X5.6568 Y3.8005
G01 X5.6481 Y3.8587
G01 X5.6448 Y3.8781
G01 X5.6405 Y3.8972
G01 X5.6262 Y3.9544
G01 X5.6209 Y3.9733
G01 X5.6148 Y3.9919
G01 X5.5949 Y4.0474
G01 X5.5879 Y4.0657
G01 X5.5799 Y4.0836
G01 X5.5547 Y4.1369
G01 X5.5412 Y4.1630
G01 X5.5060 Y4.2220
G01 X5.4955 Y4.2386
G01 X5.4842 Y4.2546
G01 X5.4491 Y4.3019
G01 X5.4370 Y4.3174
G01 X5.4242 Y4.3323
G01 X5.3846 Y4.3759
G01 X5.3711 Y4.3901
G01 X5.3569 Y4.4036
G01 X5.3133 Y4.4432
G01 X5.2984 Y4.4560
G01 X5.2829 Y4.4681
G01 X5.2356 Y4.5032
G01 X5.2196 Y4.5145
G01 X5.2030 Y4.5250
G01 X5.1440 Y4.5602
G01 X5.1179 Y4.5737
G01 X5.0646 Y4.5989
G01 X5.0467 Y4.6069
G01 X5.0284 Y4.6139
G01 X4.9729 Y4.6338
G01 X4.9543 Y4.6399
G01 X4.9354 Y4.6452
G01 X4.8782 Y4.6595
G01 X4.8591 Y4.6638
G01 X4.8397 Y4.6671
G01 X4.7718 Y4.6771
G01 X4.7424 Y4.6796
G01 X4.6836 Y4.6825
G01 X4.6640 Y4.6830
G01 X3.4640 Y4.6830
G01 X3.4444 Y4.6825
G01 X3.3856 Y4.6796
G01 X3.3562 Y4.6771
G01 X3.2883 Y4.6671
G01 X3.2689 Y4.6638
G01 X3.2498 Y4.6595
G01 X3.1926 Y4.6452
G01 X3.1737 Y4.6399
G01 X3.1551 Y4.6338
G01 X3.0904 Y4.6105
G01 X3.0723 Y4.6030
G01 X3.0101 Y4.5737
G01 X2.9926 Y4.5649
G01 X2.9755 Y4.5552
G01 X2.9167 Y4.5198
G01 X2.8924 Y4.5032
G01 X2.8373 Y4.4621
G01 X2.8221 Y4.4497
G01 X2.8037 Y4.4332
G01 X-7.4083 Y4.4332
G01 X-7.3662 Y4.4352
G01 X-7.3466 Y4.4367
G01 X-7.3271 Y4.4391
G01 X-7.2883 Y4.4448
G01 X-7.2593 Y4.4502
G01 X-7.2117 Y4.4620
G01 X-7.1927 Y4.4673
G01 X-7.1741 Y4.4734
G01 X-7.1371 Y4.4866
G01 X-7.1188 Y4.4937
G01 X-7.1009 Y4.5017
G01 X-7.0654 Y4.5185
G01 X-7.0392 Y4.5320
G01 X-6.9971 Y4.5572
G01 X-6.9805 Y4.5677
G01 X-6.9644 Y4.5790
G01 X-6.9251 Y4.6083
G01 X-6.9025 Y4.6273
G01 X-6.8734 Y4.6536
G01 X-6.8592 Y4.6672
G01 X-6.8457 Y4.6814
G01 X-6.8193 Y4.7105
G01 X-6.8065 Y4.7254
G01 X-6.7944 Y4.7408
G01 X-6.7652 Y4.7803
G01 X-6.7492 Y4.8050
G01 X-6.7290 Y4.8387
G01 X-6.7193 Y4.8558
G01 X-6.7105 Y4.8733
G01 X-6.6937 Y4.9088
G01 X-6.6857 Y4.9268
G01 X-6.6787 Y4.9451
G01 X-6.6623 Y4.9914
G01 X-6.6541 Y5.0196
G01 X-6.6445 Y5.0577
G01 X-6.6402 Y5.0769
G01 X-6.6369 Y5.0962
G01 X-6.6311 Y5.1351
G01 X-6.6287 Y5.1546
G01 X-6.6272 Y5.1741
G01 X-6.6250 Y5.2232
G01 X-6.6253 Y5.2526
G01 X-6.6272 Y5.2919
G01 X-6.6287 Y5.3114
G01 X-6.6311 Y5.3309
G01 X-6.6369 Y5.3698
G01 X-6.6402 Y5.3891
G01 X-6.6445 Y5.4083
G01 X-6.6566 Y5.4559
G01 X-6.6654 Y5.4839
G01 X-6.6787 Y5.5209
G01 X-6.6857 Y5.5392
G01 X-6.6937 Y5.5572
G01 X-6.7105 Y5.5927
G01 X-6.7193 Y5.6102
G01 X-6.7290 Y5.6273
G01 X-6.7543 Y5.6693
G01 X-6.7710 Y5.6936
G01 X-6.7944 Y5.7252
G01 X-6.8065 Y5.7406
G01 X-6.8193 Y5.7555
G01 X-6.8476 Y5.7867
G01 X-6.7464 Y5.6857
G01 X-6.7138 Y5.6559
G01 X-6.6989 Y5.6431
G01 X-6.6834 Y5.6310
G01 X-6.6558 Y5.6106
G01 X-6.6398 Y5.5993
G01 X-6.6232 Y5.5887
G01 X-6.5937 Y5.5711
G01 X-6.5679 Y5.5569
G01 X-6.5191 Y5.5338
G01 X-6.5010 Y5.5263
G01 X-6.4501 Y5.5081
G01 X-6.4218 Y5.4999
G01 X-6.3885 Y5.4915
G01 X-6.3694 Y5.4872
G01 X-6.3500 Y5.4839
G01 X-6.3160 Y5.4788
G01 X-6.2867 Y5.4756
G01 X-6.2426 Y5.4733
G01 X-6.2230 Y5.4728
G01 X2.8037 Y5.4728
G01 X2.8221 Y5.4563
G01 X2.8373 Y5.4439
G01 X2.8924 Y5.4028
G01 X2.9167 Y5.3862
G01 X2.9755 Y5.3508
G01 X2.9926 Y5.3411
G01 X3.0101 Y5.3323
G01 X3.0723 Y5.3030
G01 X3.0904 Y5.2955
G01 X3.1551 Y5.2722
G01 X3.1737 Y5.2661
G01 X3.1926 Y5.2608
G01 X3.2593 Y5.2442
G01 X3.2786 Y5.2404
G01 X3.3465 Y5.2302
G01 X3.3758 Y5.2270
G01 X3.4444 Y5.2235
G01 X3.4640 Y5.2230
G01 X4.6640 Y5.2230
G01 X4.6836 Y5.2235
G01 X4.7424 Y5.2264
G01 X4.7620 Y5.2278
G01 X4.7815 Y5.2302
G01 X4.8397 Y5.2389
G01 X4.8591 Y5.2422
G01 X4.8782 Y5.2465
G01 X4.9354 Y5.2608
G01 X4.9543 Y5.2661
G01 X4.9729 Y5.2722
G01 X5.0376 Y5.2955
G01 X5.0557 Y5.3030
G01 X5.1179 Y5.3323
G01 X5.1354 Y5.3411
G01 X5.1525 Y5.3508
G01 X5.2030 Y5.3810
G01 X5.2196 Y5.3915
G01 X5.2356 Y5.4028
G01 X5.2829 Y5.4379
G01 X5.2984 Y5.4500
G01 X5.3133 Y5.4628
G01 X5.3569 Y5.5024
G01 X5.3711 Y5.5159
G01 X5.3846 Y5.5301
G01 X5.4242 Y5.5737
G01 X5.4431 Y5.5963
G01 X5.4842 Y5.6514
G01 X5.4955 Y5.6674
G01 X5.5060 Y5.6840
G01 X5.5362 Y5.7345
G01 X5.5459 Y5.7516
G01 X5.5547 Y5.7691
G01 X5.5799 Y5.8224
G01 X5.5879 Y5.8403
G01 X5.5949 Y5.8586
G01 X5.6148 Y5.9141
G01 X5.6209 Y5.9327
G01 X5.6262 Y5.9516
G01 X5.6405 Y6.0088
G01 X5.6466 Y6.0376
G01 X5.6568 Y6.1055
G01 X5.6592 Y6.1250
G01 X5.6606 Y6.1446
G01 X5.6635 Y6.2034
G01 X5.6640 Y6.2230
G01 X5.6635 Y6.2426
G01 X5.6606 Y6.3014
G01 X5.6592 Y6.3210
G01 X5.6568 Y6.3405
G01 X5.6481 Y6.3987
G01 X5.6448 Y6.4181
G01 X5.6405 Y6.4372
G01 X5.6262 Y6.4944
G01 X5.6209 Y6.5133
G01 X5.6148 Y6.5319
G01 X5.5915 Y6.5966
G01 X5.5799 Y6.6236
G01 X5.5547 Y6.6769
G01 X5.5459 Y6.6944
G01 X5.5362 Y6.7115
G01 X5.5060 Y6.7620
G01 X5.4955 Y6.7786
G01 X5.4842 Y6.7946
G01 X5.4491 Y6.8419
G01 X5.4370 Y6.8574
G01 X5.4242 Y6.8723
G01 X5.3846 Y6.9159
G01 X5.3641 Y6.9370
G01 X5.3133 Y6.9832
G01 X5.2984 Y6.9960
G01 X5.2829 Y7.0081
G01 X5.2356 Y7.0432
G01 X5.2196 Y7.0545
G01 X5.2030 Y7.0650
G01 X5.1525 Y7.0952
G01 X5.1354 Y7.1049
G01 X5.1179 Y7.1137
G01 X5.0646 Y7.1389
G01 X5.0467 Y7.1469
G01 X5.0284 Y7.1539
G01 X4.9729 Y7.1738
G01 X4.9543 Y7.1799
G01 X4.9354 Y7.1852
G01 X4.8687 Y7.2018
G01 X4.8494 Y7.2056
G01 X4.7815 Y7.2158
G01 X4.7620 Y7.2182
G01 X4.7424 Y7.2196
G01 X4.6836 Y7.2225
G01 X4.6640 Y7.2230
G01 X3.4640 Y7.2230
G01 X3.4444 Y7.2225
G01 X3.3856 Y7.2196
G01 X3.3562 Y7.2171
G01 X3.2883 Y7.2071
G01 X3.2689 Y7.2038
G01 X3.2498 Y7.1995
G01 X3.1926 Y7.1852
G01 X3.1737 Y7.1799
G01 X3.1551 Y7.1738
G01 X3.0904 Y7.1505
G01 X3.0723 Y7.1430
G01 X3.0101 Y7.1137
G01 X2.9926 Y7.1049
G01 X2.9755 Y7.0952
G01 X2.9167 Y7.0598
G01 X2.8924 Y7.0432
G01 X2.8373 Y7.0021
G01 X2.8221 Y6.9897
G01 X2.8037 Y6.9732
G01 X-5.3763 Y6.9732
G01 X-5.3342 Y6.9752
G01 X-5.3146 Y6.9767
G01 X-5.2951 Y6.9791
G01 X-5.2563 Y6.9848
G01 X-5.2273 Y6.9902
G01 X-5.1797 Y7.0020
G01 X-5.1607 Y7.0073
G01 X-5.1421 Y7.0134
G01 X-5.1051 Y7.0266
G01 X-5.0868 Y7.0337
G01 X-5.0689 Y7.0417
G01 X-5.0334 Y7.0585
G01 X-5.0072 Y7.0720
G01 X-4.9651 Y7.0972
G01 X-4.9485 Y7.1077
G01 X-4.9324 Y7.1190
G01 X-4.9009 Y7.1424
G01 X-4.8854 Y7.1544
G01 X-4.8705 Y7.1673
G01 X-4.8414 Y7.1936
G01 X-4.8203 Y7.2142
G01 X-4.7873 Y7.2505
G01 X-4.7745 Y7.2654
G01 X-4.7624 Y7.2808
G01 X-4.7390 Y7.3124
G01 X-4.7277 Y7.3284
G01 X-4.7172 Y7.3450
G01 X-4.6970 Y7.3787
G01 X-4.6828 Y7.4045
G01 X-4.6617 Y7.4488
G01 X-4.6537 Y7.4668
G01 X-4.6467 Y7.4851
G01 X-4.6303 Y7.5314
G01 X-4.6221 Y7.5596
G01 X-4.6125 Y7.5977
G01 X-4.6082 Y7.6169
G01 X-4.6049 Y7.6362
G01 X-4.5991 Y7.6751
G01 X-4.5967 Y7.6946
G01 X-4.5952 Y7.7141
G01 X-4.5930 Y7.7632
G01 X-4.5933 Y7.7926
G01 X-4.5952 Y7.8319
G01 X-4.5967 Y7.8514
G01 X-4.5991 Y7.8709
G01 X-4.6049 Y7.9098
G01 X-4.6082 Y7.9291
G01 X-4.6125 Y7.9483
G01 X-4.6221 Y7.9864
G01 X-4.6273 Y8.0053
G01 X-4.6334 Y8.0239
G01 X-4.6467 Y8.0609
G01 X-4.6576 Y8.0882
G01 X-4.6785 Y8.1327
G01 X-4.6873 Y8.1502
G01 X-4.6970 Y8.1673
G01 X-4.7223 Y8.2093
G01 X-4.7390 Y8.2336
G01 X-4.7624 Y8.2652
G01 X-4.7745 Y8.2806
G01 X-4.7873 Y8.2955
G01 X-4.8156 Y8.3267
G01 X-4.7144 Y8.2257
G01 X-4.6818 Y8.1959
G01 X-4.6669 Y8.1831
G01 X-4.6514 Y8.1710
G01 X-4.6238 Y8.1506
G01 X-4.6078 Y8.1393
G01 X-4.5912 Y8.1287
G01 X-4.5617 Y8.1111
G01 X-4.5446 Y8.1014
G01 X-4.5271 Y8.0926
G01 X-4.4960 Y8.0779
G01 X-4.4781 Y8.0699
G01 X-4.4598 Y8.0629
G01 X-4.4274 Y8.0513
G01 X-4.3993 Y8.0424
G01 X-4.3470 Y8.0293
G01 X-4.3277 Y8.0254
G01 X-4.2743 Y8.0175
G01 X-4.2450 Y8.0150
G01 X-4.2106 Y8.0133
G01 X-4.1910 Y8.0128
G01 X2.8037 Y8.0128
G01 X2.8221 Y7.9963
G01 X2.8373 Y7.9839
G01 X2.8924 Y7.9428
G01 X2.9167 Y7.9262
G01 X2.9755 Y7.8908
G01 X2.9926 Y7.8811
G01 X3.0101 Y7.8723
G01 X3.0723 Y7.8430
G01 X3.0904 Y7.8355
G01 X3.1551 Y7.8122
G01 X3.1737 Y7.8061
G01 X3.1926 Y7.8008
G01 X3.2498 Y7.7865
G01 X3.2689 Y7.7822
G01 X3.2883 Y7.7789
G01 X3.3465 Y7.7702
G01 X3.3660 Y7.7678
G01 X3.3856 Y7.7664
G01 X3.4444 Y7.7635
G01 X3.4640 Y7.7630
G01 X4.6738 Y7.7631
G01 X4.7424 Y7.7664
G01 X4.7718 Y7.7689
G01 X4.8494 Y7.7804
G01 X4.8782 Y7.7865
G01 X4.9354 Y7.8008
G01 X4.9543 Y7.8061
G01 X4.9729 Y7.8122
G01 X5.0284 Y7.8321
G01 X5.0467 Y7.8391
G01 X5.0646 Y7.8471
G01 X5.1179 Y7.8723
G01 X5.1354 Y7.8811
G01 X5.1525 Y7.8908
G01 X5.2030 Y7.9210
G01 X5.2196 Y7.9315
G01 X5.2356 Y7.9428
G01 X5.2829 Y7.9779
G01 X5.2984 Y7.9900
G01 X5.3133 Y8.0028
G01 X5.3641 Y8.0490
G01 X5.3780 Y8.0629
G01 X5.4242 Y8.1137
G01 X5.4431 Y8.1363
G01 X5.4842 Y8.1914
G01 X5.4955 Y8.2074
G01 X5.5060 Y8.2240
G01 X5.5362 Y8.2745
G01 X5.5459 Y8.2916
G01 X5.5547 Y8.3091
G01 X5.5799 Y8.3624
G01 X5.5879 Y8.3803
G01 X5.5949 Y8.3986
G01 X5.6148 Y8.4541
G01 X5.6209 Y8.4727
G01 X5.6262 Y8.4916
G01 X5.6405 Y8.5488
G01 X5.6448 Y8.5679
G01 X5.6481 Y8.5873
G01 X5.6568 Y8.6455
G01 X5.6592 Y8.6650
G01 X5.6606 Y8.6846
G01 X5.6635 Y8.7434
G01 X5.6640 Y8.7630
G01 X5.6635 Y8.7826
G01 X5.6606 Y8.8414
G01 X5.6592 Y8.8610
G01 X5.6568 Y8.8805
G01 X5.6481 Y8.9387
G01 X5.6448 Y8.9581
G01 X5.6405 Y8.9772
G01 X5.6262 Y9.0344
G01 X5.6209 Y9.0533
G01 X5.6148 Y9.0719
G01 X5.5949 Y9.1274
G01 X5.5879 Y9.1457
G01 X5.5799 Y9.1636
G01 X5.5547 Y9.2169
G01 X5.5459 Y9.2344
G01 X5.5362 Y9.2515
G01 X5.5008 Y9.3103
G01 X5.4842 Y9.3346
G01 X5.4431 Y9.3897
G01 X5.4307 Y9.4049
G01 X5.3846 Y9.4559
G01 X5.3711 Y9.4701
G01 X5.3569 Y9.4836
G01 X5.3206 Y9.5166
G01 X5.4069 Y9.4589
G01 X5.6202 Y9.1396
G01 X5.6951 Y8.7630
G01 X5.6202 Y8.3864
G01 X5.3203 Y7.9376
G01 X5.3098 Y7.9210
G01 X5.2896 Y7.8873
G01 X5.2754 Y7.8615
G01 X5.2543 Y7.8172
G01 X5.2427 Y7.7901
G01 X5.2229 Y7.7346
G01 X5.2147 Y7.7064
G01 X5.2029 Y7.6587
G01 X5.1975 Y7.6298
G01 X5.1917 Y7.5909
G01 X5.1893 Y7.5714
G01 X5.1879 Y7.5519
G01 X5.1860 Y7.5126
G01 X5.1856 Y7.4832
G01 X5.1879 Y7.4341
G01 X5.1893 Y7.4146
G01 X5.1917 Y7.3951
G01 X5.1975 Y7.3562
G01 X5.2029 Y7.3273
G01 X5.2172 Y7.2701
G01 X5.2261 Y7.2421
G01 X5.2393 Y7.2051
G01 X5.2464 Y7.1868
G01 X5.2543 Y7.1688
G01 X5.2711 Y7.1333
G01 X5.2847 Y7.1072
G01 X5.3098 Y7.0650
G01 X5.3203 Y7.0484
G01 X5.6202 Y6.5996
G01 X5.6951 Y6.2230
G01 X5.6202 Y5.8464
G01 X5.3203 Y5.3976
G01 X5.3098 Y5.3810
G01 X5.2896 Y5.3473
G01 X5.2800 Y5.3302
G01 X5.2711 Y5.3127
G01 X5.2543 Y5.2772
G01 X5.2464 Y5.2592
G01 X5.2393 Y5.2409
G01 X5.2261 Y5.2039
G01 X5.2199 Y5.1853
G01 X5.2147 Y5.1664
G01 X5.2052 Y5.1283
G01 X5.2009 Y5.1091
G01 X5.1975 Y5.0898
G01 X5.1917 Y5.0509
G01 X5.1885 Y5.0217
G01 X5.1856 Y4.9628
G01 X5.1860 Y4.9334
G01 X5.1879 Y4.8941
G01 X5.1893 Y4.8746
G01 X5.1917 Y4.8551
G01 X5.1975 Y4.8162
G01 X5.2029 Y4.7873
G01 X5.2172 Y4.7301
G01 X5.2261 Y4.7021
G01 X5.2427 Y4.6559
G01 X5.2543 Y4.6288
G01 X5.2711 Y4.5933
G01 X5.2800 Y4.5758
G01 X5.2896 Y4.5587
G01 X5.3150 Y4.5167
G01 X5.6202 Y4.0596
G01 X5.6951 Y3.6830
G01 X5.6202 Y3.3064
G01 X5.3203 Y2.8576
G01 X5.3098 Y2.8410
G01 X5.2896 Y2.8073
G01 X5.2800 Y2.7902
G01 X5.2711 Y2.7727
G01 X5.2543 Y2.7372
G01 X5.2464 Y2.7192
G01 X5.2393 Y2.7009
G01 X5.2261 Y2.6639
G01 X5.2199 Y2.6453
G01 X5.2147 Y2.6264
G01 X5.2052 Y2.5883
G01 X5.2009 Y2.5691
G01 X5.1975 Y2.5498
G01 X5.1904 Y2.5012
G01 X5.1879 Y2.4719
G01 X5.1860 Y2.4326
G01 X5.1855 Y2.4130
G01 X5.1860 Y2.3934
G01 X5.1879 Y2.3541
G01 X5.1904 Y2.3248
G01 X5.1991 Y2.2665
G01 X5.2052 Y2.2377
G01 X5.2147 Y2.1996
G01 X5.2199 Y2.1807
G01 X5.2261 Y2.1621
G01 X5.2393 Y2.1251
G01 X5.2503 Y2.0978
G01 X5.2754 Y2.0445
G01 X5.2896 Y2.0187
G01 X5.3150 Y1.9767
G01 X5.6202 Y1.5196
G01 X5.6951 Y1.1430
G01 X5.6202 Y0.7664
G01 X5.4069 Y0.4471
G01 X5.3206 Y0.3894
G00 Z2.0000
G00 X10.0692 Y1.2254
G01 F60.00
G01 Z-0.0000
G01 F120.00
G01 X10.0869 Y1.2120
G00 Z2.0000
G00 X10.2484 Y1.6922
G01 F60.00
G01 Z-0.0000
G01 F120.00
G01 X10.2449 Y1.6949
G00 Z2.0000
G00 X10.5003 Y2.1036
G01 F60.00
G01 Z-0.0000
G01 F120.00
G01 X10.6075 Y2.0221
G00 Z2.0000
G00 X10.5090 Y2.6999
G01 F60.00
G01 Z-0.0000
G01 F120.00
G01 X11.1279 Y2.2292
G01 X11.2356 Y2.1430
G01 X11.3241 Y2.6830
G01 X11.4232 Y2.6076
G01 X12.0037 Y2.1430
G01 X12.0971 Y2.6830
G01 X12.3393 Y2.4891
G01 X12.9478 Y1.9772
G01 X13.0428 Y1.8932
G01 X13.7674 Y1.8932
G01 X13.2613 Y2.3406
G01 X12.7294 Y2.7882
G01 X13.3030 Y2.9328
G01 X13.5748 Y2.7041
G01 X14.1882 Y2.1617
G01 X14.4773 Y1.8932
G01 X15.1795 Y1.8932
G01 X15.1191 Y1.9521
G01 X14.5106 Y2.5174
G01 X14.0407 Y2.9328
G00 Z2.0000
G00 X14.7641 Y2.9339
G01 F60.00
G01 Z-0.0000
G01 F120.00
G01 X14.8329 Y2.8730
G01 X15.4500 Y2.2998
G01 X15.8667 Y1.8932
G01 X16.5462 Y1.8932
G01 X16.3923 Y2.0509
G01 X15.7810 Y2.6474
G01 X15.2500 Y3.1407
G00 Z2.0000
G00 X15.5899 Y3.4800
G01 F60.00
G01 Z-0.0000
G01 F120.00
G01 X16.1120 Y2.9950
G01 X16.7317 Y2.3903
G01 X17.2168 Y1.8932
G00 Z2.0000
G00 X17.4788 Y2.3120
G01 F60.00
G01 Z-0.0000
G01 F120.00
G01 X17.0711 Y2.7297
G01 X16.4430 Y3.3427
G01 X15.9295 Y3.8196
G01 X16.2692 Y4.1592
G01 X16.7739 Y3.6903
G01 X17.4105 Y3.0692
G01 X17.8649 Y2.6035
G00 Z2.0000
G00 X18.4584 Y2.6784
G01 F60.00
G01 Z-0.0000
G01 F120.00
G01 X18.3794 Y2.7635
G01 X17.7500 Y3.4086
G01 X17.1049 Y4.0380
G01 X16.6088 Y4.4989
G00 Z2.0000
G00 X16.9484 Y4.8385
G01 F60.00
G01 Z-0.0000
G01 F120.00
G01 X17.4359 Y4.3856
G01 X18.0894 Y3.7480
G01 X18.7270 Y3.0945
G01 X19.3484 Y2.4256
G01 X19.9532 Y1.7416
G01 X20.4343 Y1.1698
G01 X20.4336 Y2.6474
G01 X20.0597 Y3.0703
G01 X19.4223 Y3.7565
G01 X18.7682 Y4.4268
G01 X18.0979 Y5.0809
G01 X17.6276 Y5.5177
G00 Z2.0000
G00 X17.9672 Y5.8573
G01 F60.00
G01 Z-0.0000
G01 F120.00
G01 X18.4288 Y5.4285
G01 X19.1076 Y4.7662
G01 X19.7699 Y4.0874
G01 X20.2860 Y3.5319
G00 Z2.0000
G00 X20.2881 Y4.2349
G01 F60.00
G01 Z-0.0000
G01 F120.00
G01 X20.1175 Y4.4184
G01 X19.4470 Y5.1056
G01 X18.7598 Y5.7761
G01 X18.3068 Y6.1969
G01 X18.6465 Y6.5366
G01 X19.0908 Y6.1238
G01 X19.7864 Y5.4450
G01 X20.4077 Y4.8083
G01 X20.4077 Y5.4955
G01 X20.1258 Y5.7844
G01 X19.4218 Y6.4714
G01 X18.9581 Y6.9022
G00 Z2.0000
G00 X19.0382 Y7.4829
G01 F60.00
G01 Z-0.0000
G01 F120.00
G01 X19.7528 Y6.8191
G01 X20.4077 Y6.1800
G00 Z2.0000
G00 X20.3080 Y6.9479
G01 F60.00
G01 Z-0.0000
G01 F120.00
G01 X20.0837 Y7.1667
G01 X19.3458 Y7.8522
G01 X19.0382 Y8.1242
G01 X19.0382 Y8.7649
G01 X19.6681 Y8.2079
G01 X20.3080 Y7.6135
G00 Z2.0000
G00 X20.3774 Y8.2042
G01 F60.00
G01 Z-0.0000
G01 F120.00
G01 X19.9905 Y8.5635
G01 X19.2183 Y9.2464
G01 X19.0382 Y9.3979
G01 X19.0382 Y10.0252
G01 X19.5318 Y9.6098
G01 X20.3128 Y8.9192
G01 X20.4355 Y8.8052
G01 X20.4353 Y9.4516
G01 X19.8453 Y9.9733
G01 X19.0382 Y10.6524
G01 X19.0382 Y11.2672
G01 X19.3430 Y11.0232
G01 X20.1588 Y10.3368
G01 X20.4351 Y10.0925
G01 X20.4349 Y10.7318
G01 X19.6476 Y11.3942
G01 X19.2681 Y11.6979
G00 Z2.0000
G00 X19.3380 Y12.2567
G01 F60.00
G01 Z-0.0000
G01 F120.00
G01 X19.9521 Y11.7653
G01 X20.4346 Y11.3592
G01 X20.4344 Y11.9867
G01 X20.2566 Y12.1363
G01 X19.3966 Y12.8246
G01 X19.3380 Y12.8692
G00 Z2.0000
G00 X19.2152 Y13.5657
G01 F60.00
G01 Z-0.0000
G01 F120.00
G01 X19.6919 Y13.2030
G01 X20.4342 Y12.6089
G01 X20.4340 Y13.2238
G01 X19.9872 Y13.5814
G01 X19.0919 Y14.2626
G01 X18.1800 Y14.9217
G01 X17.2523 Y15.5582
G01 X17.1764 Y15.6075
G01 X17.5233 Y15.9544
G01 X18.4564 Y15.3141
G01 X19.3778 Y14.6482
G01 X20.2825 Y13.9598
G01 X20.4338 Y13.8388
G01 X20.3484 Y14.5128
G01 X19.6637 Y15.0337
G01 X18.7328 Y15.7066
G01 X17.8685 Y16.2996
G01 X18.2137 Y16.6448
G01 X19.0092 Y16.0990
G01 X19.9497 Y15.4193
G01 X20.2860 Y15.1634
G01 X20.2860 Y15.7664
G01 X20.2356 Y15.8048
G01 X19.2856 Y16.4915
G01 X18.5589 Y16.9900
G00 Z2.0000
G00 X18.8958 Y17.3409
G01 F60.00
G01 Z-0.0000
G01 F120.00
G01 X19.5620 Y16.8839
G01 X20.3775 Y16.2944
G01 X20.4357 Y16.8446
G01 X19.8384 Y17.2763
G01 X19.0382 Y17.8253
G01 X19.0382 Y18.4045
G01 X19.1191 Y18.3519
G01 X20.1148 Y17.6688
G01 X20.4357 Y17.4368
G01 X20.3335 Y18.1008
G01 X19.3857 Y18.7510
G01 X19.0382 Y18.9771
G01 X19.0382 Y19.5497
G01 X19.6524 Y19.1501
G01 X20.3080 Y18.7003
G01 X20.3080 Y19.2824
G01 X19.9191 Y19.5492
G01 X19.0382 Y20.1223
G01 X19.0382 Y20.6916
G01 X19.1341 Y20.6325
G01 X20.1858 Y19.9483
G01 X20.3569 Y19.8309
G00 Z2.0000
G00 X20.4077 Y20.3765
G01 F60.00
G01 Z-0.0000
G01 F120.00
G01 X19.3909 Y21.0380
G01 X19.0382 Y21.2554
G01 X19.0382 Y21.8191
G01 X19.6477 Y21.4436
G01 X20.4077 Y20.9491
G01 X20.4077 Y21.5217
G01 X19.9045 Y21.8491
G01 X19.0382 Y22.3829
G01 X19.0382 Y22.9462
G01 X19.0530 Y22.9375
G01 X20.1613 Y22.2546
G01 X20.4077 Y22.0943
G01 X20.4077 Y22.6665
G01 X19.2998 Y23.3492
G01 X19.2639 Y23.3702
G00 Z2.0000
G00 X19.3380 Y23.8825
G01 F60.00
G01 Z-0.0000
G01 F120.00
G01 X19.5465 Y23.7609
G01 X20.4077 Y23.2303
G01 X20.4077 Y23.7941
G01 X19.7933 Y24.1727
G01 X19.3380 Y24.4380
G00 Z2.0000
G00 X19.3057 Y25.0124
G01 F60.00
G01 Z-0.0000
G01 F120.00
G01 X20.0401 Y24.5844
G01 X20.4077 Y24.3578
G01 X20.4077 Y24.9216
G01 X20.2869 Y24.9961
G01 X19.1113 Y25.6812
G01 X17.9192 Y26.3373
G01 X17.5085 Y26.5504
G01 X17.8646 Y26.9064
G01 X18.1455 Y26.7606
G01 X19.3479 Y26.0989
G01 X20.4077 Y25.4811
G01 X20.4077 Y26.0367
G01 X19.5845 Y26.5165
G01 X18.3718 Y27.1840
G01 X18.2206 Y27.2624
G01 X18.5766 Y27.6184
G01 X18.5980 Y27.6073
G01 X19.8210 Y26.9341
G01 X20.2973 Y26.6566
G00 Z2.0000
G00 X20.2860 Y27.2187
G01 F60.00
G01 Z-0.0000
G01 F120.00
G01 X20.0576 Y27.3518
G01 X18.9304 Y27.9722
G01 X19.2837 Y28.3256
G01 X20.2860 Y27.7740
G00 Z2.0000
G00 X20.3922 Y28.2634
G01 F60.00
G01 Z-0.0000
G01 F120.00
G01 X19.6371 Y28.6790
G01 X19.9905 Y29.0323
G01 X20.4357 Y28.7873
G01 X20.4357 Y29.3351
G01 X20.3438 Y29.3857
G00 Z2.0000
G00 X22.2374 Y29.4146
G01 F60.00
G01 Z-0.0000
G01 F120.00
G01 X22.7545 Y29.1132
G01 X24.0133 Y28.3376
G01 X24.8580 Y27.7880
G00 Z2.0000
G00 X24.9744 Y28.2849
G01 F60.00
G01 Z-0.0000
G01 F120.00
G01 X24.2701 Y28.7431
G01 X23.0013 Y29.5249
G01 X22.2369 Y29.9704
G01 X22.2364 Y30.5262
G01 X23.2481 Y29.9366
G01 X24.5269 Y29.1486
G01 X25.1578 Y28.7381
G01 X25.1578 Y29.3107
G01 X24.7837 Y29.5542
G01 X23.9334 Y30.0781
G00 Z2.0000
G00 X24.3683 Y30.3739
G01 F60.00
G01 Z-0.0000
G01 F120.00
G01 X25.0405 Y29.9597
G01 X25.1578 Y29.8833
G01 X25.0435 Y30.5216
G01 X24.5835 Y30.8050
G01 X24.9080 Y31.1688
G01 X24.6080 Y31.3537
G01 X24.9080 Y31.7326
G01 X24.6080 Y31.9175
G01 X24.9110 Y32.2945
G01 X24.7287 Y32.4069
G01 X24.5687 Y32.5001
G00 Z2.0000
G00 X25.0664 Y32.7625
G01 F60.00
G01 Z-0.0000
G01 F120.00
G01 X24.9755 Y32.8186
G01 X24.5223 Y33.0827
G00 Z2.0000
G00 X24.6110 Y33.5865
G01 F60.00
G01 Z-0.0000
G01 F120.00
G01 X24.5223 Y33.6382
G00 Z2.0000
G00 X24.5223 Y34.5650
G01 F60.00
G01 Z-0.0000
G01 F120.00
G01 X24.5223 Y34.7751
G01 X24.5383 Y34.8020
G01 X24.5480 Y34.8190
G01 X24.5568 Y34.8366
G01 X24.5801 Y34.8857
G01 X24.5626 Y34.7976
G01 X24.5563 Y34.7786
G01 X24.5510 Y34.7596
G01 X24.5392 Y34.7120
G01 X24.5354 Y34.6927
G01 X24.5281 Y34.6442
G01 X24.5257 Y34.6247
G01 X24.5242 Y34.6051
G01 X24.5223 Y34.5650
G00 Z2.0000
G00 X24.5451 Y34.7360
G01 F60.00
G01 Z-0.0000
G01 F120.00
G01 X24.5223 Y34.7493
G00 Z2.0000
G00 X25.3461 Y33.1540
G01 F60.00
G01 Z-0.0000
G01 F120.00
G01 X25.4308 Y33.1017
G00 Z2.0000
G00 X26.1892 Y33.1982
G01 F60.00
G01 Z-0.0000
G01 F120.00
G01 X26.2454 Y33.1636
G00 Z2.0000
G00 X26.5978 Y32.9464
G01 F60.00
G01 Z-0.0000
G01 F120.00
G01 X26.6302 Y32.9265
G00 Z2.0000
G00 X26.8030 Y32.6680
G01 F60.00
G01 Z-0.0000
G01 F120.00
G01 X26.8172 Y32.6466
G01 X26.8202 Y32.6314
G01 X26.8030 Y32.6680
G00 Z2.0000
G00 X26.9080 Y31.0351
G01 F60.00
G01 Z-0.0000
G01 F120.00
G01 X26.9370 Y31.0163
G00 Z2.0000
G00 X26.7849 Y30.5426
G01 F60.00
G01 Z-0.0000
G01 F120.00
G01 X27.1193 Y30.3251
G01 X27.4213 Y30.1178
G00 Z2.0000
G00 X27.2133 Y29.6785
G01 F60.00
G01 Z-0.0000
G01 F120.00
G01 X26.8526 Y29.9260
G01 X26.6582 Y30.0524
G01 X26.6582 Y29.4773
G01 X27.1737 Y29.1236
G01 X26.8285 Y28.7784
G01 X26.6582 Y28.8952
G00 Z2.0000
G00 X27.7323 Y27.5604
G01 F60.00
G01 Z-0.0000
G01 F120.00
G01 X28.5277 Y26.9854
G01 X29.4758 Y26.2641
G01 X29.4758 Y26.8672
G01 X28.8137 Y27.3710
G01 X28.3617 Y27.6977
G00 Z2.0000
G00 X28.8549 Y27.9334
G01 F60.00
G01 Z-0.0000
G01 F120.00
G01 X29.0996 Y27.7565
G01 X29.4758 Y27.4703
G01 X29.3850 Y28.1425
G01 X29.1283 Y28.3280
G00 Z2.0000
G00 X29.2260 Y28.8496
G01 F60.00
G01 Z-0.0000
G01 F120.00
G01 X29.1940 Y28.8727
G01 X29.2260 Y29.4418
G01 X29.1940 Y29.4649
G00 Z2.0000
G00 X29.3419 Y29.9502
G01 F60.00
G01 Z-0.0000
G01 F120.00
G01 X28.9973 Y30.1993
G00 Z2.0000
G00 X29.6627 Y30.3106
G01 F60.00
G01 Z-0.0000
G01 F120.00
G01 X29.6637 Y30.3099
G00 Z2.0000
G00 X30.2102 Y30.5071
G01 F60.00
G01 Z-0.0000
G01 F120.00
G01 X30.2441 Y30.4826
G00 Z2.0000
G00 X31.1273 Y29.9145
G01 F60.00
G01 Z-0.0000
G01 F120.00
G01 X31.1352 Y29.9027
G01 X31.1369 Y29.8943
G01 X31.1273 Y29.9145
G00 Z2.0000
G00 X31.1369 Y28.2717
G01 F60.00
G01 Z-0.0000
G01 F120.00
G01 X31.1352 Y28.2633
G01 X31.1273 Y28.2515
G01 X31.1369 Y28.2717
G00 Z2.0000
G00 X31.0490 Y28.1153
G01 F60.00
G01 Z-0.0000
G01 F120.00
G01 X31.0406 Y28.0972
G01 X31.0331 Y28.0791
G01 X31.0132 Y28.0236
G01 X31.0050 Y27.9953
G01 X30.9932 Y27.9477
G01 X30.9878 Y27.9187
G01 X30.9807 Y27.8702
G01 X30.9788 Y27.8506
G01 X30.9762 Y27.7987
G01 X30.9762 Y28.0227
G01 X30.9927 Y28.0411
G01 X31.0051 Y28.0563
G01 X31.0490 Y28.1153
G00 Z2.0000
G00 X31.0335 Y28.0944
G01 F60.00
G01 Z-0.0000
G01 F120.00
G01 X31.0379 Y28.0910
G00 Z2.0000
G00 X30.9762 Y25.7325
G01 F60.00
G01 Z-0.0000
G01 F120.00
G01 X30.9788 Y25.6806
G01 X30.9807 Y25.6610
G01 X30.9894 Y25.6028
G01 X30.9955 Y25.5740
G01 X31.0075 Y25.5264
G01 X31.0164 Y25.4983
G01 X31.0296 Y25.4613
G01 X31.0367 Y25.4430
G01 X31.0447 Y25.4251
G01 X31.0585 Y25.3958
G01 X31.0438 Y25.4154
G01 X31.0313 Y25.4306
G01 X30.9762 Y25.4915
G01 X30.9762 Y25.7325
G01 X30.9762 Y25.6882
G01 X30.9785 Y25.6864
G00 Z2.0000
G00 X31.1687 Y25.2177
G01 F60.00
G01 Z-0.0000
G01 F120.00
G01 X31.1814 Y25.1988
G01 X31.1841 Y25.1853
G01 X31.1687 Y25.2177
G00 Z2.0000
G00 X29.4758 Y25.6595
G01 F60.00
G01 Z-0.0000
G01 F120.00
G01 X29.4372 Y25.6904
G01 X28.2418 Y26.5999
G01 X27.3885 Y27.2166
G00 Z2.0000
G00 X27.0448 Y26.8729
G01 F60.00
G01 Z-0.0000
G01 F120.00
G01 X27.9559 Y26.2144
G01 X29.1419 Y25.3120
G01 X29.2768 Y25.2040
G00 Z2.0000
G00 X29.1760 Y24.6699
G01 F60.00
G01 Z-0.0000
G01 F120.00
G01 X28.8466 Y24.9336
G01 X27.6699 Y25.8288
G01 X26.8774 Y26.4016
G00 Z2.0000
G00 X26.5962 Y26.0127
G01 F60.00
G01 Z-0.0000
G01 F120.00
G01 X27.3840 Y25.4433
G01 X28.5512 Y24.5552
G01 X29.1760 Y24.0552
G00 Z2.0000
G00 X29.2446 Y23.3855
G01 F60.00
G01 Z-0.0000
G01 F120.00
G01 X28.2559 Y24.1768
G01 X27.0981 Y25.0577
G01 X26.1070 Y25.7741
G00 Z2.0000
G00 X24.8737 Y26.6271
G01 F60.00
G01 Z-0.0000
G01 F120.00
G01 X24.7192 Y26.7331
G01 X23.4997 Y27.5265
G01 X22.2700 Y28.2842
G00 Z2.0000
G00 X22.2379 Y28.8588
G01 F60.00
G01 Z-0.0000
G01 F120.00
G01 X22.5078 Y28.7015
G01 X23.7565 Y27.9321
G01 X24.8580 Y27.2154
G01 X22.3860 Y27.0852
G01 X22.9861 Y26.7155
G01 X24.1859 Y25.9349
G01 X25.3661 Y25.1251
G01 X26.5262 Y24.2867
G01 X27.6653 Y23.4200
G01 X28.7250 Y22.5718
G00 Z2.0000
G00 X29.1279 Y22.8625
G01 F60.00
G01 Z-0.0000
G01 F120.00
G01 X29.0873 Y22.8966
G01 X27.9606 Y23.7984
G01 X26.8121 Y24.6722
G01 X25.6425 Y25.5176
G01 X24.4525 Y26.3340
G01 X23.2429 Y27.1210
G01 X22.3860 Y27.6490
G00 Z2.0000
G00 X22.3519 Y26.5425
G01 F60.00
G01 Z-0.0000
G01 F120.00
G01 X22.7293 Y26.3099
G01 X23.9192 Y25.5358
G01 X25.0897 Y24.7327
G01 X26.2402 Y23.9011
G01 X27.3700 Y23.0416
G01 X27.7335 Y22.7506
G00 Z2.0000
G00 X26.9382 Y22.7670
G01 F60.00
G01 Z-0.0000
G01 F120.00
G01 X25.9543 Y23.5156
G01 X24.8134 Y24.3403
G01 X23.6525 Y25.1367
G01 X22.4725 Y25.9044
G01 X22.2083 Y26.0672
G01 X22.2083 Y25.5034
G01 X23.3858 Y24.7376
G01 X24.5370 Y23.9478
G01 X25.6684 Y23.1300
G01 X26.2177 Y22.7121
G01 X25.5476 Y22.6188
G01 X25.3824 Y22.7445
G01 X24.2606 Y23.5554
G01 X23.1192 Y24.3385
G01 X22.2083 Y24.9311
G01 X22.2083 Y24.3585
G01 X22.8525 Y23.9394
G01 X23.9842 Y23.1629
G01 X24.7382 Y22.6179
G00 Z2.0000
G00 X23.9462 Y22.5982
G01 F60.00
G01 Z-0.0000
G01 F120.00
G01 X23.7078 Y22.7705
G01 X22.5858 Y23.5403
G01 X22.2083 Y23.7859
G01 X22.2083 Y23.2133
G01 X22.3191 Y23.1412
G01 X23.4314 Y22.3781
G01 X23.4816 Y22.3418
G01 X23.1375 Y21.9976
G01 X22.2083 Y22.6352
G01 X22.2083 Y22.0531
G01 X22.8214 Y21.6325
G00 Z2.0000
G00 X22.7077 Y21.1245
G01 F60.00
G01 Z-0.0000
G01 F120.00
G01 X22.6023 Y21.2007
G01 X22.2083 Y21.4711
G01 X22.2083 Y20.8890
G01 X22.3259 Y20.8083
G01 X22.7077 Y20.5323
G01 X22.2083 Y20.3011
G01 X22.7019 Y19.9443
G01 X22.3005 Y19.6422
G01 X22.6080 Y19.4199
G01 X22.3080 Y19.0446
G01 X22.5231 Y18.8891
G01 X22.6080 Y18.8245
G01 X22.3080 Y18.4497
G01 X22.6137 Y18.2171
G01 X22.2364 Y17.9010
G01 X22.9403 Y17.3655
G01 X23.9107 Y16.5889
G01 X24.8580 Y15.7917
G00 Z2.0000
G00 X24.9656 Y16.3285
G01 F60.00
G01 Z-0.0000
G01 F120.00
G01 X24.2152 Y16.9599
G01 X23.7483 Y17.3336
G00 Z2.0000
G00 X24.2442 Y17.5515
G01 F60.00
G01 Z-0.0000
G01 F120.00
G01 X24.5197 Y17.3309
G01 X25.1578 Y16.7940
G01 X25.1578 Y17.4213
G01 X24.8242 Y17.7020
G01 X24.5305 Y17.9371
G00 Z2.0000
G00 X24.9112 Y18.2471
G01 F60.00
G01 Z-0.0000
G01 F120.00
G01 X24.6080 Y18.4898
G01 X24.9080 Y18.8644
G01 X24.6080 Y19.1045
G01 X24.9080 Y19.4792
G01 X24.7122 Y19.6359
G01 X24.5857 Y19.7322
G00 Z2.0000
G00 X25.0280 Y19.9979
G01 F60.00
G01 Z-0.0000
G01 F120.00
G01 X25.0075 Y20.0143
G01 X24.5083 Y20.3942
G01 X24.7455 Y20.8167
G01 X25.3028 Y20.3927
G01 X25.3514 Y20.3538
G01 X25.5382 Y20.8167
G01 X25.5981 Y20.7711
G01 X25.9081 Y20.5230
G00 Z2.0000
G00 X26.4934 Y20.6693
G01 F60.00
G01 Z-0.0000
G01 F120.00
G01 X26.9558 Y20.2993
G01 X26.9637 Y20.2926
G00 Z2.0000
G00 X27.2642 Y20.6670
G01 F60.00
G01 Z-0.0000
G01 F120.00
G01 X27.3301 Y20.6116
G00 Z2.0000
G00 X28.0117 Y20.7743
G01 F60.00
G01 Z-0.0000
G01 F120.00
G01 X27.9928 Y20.7616
G01 X27.9793 Y20.7589
G01 X28.0117 Y20.7743
G00 Z2.0000
G00 X28.3355 Y21.0202
G01 F60.00
G01 Z-0.0000
G01 F120.00
G01 X28.3456 Y21.0117
G00 Z2.0000
G00 X28.5769 Y21.4443
G01 F60.00
G01 Z-0.0000
G01 F120.00
G01 X28.5665 Y21.4530
G00 Z2.0000
G00 X28.5713 Y22.0763
G01 F60.00
G01 Z-0.0000
G01 F120.00
G01 X28.5212 Y22.1184
G00 Z2.0000
G00 X30.0376 Y22.7243
G01 F60.00
G01 Z-0.0000
G01 F120.00
G01 X30.0531 Y22.7112
G00 Z2.0000
G00 X30.6800 Y22.8111
G01 F60.00
G01 Z-0.0000
G01 F120.00
G01 X30.6910 Y22.8018
G00 Z2.0000
G00 X31.1841 Y23.3287
G01 F60.00
G01 Z-0.0000
G01 F120.00
G01 X31.1814 Y23.3152
G01 X31.1687 Y23.2963
G01 X31.1841 Y23.3287
G00 Z2.0000
G00 X30.6343 Y18.9842
G01 F60.00
G01 Z-0.0000
G01 F120.00
G01 X30.6756 Y18.9458
G00 Z2.0000
G00 X31.1273 Y18.4845
G01 F60.00
G01 Z-0.0000
G01 F120.00
G01 X31.1352 Y18.4727
G01 X31.1369 Y18.4643
G01 X31.1273 Y18.4845
G00 Z2.0000
G00 X29.9105 Y19.0014
G01 F60.00
G01 Z-0.0000
G01 F120.00
G01 X29.8963 Y19.0146
G00 Z2.0000
G00 X29.4939 Y18.7333
G01 F60.00
G01 Z-0.0000
G01 F120.00
G01 X29.4475 Y18.7764
G00 Z2.0000
G00 X29.1229 Y18.4228
G01 F60.00
G01 Z-0.0000
G01 F120.00
G01 X29.2572 Y18.2981
G00 Z2.0000
G00 X29.1940 Y17.7017
G01 F60.00
G01 Z-0.0000
G01 F120.00
G01 X29.2260 Y17.6720
G00 Z2.0000
G00 X29.1758 Y17.0635
G01 F60.00
G01 Z-0.0000
G01 F120.00
G01 X29.2638 Y16.9817
G00 Z2.0000
G00 X28.9593 Y16.6095
G01 F60.00
G01 Z-0.0000
G01 F120.00
G01 X29.0202 Y16.5529
G01 X29.4758 Y16.1084
G01 X29.4758 Y15.4378
G01 X28.6892 Y16.2053
G01 X28.5621 Y16.3234
G00 Z2.0000
G00 X27.8924 Y16.2904
G01 F60.00
G01 Z-0.0000
G01 F120.00
G01 X28.3582 Y15.8577
G01 X29.2899 Y14.9485
G01 X29.4758 Y14.7580
G01 X29.4758 Y14.0708
G01 X28.9505 Y14.6091
G01 X28.0273 Y15.5100
G01 X27.5527 Y15.9508
G01 X27.2131 Y15.6112
G01 X27.6963 Y15.1624
G01 X28.6111 Y14.2697
G01 X29.2986 Y13.5652
G00 Z2.0000
G00 X29.1760 Y13.0025
G01 F60.00
G01 Z-0.0000
G01 F120.00
G01 X29.1561 Y13.0239
G01 X28.2717 Y13.9303
G01 X27.3653 Y14.8148
G01 X26.9580 Y15.1931
G00 Z2.0000
G00 X26.9168 Y14.5763
G01 F60.00
G01 Z-0.0000
G01 F120.00
G01 X27.0343 Y14.4671
G01 X27.9323 Y13.5909
G01 X28.8085 Y12.6929
G01 X29.1760 Y12.2973
G01 X29.1405 Y11.6303
G01 X28.4609 Y12.3619
G01 X27.5929 Y13.2515
G01 X26.7033 Y14.1195
G01 X26.6725 Y14.1481
G00 Z2.0000
G00 X26.2581 Y13.8779
G01 F60.00
G01 Z-0.0000
G01 F120.00
G01 X26.3724 Y13.7718
G01 X27.2535 Y12.9121
G01 X28.1132 Y12.0310
G01 X28.4707 Y11.6461
G00 Z2.0000
G00 X28.1079 Y11.3315
G01 F60.00
G01 Z-0.0000
G01 F120.00
G01 X27.7656 Y11.7000
G01 X26.9141 Y12.5727
G01 X26.0414 Y13.4242
G01 X25.5499 Y13.8808
G00 Z2.0000
G00 X24.9576 Y14.4225
G01 F60.00
G01 Z-0.0000
G01 F120.00
G01 X24.2346 Y15.0617
G01 X23.3017 Y15.8468
G01 X22.3497 Y16.6087
G01 X22.2379 Y16.6937
G01 X22.2372 Y17.2974
G01 X22.6450 Y16.9871
G01 X23.6062 Y16.2178
G01 X24.5481 Y15.4252
G01 X24.8580 Y15.1512
G01 X22.3860 Y15.3501
G01 X22.6926 Y15.1047
G01 X23.6076 Y14.3348
G01 X24.5034 Y13.5427
G01 X25.3794 Y12.7289
G01 X26.2352 Y11.8938
G01 X26.2829 Y11.8450
G00 Z2.0000
G00 X25.6372 Y11.8068
G01 F60.00
G01 Z-0.0000
G01 F120.00
G01 X25.0484 Y12.3813
G01 X24.1810 Y13.1871
G01 X23.2941 Y13.9714
G01 X22.3881 Y14.7336
G01 X22.3781 Y14.7417
G00 Z2.0000
G00 X22.2363 Y14.2341
G01 F60.00
G01 Z-0.0000
G01 F120.00
G01 X22.9805 Y13.6079
G01 X23.8587 Y12.8314
G01 X24.7175 Y12.0336
G01 X25.0636 Y11.6959
G00 Z2.0000
G00 X24.4797 Y11.5951
G01 F60.00
G01 Z-0.0000
G01 F120.00
G01 X24.3865 Y11.6860
G01 X23.5363 Y12.4758
G01 X22.6670 Y13.2444
G01 X22.2364 Y13.6068
G01 X22.2365 Y12.9794
G01 X22.3535 Y12.8810
G01 X23.2140 Y12.1201
G01 X24.0555 Y11.3384
G01 X24.1095 Y11.2857
G00 Z2.0000
G00 X23.7701 Y10.9462
G01 F60.00
G01 Z-0.0000
G01 F120.00
G01 X23.7245 Y10.9907
G01 X22.8916 Y11.7645
G01 X22.2366 Y12.3437
G01 X22.2366 Y11.7029
G01 X22.5693 Y11.4088
G01 X23.3935 Y10.6431
G01 X23.4307 Y10.6068
G00 Z2.0000
G00 X23.0913 Y10.2674
G01 F60.00
G01 Z-0.0000
G01 F120.00
G01 X23.0626 Y10.2954
G01 X22.2469 Y11.0531
G01 X22.2367 Y11.0621
G01 X22.2368 Y10.4074
G01 X22.7316 Y9.9478
G01 X22.7917 Y9.8892
G01 X22.2369 Y9.7522
G01 X22.4006 Y9.6002
G01 X22.7077 Y9.3005
G01 X22.2370 Y9.0892
G01 X22.7077 Y8.6299
G01 X22.2371 Y8.4185
G01 X22.5017 Y8.1603
G01 X22.6268 Y8.0321
G01 X22.3080 Y7.6716
G01 X22.6080 Y7.3641
G01 X22.3080 Y6.9843
G01 X22.5510 Y6.7353
G01 X22.6080 Y6.6739
G00 Z2.0000
G00 X22.2624 Y6.3408
G01 F60.00
G01 Z-0.0000
G01 F120.00
G01 X22.8740 Y5.6824
G00 Z2.0000
G00 X22.4520 Y5.4314
G01 F60.00
G01 Z-0.0000
G01 F120.00
G01 X22.2083 Y5.6939
G01 X22.2083 Y4.9879
G01 X22.2530 Y4.9372
G00 Z2.0000
G00 X23.5526 Y5.6412
G01 F60.00
G01 Z-0.0000
G01 F120.00
G01 X23.5766 Y5.6141
G00 Z2.0000
G00 X24.0871 Y5.7613
G01 F60.00
G01 Z-0.0000
G01 F120.00
G01 X24.1358 Y5.7062
G00 Z2.0000
G00 X24.4409 Y6.0857
G01 F60.00
G01 Z-0.0000
G01 F120.00
G01 X24.6782 Y5.8174
G01 X25.1578 Y5.2474
G01 X24.9721 Y4.7226
G01 X24.9932 Y4.6976
G01 X25.0620 Y6.1067
G01 X25.0416 Y6.1310
G01 X24.6076 Y6.6218
G01 X24.9080 Y7.0066
G01 X24.6832 Y7.2608
G01 X24.6080 Y7.3418
G01 X24.9080 Y7.7241
G01 X24.5779 Y8.0794
G01 X25.0233 Y8.3051
G01 X24.6368 Y8.7212
G01 X24.5083 Y8.8530
G01 X24.7068 Y9.3367
G01 X24.9845 Y9.0521
G01 X25.3443 Y8.6649
G00 Z2.0000
G00 X25.8402 Y8.8362
G01 F60.00
G01 Z-0.0000
G01 F120.00
G01 X25.3321 Y9.3831
G01 X25.0462 Y9.6761
G01 X25.6029 Y9.7928
G01 X25.6798 Y9.7141
G01 X26.4615 Y8.8726
G01 X26.5025 Y8.8263
G00 Z2.0000
G00 X26.6004 Y9.4282
G01 F60.00
G01 Z-0.0000
G01 F120.00
G01 X26.3062 Y9.7450
G00 Z2.0000
G00 X26.9597 Y9.7467
G01 F60.00
G01 Z-0.0000
G01 F120.00
G01 X26.9634 Y9.7427
G00 Z2.0000
G00 X27.3767 Y9.8523
G01 F60.00
G01 Z-0.0000
G01 F120.00
G01 X27.3578 Y9.8396
G01 X27.3443 Y9.8369
G01 X27.3767 Y9.8523
G00 Z2.0000
G00 X27.8086 Y10.2433
G01 F60.00
G01 Z-0.0000
G01 F120.00
G01 X27.8113 Y10.2404
G00 Z2.0000
G00 X27.9882 Y10.7551
G01 F60.00
G01 Z-0.0000
G01 F120.00
G01 X27.9657 Y10.7794
G00 Z2.0000
G00 X26.9549 Y11.8436
G01 F60.00
G01 Z-0.0000
G01 F120.00
G01 X26.5747 Y12.2333
G01 X25.7104 Y13.0766
G01 X24.8257 Y13.8984
G01 X23.9211 Y14.6983
G01 X22.9971 Y15.4757
G01 X22.3810 Y15.9688
G00 Z2.0000
G00 X18.4939 Y14.1026
G01 F60.00
G01 Z-0.0000
G01 F120.00
G01 X17.9037 Y14.5292
G01 X16.9857 Y15.1591
G01 X16.8295 Y15.2606
G01 X16.4826 Y14.9137
G01 X16.7190 Y14.7600
G01 X17.6273 Y14.1368
G01 X17.8077 Y14.0064
G00 Z2.0000
G00 X17.4347 Y13.6838
G01 F60.00
G01 Z-0.0000
G01 F120.00
G01 X17.3509 Y13.7444
G01 X16.4523 Y14.3609
G01 X16.1357 Y14.5668
G01 X15.8632 Y14.1715
G01 X16.1856 Y13.9617
G01 X17.0745 Y13.3519
G01 X17.2499 Y13.2252
G00 Z2.0000
G00 X17.2380 Y12.6415
G01 F60.00
G01 Z-0.0000
G01 F120.00
G01 X16.7981 Y12.9595
G01 X15.9190 Y13.5626
G01 X15.8632 Y13.5989
G01 X15.8632 Y13.0189
G01 X16.5217 Y12.5670
G01 X17.2387 Y12.0488
G00 Z2.0000
G00 X17.5378 Y11.2234
G01 F60.00
G01 Z-0.0000
G01 F120.00
G01 X17.0903 Y11.5639
G01 X16.2453 Y12.1746
G01 X15.8632 Y12.4368
G01 X15.8632 Y11.8547
G01 X15.9689 Y11.7822
G01 X16.8044 Y11.1783
G01 X17.5378 Y10.6203
G01 X17.5378 Y10.0089
G01 X17.3294 Y10.1757
G01 X16.5184 Y10.7928
G01 X15.8632 Y11.2664
G01 X15.8632 Y10.6742
G01 X16.2325 Y10.4072
G01 X17.0341 Y9.7973
G01 X17.5378 Y9.3942
G01 X17.5378 Y8.7785
G01 X17.5160 Y8.7969
G01 X16.7388 Y9.4189
G01 X15.9466 Y10.0217
G01 X15.8632 Y10.0820
G01 X15.8632 Y9.4821
G01 X16.4435 Y9.0405
G01 X17.2115 Y8.4259
G01 X17.5378 Y8.1513
G01 X17.5239 Y7.5358
G01 X16.9070 Y8.0548
G01 X16.1482 Y8.6621
G01 X15.8632 Y8.8790
G01 X15.8632 Y8.2755
G01 X16.6025 Y7.6838
G01 X17.1832 Y7.1951
G01 X16.8426 Y6.8545
G01 X16.2980 Y7.3127
G01 X15.8632 Y7.6607
G00 Z2.0000
G00 X15.8099 Y7.0886
G01 F60.00
G01 Z-0.0000
G01 F120.00
G01 X15.9934 Y6.9417
G01 X16.5019 Y6.5138
G01 X16.1613 Y6.1732
G01 X15.6889 Y6.5706
G01 X15.5165 Y6.7086
G01 X15.1751 Y6.3672
G01 X15.3844 Y6.1996
G01 X15.8206 Y5.8326
G01 X15.4800 Y5.4919
G01 X15.0799 Y5.8285
G01 X14.8336 Y6.0257
G00 Z2.0000
G00 X14.4920 Y5.6843
G01 F60.00
G01 Z-0.0000
G01 F120.00
G01 X14.7754 Y5.4575
G01 X15.1394 Y5.1513
G01 X14.7987 Y4.8106
G01 X14.4709 Y5.0865
G01 X13.9876 Y5.4732
G00 Z2.0000
G00 X13.2060 Y5.4728
G01 F60.00
G01 Z-0.0000
G01 F120.00
G01 X13.4904 Y5.2565
G01 X14.1664 Y4.7154
G01 X14.4581 Y4.4700
G01 X13.7509 Y4.4332
G01 X13.1951 Y4.8781
G01 X12.6501 Y5.2927
G00 Z2.0000
G00 X11.9343 Y5.2230
G01 F60.00
G01 Z-0.0000
G01 F120.00
G01 X12.2294 Y5.0097
G01 X12.8997 Y4.4997
G01 X12.9828 Y4.4332
G00 Z2.0000
G00 X11.8620 Y4.6830
G01 F60.00
G01 Z-0.0000
G01 F120.00
G01 X11.2703 Y5.1107
G01 X11.1066 Y5.2230
G01 X11.0447 Y4.6816
G01 X10.9940 Y4.7182
G01 X10.5599 Y5.0161
G00 Z2.0000
G00 X10.4349 Y4.5197
G01 F60.00
G01 Z-0.0000
G01 F120.00
G01 X10.4867 Y4.4842
G00 Z2.0000
G00 X10.1813 Y4.1116
G01 F60.00
G01 Z-0.0000
G01 F120.00
G01 X10.1684 Y4.1205
G00 Z2.0000
G00 X10.0679 Y3.6074
G01 F60.00
G01 Z-0.0000
G01 F120.00
G01 X10.0881 Y3.5935
G00 Z2.0000
G00 X11.0644 Y2.6835
G01 F60.00
G01 Z-0.0000
G01 F120.00
G01 X11.0840 Y2.6830
G01 X12.2840 Y2.6830
G01 X12.3036 Y2.6835
G01 X12.3722 Y2.6870
G01 X12.4015 Y2.6902
G01 X12.4694 Y2.7004
G01 X12.4887 Y2.7042
G01 X12.5554 Y2.7208
G01 X12.5743 Y2.7261
G01 X12.5929 Y2.7322
G01 X12.6576 Y2.7555
G01 X12.6757 Y2.7630
G01 X12.7379 Y2.7923
G01 X12.7554 Y2.8011
G01 X12.7725 Y2.8108
G01 X12.8313 Y2.8462
G01 X12.8556 Y2.8628
G01 X12.9107 Y2.9039
G01 X12.9259 Y2.9163
G01 X12.9443 Y2.9328
G01 X14.7320 Y2.9328
G01 X14.7516 Y2.9333
G01 X14.7860 Y2.9350
G01 X14.8055 Y2.9364
G01 X14.8250 Y2.9388
G01 X14.8590 Y2.9439
G01 X14.8880 Y2.9493
G01 X14.9403 Y2.9624
G01 X14.9684 Y2.9713
G01 X15.0008 Y2.9829
G01 X15.0191 Y2.9899
G01 X15.0370 Y2.9979
G01 X15.0681 Y3.0126
G01 X15.0856 Y3.0214
G01 X15.1027 Y3.0311
G01 X15.1322 Y3.0487
G01 X15.1488 Y3.0593
G01 X15.1648 Y3.0706
G01 X15.1924 Y3.0910
G01 X15.2154 Y3.1094
G01 X15.2482 Y3.1390
G01 X15.2625 Y3.1525
G01 X18.8185 Y6.7085
G01 X18.8320 Y6.7228
G01 X18.8551 Y6.7482
G01 X18.8679 Y6.7631
G01 X18.8800 Y6.7786
G01 X18.9062 Y6.8141
G01 X18.9223 Y6.8388
G01 X18.9449 Y6.8768
G01 X18.9541 Y6.8941
G01 X18.9731 Y6.9340
G01 X18.9811 Y6.9519
G01 X18.9881 Y6.9702
G01 X19.0029 Y7.0119
G01 X19.0086 Y7.0307
G01 X19.0195 Y7.0735
G01 X19.0256 Y7.1023
G01 X19.0322 Y7.1460
G01 X19.0346 Y7.1655
G01 X19.0360 Y7.1850
G01 X19.0381 Y7.2292
G01 X19.0382 Y11.3385
G01 X19.0868 Y11.3920
G01 X19.0997 Y11.4069
G01 X19.1117 Y11.4224
G01 X19.1497 Y11.4736
G01 X19.1610 Y11.4897
G01 X19.1715 Y11.5062
G01 X19.2043 Y11.5610
G01 X19.2140 Y11.5780
G01 X19.2228 Y11.5956
G01 X19.2501 Y11.6532
G01 X19.2581 Y11.6712
G01 X19.2651 Y11.6895
G01 X19.2866 Y11.7496
G01 X19.2928 Y11.7682
G01 X19.2980 Y11.7871
G01 X19.3135 Y11.8490
G01 X19.3196 Y11.8778
G01 X19.3305 Y11.9506
G01 X19.3329 Y11.9701
G01 X19.3344 Y11.9897
G01 X19.3379 Y12.0632
G01 X19.3380 Y13.0730
G01 X19.3375 Y13.0926
G01 X19.3344 Y13.1563
G01 X19.3329 Y13.1759
G01 X19.3305 Y13.1954
G01 X19.3212 Y13.2585
G01 X19.3178 Y13.2778
G01 X19.3135 Y13.2970
G01 X19.2980 Y13.3589
G01 X19.2928 Y13.3778
G01 X19.2866 Y13.3964
G01 X19.2651 Y13.4565
G01 X19.2581 Y13.4748
G01 X19.2501 Y13.4928
G01 X19.2228 Y13.5504
G01 X19.2140 Y13.5680
G01 X19.2043 Y13.5850
G01 X19.1715 Y13.6398
G01 X19.1610 Y13.6563
G01 X19.1497 Y13.6724
G01 X19.1117 Y13.7236
G01 X19.0997 Y13.7391
G01 X19.0868 Y13.7540
G01 X19.0440 Y13.8012
G01 X19.0305 Y13.8155
G01 X19.0162 Y13.8290
G01 X18.9690 Y13.8718
G01 X18.9464 Y13.8908
G01 X18.8794 Y13.9405
G01 X18.8548 Y13.9565
G01 X18.8000 Y13.9893
G01 X18.7830 Y13.9990
G01 X18.7654 Y14.0078
G01 X18.7078 Y14.0351
G01 X18.6898 Y14.0431
G01 X18.6715 Y14.0501
G01 X18.6114 Y14.0716
G01 X18.5928 Y14.0778
G01 X18.5739 Y14.0830
G01 X18.5120 Y14.0985
G01 X18.4928 Y14.1028
G01 X18.4735 Y14.1062
G01 X18.4104 Y14.1155
G01 X18.3909 Y14.1179
G01 X18.3713 Y14.1194
G01 X18.3076 Y14.1225
G01 X18.2880 Y14.1230
G01 X18.2684 Y14.1225
G01 X18.2047 Y14.1194
G01 X18.1851 Y14.1179
G01 X18.1656 Y14.1155
G01 X18.1025 Y14.1062
G01 X18.0832 Y14.1028
G01 X18.0640 Y14.0985
G01 X18.0021 Y14.0830
G01 X17.9832 Y14.0778
G01 X17.9646 Y14.0716
G01 X17.9045 Y14.0501
G01 X17.8862 Y14.0431
G01 X17.8682 Y14.0351
G01 X17.8106 Y14.0078
G01 X17.7930 Y13.9990
G01 X17.7760 Y13.9893
G01 X17.7212 Y13.9565
G01 X17.7047 Y13.9460
G01 X17.6886 Y13.9347
G01 X17.6374 Y13.8967
G01 X17.6219 Y13.8847
G01 X17.6070 Y13.8718
G01 X17.5598 Y13.8290
G01 X17.5455 Y13.8155
G01 X17.5320 Y13.8012
G01 X17.4892 Y13.7540
G01 X17.4763 Y13.7391
G01 X17.4643 Y13.7236
G01 X17.4263 Y13.6724
G01 X17.4150 Y13.6563
G01 X17.4045 Y13.6398
G01 X17.3717 Y13.5850
G01 X17.3620 Y13.5680
G01 X17.3532 Y13.5504
G01 X17.3259 Y13.4928
G01 X17.3179 Y13.4748
G01 X17.3109 Y13.4565
G01 X17.2894 Y13.3964
G01 X17.2832 Y13.3778
G01 X17.2780 Y13.3589
G01 X17.2625 Y13.2970
G01 X17.2582 Y13.2778
G01 X17.2548 Y13.2585
G01 X17.2455 Y13.1954
G01 X17.2431 Y13.1759
G01 X17.2416 Y13.1563
G01 X17.2385 Y13.0926
G01 X17.2380 Y13.0730
G01 X17.2380 Y12.0730
G01 X17.2385 Y12.0534
G01 X17.2416 Y11.9897
G01 X17.2431 Y11.9701
G01 X17.2455 Y11.9506
G01 X17.2548 Y11.8875
G01 X17.2582 Y11.8682
G01 X17.2625 Y11.8490
G01 X17.2780 Y11.7871
G01 X17.2832 Y11.7682
G01 X17.2894 Y11.7496
G01 X17.3109 Y11.6895
G01 X17.3179 Y11.6712
G01 X17.3259 Y11.6532
G01 X17.3532 Y11.5956
G01 X17.3620 Y11.5780
G01 X17.3717 Y11.5610
G01 X17.4045 Y11.5062
G01 X17.4205 Y11.4816
G01 X17.4643 Y11.4224
G01 X17.4763 Y11.4069
G01 X17.4892 Y11.3920
G01 X17.5378 Y11.3385
G01 X17.5378 Y7.5497
G01 X14.4213 Y4.4332
G01 X12.9443 Y4.4332
G01 X12.9259 Y4.4497
G01 X12.9107 Y4.4621
G01 X12.8556 Y4.5032
G01 X12.8313 Y4.5198
G01 X12.7725 Y4.5552
G01 X12.7554 Y4.5649
G01 X12.7379 Y4.5737
G01 X12.6846 Y4.5989
G01 X12.6576 Y4.6105
G01 X12.5929 Y4.6338
G01 X12.5743 Y4.6399
G01 X12.5554 Y4.6452
G01 X12.4982 Y4.6595
G01 X12.4791 Y4.6638
G01 X12.4597 Y4.6671
G01 X12.4015 Y4.6758
G01 X12.3820 Y4.6782
G01 X12.3624 Y4.6796
G01 X12.3036 Y4.6825
G01 X12.2840 Y4.6830
G01 X11.0840 Y4.6830
G01 X11.0644 Y4.6825
G01 X11.0056 Y4.6796
G01 X10.9762 Y4.6771
G01 X10.9083 Y4.6671
G01 X10.8889 Y4.6638
G01 X10.8698 Y4.6595
G01 X10.8126 Y4.6452
G01 X10.7937 Y4.6399
G01 X10.7751 Y4.6338
G01 X10.7196 Y4.6139
G01 X10.7013 Y4.6069
G01 X10.6834 Y4.5989
G01 X10.6301 Y4.5737
G01 X10.6126 Y4.5649
G01 X10.5955 Y4.5552
G01 X10.5450 Y4.5250
G01 X10.5284 Y4.5145
G01 X10.5124 Y4.5032
G01 X10.4651 Y4.4681
G01 X10.4496 Y4.4560
G01 X10.4347 Y4.4432
G01 X10.3839 Y4.3970
G01 X10.3634 Y4.3759
G01 X10.3238 Y4.3323
G01 X10.3110 Y4.3174
G01 X10.2989 Y4.3019
G01 X10.2638 Y4.2546
G01 X10.2525 Y4.2386
G01 X10.2420 Y4.2220
G01 X10.2118 Y4.1715
G01 X10.2021 Y4.1544
G01 X10.1933 Y4.1369
G01 X10.1681 Y4.0836
G01 X10.1601 Y4.0657
G01 X10.1531 Y4.0474
G01 X10.1332 Y3.9919
G01 X10.1271 Y3.9733
G01 X10.1218 Y3.9544
G01 X10.1075 Y3.8972
G01 X10.1032 Y3.8781
G01 X10.0999 Y3.8587
G01 X10.0912 Y3.8005
G01 X10.0888 Y3.7810
G01 X10.0874 Y3.7614
G01 X10.0845 Y3.7026
G01 X10.0840 Y3.6830
G01 X10.0845 Y3.6634
G01 X10.0874 Y3.6046
G01 X10.0888 Y3.5850
G01 X10.0912 Y3.5655
G01 X10.0999 Y3.5073
G01 X10.1032 Y3.4879
G01 X10.1075 Y3.4688
G01 X10.1243 Y3.4021
G01 X10.1300 Y3.3834
G01 X10.1531 Y3.3186
G01 X10.1601 Y3.3003
G01 X10.1681 Y3.2824
G01 X10.1933 Y3.2291
G01 X10.2021 Y3.2116
G01 X10.2118 Y3.1945
G01 X10.2472 Y3.1357
G01 X10.2581 Y3.1193
G01 X10.2989 Y3.0641
G01 X10.3110 Y3.0486
G01 X10.3238 Y3.0337
G01 X10.3700 Y2.9829
G01 X10.3839 Y2.9690
G01 X10.4347 Y2.9228
G01 X10.4496 Y2.9100
G01 X10.4651 Y2.8979
G01 X10.5124 Y2.8628
G01 X10.5284 Y2.8515
G01 X10.5450 Y2.8410
G01 X10.5955 Y2.8108
G01 X10.6126 Y2.8011
G01 X10.6301 Y2.7923
G01 X10.6834 Y2.7671
G01 X10.7013 Y2.7591
G01 X10.7196 Y2.7521
G01 X10.7751 Y2.7322
G01 X10.7937 Y2.7261
G01 X10.8126 Y2.7208
G01 X10.8793 Y2.7042
G01 X10.8986 Y2.7004
G01 X10.9665 Y2.6902
G01 X10.9860 Y2.6878
G01 X11.0056 Y2.6864
G01 X11.0644 Y2.6835
G00 Z2.0000
G00 X10.4089 Y0.3456
G01 F60.00
G01 Z-0.0000
G01 F120.00
G01 X10.5123 Y0.2629
G01 X11.0667 Y-0.2036
G01 X11.2854 Y-0.3970
G01 X11.3993 Y0.1430
G01 X11.9318 Y-0.3279
G01 X12.0062 Y-0.3970
G01 X12.1238 Y0.1430
G01 X12.2541 Y0.0278
G01 X12.8022 Y-0.4813
G01 X12.9718 Y-0.6468
G01 X13.6590 Y-0.6468
G01 X13.1332 Y-0.1337
G01 X12.7245 Y0.2459
G01 X13.2716 Y0.3928
G01 X13.4642 Y0.2139
G01 X14.0164 Y-0.3250
G01 X14.3305 Y-0.6468
G01 X14.9964 Y-0.6468
G01 X14.9030 Y-0.5463
G01 X14.3558 Y0.0145
G01 X13.9681 Y0.3928
G01 X14.6553 Y0.3928
G01 X14.6953 Y0.3539
G01 X15.2506 Y-0.2153
G01 X15.7918 Y-0.7979
G01 X16.3186 Y-1.3936
G01 X16.8305 Y-2.0021
G01 X17.0373 Y-2.2604
G00 Z2.0000
G00 X16.2822 Y-3.6271
G01 F60.00
G01 Z-0.0000
G01 F120.00
G01 X16.6523 Y-4.1135
G01 X17.0974 Y-4.7294
G01 X17.5273 Y-5.3559
G01 X17.5378 Y-5.3721
G01 X17.5378 Y-6.2524
G01 X17.1282 Y-5.6226
G01 X16.7050 Y-5.0058
G01 X16.2668 Y-4.3995
G01 X15.8138 Y-3.8041
G01 X15.3464 Y-3.2201
G01 X14.8647 Y-2.6477
G01 X14.4222 Y-2.1472
G01 X13.7697 Y-2.1472
G01 X14.0135 Y-2.4096
G01 X14.5013 Y-2.9612
G01 X14.9753 Y-3.5246
G01 X15.4354 Y-4.0995
G01 X15.8812 Y-4.6854
G01 X16.3125 Y-5.2822
G01 X16.7291 Y-5.8893
G01 X17.1306 Y-6.5065
G01 X17.5169 Y-7.1333
G01 X17.5378 Y-7.1693
G01 X17.5060 Y-8.0715
G01 X17.4700 Y-8.0060
G01 X17.1051 Y-7.3801
G01 X16.7251 Y-6.7633
G01 X16.3300 Y-6.1560
G01 X15.9201 Y-5.5585
G01 X15.8528 Y-5.4654
G00 Z2.0000
G00 X15.8632 Y-6.3240
G01 F60.00
G01 Z-0.0000
G01 F120.00
G01 X15.9309 Y-6.4226
G01 X16.3195 Y-7.0201
G01 X16.6934 Y-7.6269
G01 X17.0523 Y-8.2426
G01 X17.2519 Y-8.6052
G00 Z2.0000
G00 X17.2380 Y-9.6047
G01 F60.00
G01 Z-0.0000
G01 F120.00
G01 X16.9727 Y-9.0933
G01 X16.6347 Y-8.4792
G01 X16.2817 Y-7.8736
G01 X15.9140 Y-7.2769
G01 X15.8632 Y-7.1987
G01 X15.8632 Y-8.1093
G01 X15.8700 Y-8.1204
G01 X16.2170 Y-8.7158
G01 X16.5493 Y-9.3196
G01 X16.8667 Y-9.9313
G01 X17.1690 Y-10.5507
G01 X17.4560 Y-11.1772
G01 X17.7275 Y-11.8106
G01 X17.9834 Y-12.4505
G01 X18.0314 Y-12.5796
G00 Z2.0000
G00 X18.5434 Y-12.5793
G01 F60.00
G01 Z-0.0000
G01 F120.00
G01 X18.4313 Y-12.2778
G01 X18.1710 Y-11.6270
G01 X17.8948 Y-10.9827
G01 X17.7533 Y-10.6738
G01 X17.3072 Y-12.0521
G01 X17.2841 Y-11.9943
G01 X17.0172 Y-11.3717
G01 X16.7351 Y-10.7559
G01 X16.4380 Y-10.1471
G01 X16.1260 Y-9.5458
G01 X15.8632 Y-9.0683
G01 X15.8632 Y-10.0814
G01 X16.0092 Y-10.3629
G01 X16.3012 Y-10.9611
G01 X16.3746 Y-11.1215
G00 Z2.0000
G00 X15.2467 Y-12.1166
G01 F60.00
G01 Z-0.0000
G01 F120.00
G01 X15.2619 Y-12.1498
G01 X15.5102 Y-12.7291
G01 X15.7443 Y-13.3143
G01 X15.9639 Y-13.9051
G01 X16.1689 Y-14.5011
G01 X16.3592 Y-15.1019
G01 X16.3876 Y-15.1997
G00 Z2.0000
G00 X16.1391 Y-13.0090
G01 F60.00
G01 Z-0.0000
G01 F120.00
G01 X16.1921 Y-13.1415
G01 X16.4158 Y-13.7434
G01 X16.6247 Y-14.3505
G01 X16.8186 Y-14.9626
G01 X16.9974 Y-15.5792
G01 X17.0798 Y-15.8919
G01 X17.3469 Y-15.0612
G01 X17.4600 Y-15.4512
G01 X17.6266 Y-16.0834
G01 X17.7373 Y-16.5494
G00 Z2.0000
G00 X18.3652 Y-17.1773
G01 F60.00
G01 Z-0.0000
G01 F120.00
G01 X18.2460 Y-16.6144
G01 X18.0922 Y-15.9668
G01 X17.9971 Y-15.6057
G00 Z2.0000
G00 X18.4987 Y-15.6256
G01 F60.00
G01 Z-0.0000
G01 F120.00
G01 X18.5579 Y-15.8501
G01 X18.7144 Y-16.5092
G01 X18.8547 Y-17.1719
G01 X18.9787 Y-17.8378
G01 X18.9869 Y-17.8888
G00 Z2.0000
G00 X19.0382 Y-18.2077
G01 F60.00
G01 Z-0.0000
G01 F120.00
G01 X19.0863 Y-18.5066
G01 X19.1774 Y-19.1779
G01 X19.2521 Y-19.8511
G01 X19.3102 Y-20.5260
G01 X19.3518 Y-21.2021
G01 X19.3767 Y-21.8791
G01 X19.3850 Y-22.5564
G01 X19.3767 Y-23.2337
G01 X19.3518 Y-23.9107
G01 X19.3102 Y-24.5868
G01 X19.2521 Y-25.2617
G01 X19.1774 Y-25.9349
G01 X19.0863 Y-26.6062
G01 X19.0382 Y-26.9051
G00 Z2.0000
G00 X17.5378 Y-27.1471
G01 F60.00
G01 Z-0.0000
G01 F120.00
G01 X17.4423 Y-27.6600
G01 X17.3094 Y-28.2881
G01 X17.1649 Y-28.8966
G00 Z2.0000
G00 X16.7006 Y-28.7743
G01 F60.00
G01 Z-0.0000
G01 F120.00
G01 X16.8410 Y-28.1829
G01 X16.9716 Y-27.5663
G01 X17.0869 Y-26.9467
G01 X17.1174 Y-26.7574
G00 Z2.0000
G00 X16.6174 Y-26.8435
G01 F60.00
G01 Z-0.0000
G01 F120.00
G01 X16.6140 Y-26.8646
G01 X16.5008 Y-27.4727
G01 X16.4170 Y-27.8685
G00 Z2.0000
G00 X16.1391 Y-29.0234
G01 F60.00
G01 Z-0.0000
G01 F120.00
G01 X16.1319 Y-29.0511
G00 Z2.0000
G00 X15.5525 Y-29.3462
G01 F60.00
G01 Z-0.0000
G01 F120.00
G01 X15.5494 Y-29.3569
G00 Z2.0000
G00 X15.0611 Y-29.3174
G01 F60.00
G01 Z-0.0000
G01 F120.00
G01 X15.0570 Y-29.3315
G00 Z2.0000
G00 X14.6298 Y-29.0814
G01 F60.00
G01 Z-0.0000
G01 F120.00
G01 X14.6346 Y-29.0651
G00 Z2.0000
G00 X14.5806 Y-29.0077
G01 F60.00
G01 Z-0.0000
G01 F120.00
G01 X14.6177 Y-29.0484
G01 X14.6316 Y-29.0623
G01 X14.6860 Y-29.1118
G01 X14.7009 Y-29.1247
G01 X14.7164 Y-29.1367
G01 X14.7676 Y-29.1747
G01 X14.7837 Y-29.1860
G01 X14.8002 Y-29.1965
G01 X14.8634 Y-29.2343
G01 X14.8896 Y-29.2478
G01 X14.9472 Y-29.2751
G01 X14.9652 Y-29.2831
G01 X14.9835 Y-29.2901
G01 X15.0436 Y-29.3116
G01 X15.0622 Y-29.3178
G01 X15.0811 Y-29.3230
G01 X15.1526 Y-29.3408
G01 X15.1815 Y-29.3462
G01 X15.2446 Y-29.3555
G01 X15.2641 Y-29.3579
G01 X15.2837 Y-29.3594
G01 X15.3474 Y-29.3625
G01 X15.3670 Y-29.3630
G01 X15.3866 Y-29.3625
G01 X15.4503 Y-29.3594
G01 X15.4699 Y-29.3579
G01 X15.4894 Y-29.3555
G01 X15.5525 Y-29.3462
G01 X15.5718 Y-29.3428
G01 X15.5910 Y-29.3385
G01 X15.6529 Y-29.3230
G01 X15.6718 Y-29.3178
G01 X15.6904 Y-29.3116
G01 X15.7597 Y-29.2867
G01 X15.7868 Y-29.2751
G01 X15.8444 Y-29.2478
G01 X15.8620 Y-29.2390
G01 X15.8790 Y-29.2293
G01 X15.9338 Y-29.1965
G01 X15.9503 Y-29.1860
G01 X15.9664 Y-29.1747
G01 X16.0176 Y-29.1367
G01 X16.0331 Y-29.1247
G01 X16.0480 Y-29.1118
G01 X16.0952 Y-29.0690
G01 X16.1095 Y-29.0555
G01 X16.1230 Y-29.0412
G01 X16.1658 Y-28.9940
G01 X16.1787 Y-28.9791
G01 X16.1907 Y-28.9636
G01 X16.2287 Y-28.9124
G01 X16.2400 Y-28.8963
G01 X16.2505 Y-28.8798
G01 X16.2833 Y-28.8250
G01 X16.2930 Y-28.8080
G01 X16.3018 Y-28.7904
G01 X16.3291 Y-28.7328
G01 X16.3371 Y-28.7148
G01 X16.3441 Y-28.6965
G01 X16.3656 Y-28.6364
G01 X16.3718 Y-28.6178
G01 X16.3770 Y-28.5989
G01 X16.3925 Y-28.5370
G01 X16.3968 Y-28.5178
G01 X16.4002 Y-28.4985
G01 X16.4095 Y-28.4354
G01 X16.4119 Y-28.4159
G01 X16.4134 Y-28.3963
G01 X16.4169 Y-28.3228
G01 X16.4169 Y-27.3032
G01 X16.4134 Y-27.2297
G01 X16.4119 Y-27.2101
G01 X16.4095 Y-27.1906
G01 X16.3986 Y-27.1178
G01 X16.3925 Y-27.0890
G01 X16.3770 Y-27.0271
G01 X16.3718 Y-27.0082
G01 X16.3656 Y-26.9896
G01 X16.3441 Y-26.9295
G01 X16.3371 Y-26.9112
G01 X16.3291 Y-26.8932
G01 X16.3018 Y-26.8356
G01 X16.2930 Y-26.8180
G01 X16.2833 Y-26.8010
G01 X16.2505 Y-26.7462
G01 X16.2400 Y-26.7297
G01 X16.2287 Y-26.7136
G01 X16.1907 Y-26.6624
G01 X16.1787 Y-26.6469
G01 X16.1658 Y-26.6320
G01 X16.1230 Y-26.5848
G01 X16.1095 Y-26.5705
G01 X16.0952 Y-26.5570
G01 X16.0480 Y-26.5142
G01 X16.0331 Y-26.5013
G01 X16.0176 Y-26.4893
G01 X15.9664 Y-26.4513
G01 X15.9503 Y-26.4400
G01 X15.9338 Y-26.4295
G01 X15.8790 Y-26.3967
G01 X15.8620 Y-26.3870
G01 X15.8444 Y-26.3782
G01 X15.7868 Y-26.3509
G01 X15.7688 Y-26.3429
G01 X15.7505 Y-26.3359
G01 X15.6904 Y-26.3144
G01 X15.6718 Y-26.3082
G01 X15.6529 Y-26.3030
G01 X15.5910 Y-26.2875
G01 X15.5718 Y-26.2832
G01 X15.5525 Y-26.2798
G01 X15.4894 Y-26.2705
G01 X15.4699 Y-26.2681
G01 X15.4503 Y-26.2666
G01 X15.3768 Y-26.2631
G01 X15.3474 Y-26.2635
G01 X15.2837 Y-26.2666
G01 X15.2641 Y-26.2681
G01 X15.2446 Y-26.2705
G01 X15.1815 Y-26.2798
G01 X15.1622 Y-26.2832
G01 X15.1430 Y-26.2875
G01 X15.0811 Y-26.3030
G01 X15.0622 Y-26.3082
G01 X15.0436 Y-26.3144
G01 X14.9835 Y-26.3359
G01 X14.9562 Y-26.3468
G01 X14.8896 Y-26.3782
G01 X14.8634 Y-26.3917
G01 X14.7919 Y-26.4346
G01 X14.7676 Y-26.4513
G01 X14.7086 Y-26.4952
G01 X14.6860 Y-26.5142
G01 X14.6388 Y-26.5570
G01 X14.6245 Y-26.5705
G01 X14.6110 Y-26.5848
G01 X14.5806 Y-26.6183
G01 X14.6358 Y-26.5357
G01 X14.9713 Y-26.3116
G01 X15.3670 Y-26.2328
G01 X15.7627 Y-26.3116
G01 X16.1026 Y-26.5387
G01 X16.1133 Y-26.5529
G01 X16.1258 Y-26.5680
G01 X16.1586 Y-26.6045
G01 X16.1792 Y-26.6256
G01 X16.2155 Y-26.6586
G01 X16.2304 Y-26.6714
G01 X16.2458 Y-26.6835
G01 X16.2853 Y-26.7127
G01 X16.3100 Y-26.7287
G01 X16.3437 Y-26.7489
G01 X16.3608 Y-26.7586
G01 X16.3783 Y-26.7674
G01 X16.4138 Y-26.7842
G01 X16.4318 Y-26.7922
G01 X16.4501 Y-26.7992
G01 X16.4871 Y-26.8125
G01 X16.5057 Y-26.8186
G01 X16.5246 Y-26.8239
G01 X16.5627 Y-26.8334
G01 X16.5915 Y-26.8395
G01 X16.6401 Y-26.8468
G01 X16.6596 Y-26.8492
G01 X16.6791 Y-26.8507
G01 X16.7282 Y-26.8530
G01 X16.7576 Y-26.8526
G01 X16.7969 Y-26.8507
G01 X16.8164 Y-26.8492
G01 X16.8359 Y-26.8468
G01 X16.8748 Y-26.8411
G01 X16.8941 Y-26.8377
G01 X16.9133 Y-26.8334
G01 X16.9609 Y-26.8214
G01 X16.9889 Y-26.8125
G01 X17.0351 Y-26.7958
G01 X17.0532 Y-26.7883
G01 X17.0977 Y-26.7674
G01 X17.1238 Y-26.7539
G01 X17.1660 Y-26.7287
G01 X17.1826 Y-26.7182
G01 X17.1986 Y-26.7069
G01 X17.2302 Y-26.6835
G01 X17.2456 Y-26.6714
G01 X17.2605 Y-26.6586
G01 X17.2896 Y-26.6322
G01 X17.3038 Y-26.6187
G01 X17.3174 Y-26.6045
G01 X17.3502 Y-26.5680
G01 X17.3686 Y-26.5450
G01 X17.3978 Y-26.5055
G01 X17.4087 Y-26.4892
G01 X17.4340 Y-26.4472
G01 X17.4437 Y-26.4301
G01 X17.4525 Y-26.4126
G01 X17.4734 Y-26.3681
G01 X17.4809 Y-26.3500
G01 X17.4976 Y-26.3038
G01 X17.5037 Y-26.2852
G01 X17.5090 Y-26.2662
G01 X17.5185 Y-26.2281
G01 X17.5228 Y-26.2090
G01 X17.5262 Y-26.1896
G01 X17.5319 Y-26.1508
G01 X17.5343 Y-26.1313
G01 X17.5358 Y-26.1117
G01 X17.5378 Y-26.0696
G01 X17.5378 Y-29.5564
G01 X17.5358 Y-29.5143
G01 X17.5343 Y-29.4947
G01 X17.5319 Y-29.4752
G01 X17.5262 Y-29.4364
G01 X17.5228 Y-29.4170
G01 X17.5185 Y-29.3979
G01 X17.5090 Y-29.3598
G01 X17.5037 Y-29.3408
G01 X17.4976 Y-29.3222
G01 X17.4809 Y-29.2760
G01 X17.4734 Y-29.2579
G01 X17.4525 Y-29.2134
G01 X17.4437 Y-29.1959
G01 X17.4340 Y-29.1788
G01 X17.4087 Y-29.1368
G01 X17.3978 Y-29.1205
G01 X17.3686 Y-29.0810
G01 X17.3502 Y-29.0580
G01 X17.3174 Y-29.0215
G01 X17.3038 Y-29.0073
G01 X17.2896 Y-28.9938
G01 X17.2605 Y-28.9674
G01 X17.2456 Y-28.9546
G01 X17.2302 Y-28.9425
G01 X17.1986 Y-28.9191
G01 X17.1826 Y-28.9078
G01 X17.1660 Y-28.8973
G01 X17.1323 Y-28.8771
G01 X17.1065 Y-28.8629
G01 X17.0622 Y-28.8418
G01 X17.0442 Y-28.8338
G01 X17.0259 Y-28.8268
G01 X16.9796 Y-28.8103
G01 X16.9609 Y-28.8046
G01 X16.9133 Y-28.7926
G01 X16.8845 Y-28.7865
G01 X16.8359 Y-28.7792
G01 X16.8164 Y-28.7768
G01 X16.7969 Y-28.7753
G01 X16.7576 Y-28.7734
G01 X16.7282 Y-28.7730
G01 X16.6791 Y-28.7753
G01 X16.6596 Y-28.7768
G01 X16.6401 Y-28.7792
G01 X16.5915 Y-28.7865
G01 X16.5627 Y-28.7926
G01 X16.5246 Y-28.8021
G01 X16.5057 Y-28.8074
G01 X16.4871 Y-28.8135
G01 X16.4409 Y-28.8302
G01 X16.4138 Y-28.8418
G01 X16.3783 Y-28.8586
G01 X16.3608 Y-28.8674
G01 X16.3437 Y-28.8771
G01 X16.3100 Y-28.8973
G01 X16.2853 Y-28.9133
G01 X16.2458 Y-28.9425
G01 X16.2304 Y-28.9546
G01 X16.2155 Y-28.9674
G01 X16.1792 Y-29.0004
G01 X16.1586 Y-29.0215
G01 X16.1258 Y-29.0580
G01 X16.1133 Y-29.0731
G01 X16.1026 Y-29.0873
G01 X15.7627 Y-29.3144
G01 X15.3670 Y-29.3932
G01 X14.9713 Y-29.3144
G01 X14.6358 Y-29.0903
G01 X14.5806 Y-29.0077
G00 Z2.0000
G00 X14.2480 Y-28.6658
G01 F60.00
G01 Z-0.0000
G01 F120.00
G01 X14.2750 Y-28.5632
G00 Z2.0000
G00 X13.8723 Y-28.5632
G01 F60.00
G01 Z-0.0000
G01 F120.00
G01 X14.3480 Y-28.5632
G01 X14.3595 Y-28.6084
G01 X14.3652 Y-28.6272
G01 X14.3899 Y-28.6965
G01 X14.3969 Y-28.7148
G01 X14.4049 Y-28.7328
G01 X14.4365 Y-28.7993
G01 X14.4457 Y-28.8166
G01 X14.4571 Y-28.8359
G01 X14.4350 Y-28.8114
G01 X14.4214 Y-28.7972
G01 X14.4072 Y-28.7836
G01 X14.3781 Y-28.7573
G01 X14.3556 Y-28.7383
G01 X14.3162 Y-28.7090
G01 X14.2919 Y-28.6923
G01 X14.2414 Y-28.6620
G01 X14.2241 Y-28.6528
G01 X14.1798 Y-28.6317
G01 X14.1527 Y-28.6201
G01 X14.0972 Y-28.6002
G01 X14.0690 Y-28.5920
G01 X14.0213 Y-28.5802
G01 X13.9924 Y-28.5748
G01 X13.9438 Y-28.5677
G01 X13.9243 Y-28.5658
G01 X13.8723 Y-28.5632
G00 Z2.0000
G00 X14.1345 Y-27.0628
G01 F60.00
G01 Z-0.0000
G01 F120.00
G01 X14.1461 Y-27.0084
G00 Z2.0000
G00 X14.4571 Y-26.7901
G01 F60.00
G01 Z-0.0000
G01 F120.00
G01 X14.4457 Y-26.8094
G01 X14.4365 Y-26.8267
G01 X14.4049 Y-26.8932
G01 X14.3969 Y-26.9112
G01 X14.3899 Y-26.9295
G01 X14.3652 Y-26.9988
G01 X14.3595 Y-27.0176
G01 X14.3480 Y-27.0628
G01 X13.8723 Y-27.0628
G01 X13.9243 Y-27.0602
G01 X13.9438 Y-27.0583
G01 X13.9924 Y-27.0512
G01 X14.0213 Y-27.0458
G01 X14.0690 Y-27.0340
G01 X14.0972 Y-27.0258
G01 X14.1527 Y-27.0059
G01 X14.1798 Y-26.9943
G01 X14.2241 Y-26.9732
G01 X14.2414 Y-26.9640
G01 X14.2919 Y-26.9337
G01 X14.3162 Y-26.9170
G01 X14.3556 Y-26.8877
G01 X14.3781 Y-26.8687
G01 X14.4072 Y-26.8424
G01 X14.4214 Y-26.8288
G01 X14.4350 Y-26.8146
G01 X14.4571 Y-26.7901
G00 Z2.0000
G00 X14.7317 Y-26.4779
G01 F60.00
G01 Z-0.0000
G01 F120.00
G01 X14.7328 Y-26.4709
G00 Z2.0000
G00 X15.2513 Y-26.2695
G01 F60.00
G01 Z-0.0000
G01 F120.00
G01 X15.2536 Y-26.2554
G00 Z2.0000
G00 X15.7281 Y-26.3278
G01 F60.00
G01 Z-0.0000
G01 F120.00
G01 X15.7317 Y-26.3054
G00 Z2.0000
G00 X16.1681 Y-26.6145
G01 F60.00
G01 Z-0.0000
G01 F120.00
G01 X16.1654 Y-26.6315
G00 Z2.0000
G00 X17.5378 Y-29.3663
G01 F60.00
G01 Z-0.0000
G01 F120.00
G01 X17.5235 Y-29.4207
G00 Z2.0000
G00 X17.5378 Y-29.8935
G01 F60.00
G01 Z-0.0000
G01 F120.00
G01 X17.5378 Y-30.1345
G01 X17.4827 Y-30.1954
G01 X17.4702 Y-30.2106
G01 X17.4555 Y-30.2302
G01 X17.4693 Y-30.2009
G01 X17.4773 Y-30.1830
G01 X17.4844 Y-30.1647
G01 X17.4976 Y-30.1277
G01 X17.5065 Y-30.0996
G01 X17.5185 Y-30.0520
G01 X17.5246 Y-30.0232
G01 X17.5333 Y-29.9650
G01 X17.5352 Y-29.9454
G01 X17.5378 Y-29.8935
G00 Z2.0000
G00 X17.3453 Y-30.4083
G01 F60.00
G01 Z-0.0000
G01 F120.00
G01 X17.3299 Y-30.4407
G01 X17.3326 Y-30.4272
G01 X17.3453 Y-30.4083
G00 Z2.0000
G00 X17.3299 Y-32.2973
G01 F60.00
G01 Z-0.0000
G01 F120.00
G01 X17.3453 Y-32.3297
G01 X17.3326 Y-32.3108
G01 X17.3299 Y-32.2973
G00 Z2.0000
G00 X17.5016 Y-32.5637
G01 F60.00
G01 Z-0.0000
G01 F120.00
G01 X17.5320 Y-32.5972
G01 X17.5455 Y-32.6115
G01 X17.5598 Y-32.6250
G01 X17.6144 Y-32.6743
G01 X17.6374 Y-32.6927
G01 X17.6886 Y-32.7307
G01 X17.7129 Y-32.7474
G01 X17.7760 Y-32.7853
G01 X17.7930 Y-32.7950
G01 X17.8106 Y-32.8038
G01 X17.8682 Y-32.8311
G01 X17.8862 Y-32.8391
G01 X17.9045 Y-32.8461
G01 X17.9646 Y-32.8676
G01 X17.9926 Y-32.8765
G01 X18.0640 Y-32.8945
G01 X18.0832 Y-32.8988
G01 X18.1025 Y-32.9022
G01 X18.1656 Y-32.9115
G01 X18.1851 Y-32.9139
G01 X18.2047 Y-32.9154
G01 X18.2684 Y-32.9185
G01 X18.2880 Y-32.9190
G01 X18.3076 Y-32.9185
G01 X18.3713 Y-32.9154
G01 X18.3909 Y-32.9139
G01 X18.4104 Y-32.9115
G01 X18.4735 Y-32.9022
G01 X18.4928 Y-32.8988
G01 X18.5120 Y-32.8945
G01 X18.5739 Y-32.8790
G01 X18.6022 Y-32.8708
G01 X18.6715 Y-32.8461
G01 X18.6898 Y-32.8391
G01 X18.7078 Y-32.8311
G01 X18.7654 Y-32.8038
G01 X18.7830 Y-32.7950
G01 X18.8000 Y-32.7853
G01 X18.8548 Y-32.7525
G01 X18.8713 Y-32.7420
G01 X18.8874 Y-32.7307
G01 X18.9386 Y-32.6927
G01 X18.9541 Y-32.6807
G01 X18.9690 Y-32.6678
G01 X19.0162 Y-32.6250
G01 X19.0305 Y-32.6115
G01 X19.0440 Y-32.5972
G01 X19.0868 Y-32.5500
G01 X19.0997 Y-32.5351
G01 X19.1117 Y-32.5196
G01 X19.1497 Y-32.4684
G01 X19.1610 Y-32.4523
G01 X19.1715 Y-32.4358
G01 X19.2043 Y-32.3810
G01 X19.2140 Y-32.3640
G01 X19.2228 Y-32.3464
G01 X19.2501 Y-32.2888
G01 X19.2581 Y-32.2708
G01 X19.2651 Y-32.2525
G01 X19.2866 Y-32.1924
G01 X19.2928 Y-32.1738
G01 X19.2980 Y-32.1549
G01 X19.3135 Y-32.0930
G01 X19.3178 Y-32.0738
G01 X19.3212 Y-32.0545
G01 X19.3305 Y-31.9914
G01 X19.3329 Y-31.9719
G01 X19.3344 Y-31.9523
G01 X19.3375 Y-31.8886
G01 X19.3380 Y-31.8690
G01 X19.3380 Y-30.8690
G01 X19.3375 Y-30.8494
G01 X19.3344 Y-30.7857
G01 X19.3329 Y-30.7661
G01 X19.3305 Y-30.7466
G01 X19.3212 Y-30.6835
G01 X19.3178 Y-30.6642
G01 X19.3135 Y-30.6450
G01 X19.2980 Y-30.5831
G01 X19.2898 Y-30.5548
G01 X19.2651 Y-30.4855
G01 X19.2581 Y-30.4672
G01 X19.2501 Y-30.4492
G01 X19.2185 Y-30.3827
G01 X19.2043 Y-30.3570
G01 X19.1715 Y-30.3022
G01 X19.1610 Y-30.2857
G01 X19.1497 Y-30.2696
G01 X19.1117 Y-30.2184
G01 X19.0997 Y-30.2029
G01 X19.0868 Y-30.1880
G01 X19.0382 Y-30.1345
G01 X19.0382 Y-18.1610
G01 X19.0377 Y-18.1414
G01 X19.0360 Y-18.1070
G01 X19.0346 Y-18.0875
G01 X19.0322 Y-18.0680
G01 X19.0256 Y-18.0243
G01 X19.0217 Y-18.0050
G01 X19.0111 Y-17.9622
G01 X19.0029 Y-17.9339
G01 X18.9881 Y-17.8922
G01 X18.9811 Y-17.8739
G01 X18.9731 Y-17.8560
G01 X18.9541 Y-17.8161
G01 X18.9449 Y-17.7988
G01 X18.9223 Y-17.7608
G01 X18.9062 Y-17.7361
G01 X18.8800 Y-17.7006
G01 X18.8679 Y-17.6851
G01 X18.8551 Y-17.6702
G01 X18.8253 Y-17.6376
G01 X12.4342 Y-11.2463
G01 X12.4342 Y-7.4649
G01 X12.4694 Y-7.4596
G01 X12.4887 Y-7.4558
G01 X12.5649 Y-7.4367
G01 X12.5929 Y-7.4278
G01 X12.6576 Y-7.4045
G01 X12.6757 Y-7.3970
G01 X12.7379 Y-7.3677
G01 X12.7554 Y-7.3589
G01 X12.7725 Y-7.3492
G01 X12.8230 Y-7.3190
G01 X12.8477 Y-7.3029
G01 X12.9107 Y-7.2561
G01 X12.9333 Y-7.2372
G01 X12.9841 Y-7.1910
G01 X12.9980 Y-7.1771
G01 X13.0442 Y-7.1263
G01 X13.0570 Y-7.1114
G01 X13.0691 Y-7.0959
G01 X13.1042 Y-7.0486
G01 X13.1155 Y-7.0326
G01 X13.1260 Y-7.0160
G01 X13.1562 Y-6.9655
G01 X13.1659 Y-6.9484
G01 X13.1747 Y-6.9309
G01 X13.1999 Y-6.8776
G01 X13.2115 Y-6.8506
G01 X13.2380 Y-6.7766
G01 X13.2462 Y-6.7484
G01 X13.2605 Y-6.6912
G01 X13.2648 Y-6.6721
G01 X13.2681 Y-6.6527
G01 X13.2781 Y-6.5848
G01 X13.2806 Y-6.5554
G01 X13.2835 Y-6.4966
G01 X13.2840 Y-6.4770
G01 X13.2835 Y-6.4574
G01 X13.2806 Y-6.3986
G01 X13.2792 Y-6.3790
G01 X13.2768 Y-6.3595
G01 X13.2681 Y-6.3013
G01 X13.2648 Y-6.2819
G01 X13.2605 Y-6.2628
G01 X13.2462 Y-6.2056
G01 X13.2409 Y-6.1867
G01 X13.2348 Y-6.1681
G01 X13.2149 Y-6.1126
G01 X13.2079 Y-6.0943
G01 X13.1999 Y-6.0764
G01 X13.1747 Y-6.0231
G01 X13.1659 Y-6.0056
G01 X13.1562 Y-5.9885
G01 X13.1260 Y-5.9380
G01 X13.1155 Y-5.9214
G01 X13.1042 Y-5.9054
G01 X13.0631 Y-5.8503
G01 X13.0442 Y-5.8277
G01 X13.0046 Y-5.7841
G01 X12.9911 Y-5.7699
G01 X12.9769 Y-5.7564
G01 X12.9333 Y-5.7168
G01 X12.9184 Y-5.7040
G01 X12.9029 Y-5.6919
G01 X12.8556 Y-5.6568
G01 X12.8396 Y-5.6455
G01 X12.8230 Y-5.6350
G01 X12.7640 Y-5.5998
G01 X12.7379 Y-5.5863
G01 X12.6846 Y-5.5611
G01 X12.6667 Y-5.5531
G01 X12.6484 Y-5.5461
G01 X12.5836 Y-5.5230
G01 X12.5554 Y-5.5148
G01 X12.4887 Y-5.4982
G01 X12.4694 Y-5.4944
G01 X12.4015 Y-5.4842
G01 X12.3820 Y-5.4818
G01 X12.3624 Y-5.4804
G01 X12.3036 Y-5.4775
G01 X12.2840 Y-5.4770
G01 X11.0742 Y-5.4771
G01 X11.0056 Y-5.4804
G01 X10.9860 Y-5.4818
G01 X10.9665 Y-5.4842
G01 X10.9083 Y-5.4929
G01 X10.8889 Y-5.4962
G01 X10.8698 Y-5.5005
G01 X10.8031 Y-5.5173
G01 X10.7844 Y-5.5230
G01 X10.7196 Y-5.5461
G01 X10.7013 Y-5.5531
G01 X10.6834 Y-5.5611
G01 X10.6301 Y-5.5863
G01 X10.6126 Y-5.5951
G01 X10.5955 Y-5.6048
G01 X10.5450 Y-5.6350
G01 X10.5284 Y-5.6455
G01 X10.5124 Y-5.6568
G01 X10.4651 Y-5.6919
G01 X10.4496 Y-5.7040
G01 X10.4347 Y-5.7168
G01 X10.3911 Y-5.7564
G01 X10.3769 Y-5.7699
G01 X10.3634 Y-5.7841
G01 X10.3238 Y-5.8277
G01 X10.3110 Y-5.8426
G01 X10.2989 Y-5.8581
G01 X10.2638 Y-5.9054
G01 X10.2525 Y-5.9214
G01 X10.2420 Y-5.9380
G01 X10.2118 Y-5.9885
G01 X10.2021 Y-6.0056
G01 X10.1933 Y-6.0231
G01 X10.1681 Y-6.0764
G01 X10.1601 Y-6.0943
G01 X10.1531 Y-6.1126
G01 X10.1332 Y-6.1681
G01 X10.1271 Y-6.1867
G01 X10.1218 Y-6.2056
G01 X10.1075 Y-6.2628
G01 X10.1032 Y-6.2819
G01 X10.0999 Y-6.3013
G01 X10.0912 Y-6.3595
G01 X10.0888 Y-6.3790
G01 X10.0874 Y-6.3986
G01 X10.0845 Y-6.4574
G01 X10.0840 Y-6.4770
G01 X10.0845 Y-6.4966
G01 X10.0874 Y-6.5554
G01 X10.0888 Y-6.5750
G01 X10.0912 Y-6.5945
G01 X10.0999 Y-6.6527
G01 X10.1032 Y-6.6721
G01 X10.1075 Y-6.6912
G01 X10.1218 Y-6.7484
G01 X10.1300 Y-6.7766
G01 X10.1531 Y-6.8414
G01 X10.1601 Y-6.8597
G01 X10.1681 Y-6.8776
G01 X10.1933 Y-6.9309
G01 X10.2021 Y-6.9484
G01 X10.2118 Y-6.9655
G01 X10.2420 Y-7.0160
G01 X10.2525 Y-7.0326
G01 X10.2638 Y-7.0486
G01 X10.2989 Y-7.0959
G01 X10.3173 Y-7.1189
G01 X10.3634 Y-7.1699
G01 X10.3769 Y-7.1841
G01 X10.3911 Y-7.1976
G01 X10.4274 Y-7.2306
G01 X10.3411 Y-7.1729
G01 X10.1278 Y-6.8536
G01 X10.0529 Y-6.4770
G01 X10.1278 Y-6.1004
G01 X10.4277 Y-5.6516
G01 X10.4382 Y-5.6350
G01 X10.4633 Y-5.5928
G01 X10.4769 Y-5.5667
G01 X10.4937 Y-5.5312
G01 X10.5016 Y-5.5132
G01 X10.5087 Y-5.4949
G01 X10.5219 Y-5.4579
G01 X10.5308 Y-5.4299
G01 X10.5451 Y-5.3727
G01 X10.5505 Y-5.3438
G01 X10.5563 Y-5.3049
G01 X10.5587 Y-5.2854
G01 X10.5601 Y-5.2659
G01 X10.5620 Y-5.2266
G01 X10.5624 Y-5.1972
G01 X10.5595 Y-5.1383
G01 X10.5563 Y-5.1091
G01 X10.5505 Y-5.0702
G01 X10.5471 Y-5.0509
G01 X10.5428 Y-5.0317
G01 X10.5333 Y-4.9936
G01 X10.5251 Y-4.9654
G01 X10.5053 Y-4.9099
G01 X10.4937 Y-4.8828
G01 X10.4726 Y-4.8385
G01 X10.4584 Y-4.8127
G01 X10.4382 Y-4.7790
G01 X10.4277 Y-4.7624
G01 X10.1278 Y-4.3136
G01 X10.0529 Y-3.9370
G01 X10.1278 Y-3.5604
G01 X10.4277 Y-3.1116
G01 X10.4382 Y-3.0950
G01 X10.4633 Y-3.0528
G01 X10.4769 Y-3.0267
G01 X10.4937 Y-2.9912
G01 X10.5016 Y-2.9732
G01 X10.5087 Y-2.9549
G01 X10.5219 Y-2.9179
G01 X10.5308 Y-2.8899
G01 X10.5451 Y-2.8327
G01 X10.5505 Y-2.8038
G01 X10.5563 Y-2.7649
G01 X10.5587 Y-2.7454
G01 X10.5601 Y-2.7259
G01 X10.5620 Y-2.6866
G01 X10.5624 Y-2.6572
G01 X10.5595 Y-2.5983
G01 X10.5563 Y-2.5691
G01 X10.5505 Y-2.5302
G01 X10.5471 Y-2.5109
G01 X10.5428 Y-2.4917
G01 X10.5333 Y-2.4536
G01 X10.5251 Y-2.4254
G01 X10.5053 Y-2.3699
G01 X10.4937 Y-2.3428
G01 X10.4726 Y-2.2985
G01 X10.4584 Y-2.2727
G01 X10.4382 Y-2.2390
G01 X10.4277 Y-2.2224
G01 X10.1278 Y-1.7736
G01 X10.0529 Y-1.3970
G01 X10.1278 Y-1.0204
G01 X10.4277 Y-0.5716
G01 X10.4382 Y-0.5550
G01 X10.4633 Y-0.5128
G01 X10.4769 Y-0.4867
G01 X10.4977 Y-0.4422
G01 X10.5087 Y-0.4149
G01 X10.5219 Y-0.3779
G01 X10.5281 Y-0.3593
G01 X10.5333 Y-0.3404
G01 X10.5428 Y-0.3023
G01 X10.5489 Y-0.2735
G01 X10.5576 Y-0.2152
G01 X10.5601 Y-0.1859
G01 X10.5620 Y-0.1466
G01 X10.5625 Y-0.1270
G01 X10.5620 Y-0.1074
G01 X10.5601 Y-0.0681
G01 X10.5576 Y-0.0388
G01 X10.5489 Y0.0195
G01 X10.5428 Y0.0483
G01 X10.5308 Y0.0959
G01 X10.5219 Y0.1239
G01 X10.5087 Y0.1609
G01 X10.5016 Y0.1792
G01 X10.4937 Y0.1972
G01 X10.4769 Y0.2327
G01 X10.4633 Y0.2588
G01 X10.4382 Y0.3010
G01 X10.4277 Y0.3176
G01 X10.1278 Y0.7664
G01 X10.0529 Y1.1430
G01 X10.1278 Y1.5196
G01 X10.4277 Y1.9684
G01 X10.4382 Y1.9850
G01 X10.4633 Y2.0272
G01 X10.4769 Y2.0533
G01 X10.4977 Y2.0978
G01 X10.5087 Y2.1251
G01 X10.5219 Y2.1621
G01 X10.5281 Y2.1807
G01 X10.5333 Y2.1996
G01 X10.5428 Y2.2377
G01 X10.5489 Y2.2665
G01 X10.5576 Y2.3248
G01 X10.5601 Y2.3541
G01 X10.5620 Y2.3934
G01 X10.5625 Y2.4130
G01 X10.5620 Y2.4326
G01 X10.5601 Y2.4719
G01 X10.5576 Y2.5012
G01 X10.5489 Y2.5595
G01 X10.5428 Y2.5883
G01 X10.5308 Y2.6359
G01 X10.5219 Y2.6639
G01 X10.5087 Y2.7009
G01 X10.5016 Y2.7192
G01 X10.4937 Y2.7372
G01 X10.4769 Y2.7727
G01 X10.4633 Y2.7988
G01 X10.4382 Y2.8410
G01 X10.4277 Y2.8576
G01 X10.1278 Y3.3064
G01 X10.0529 Y3.6830
G01 X10.1278 Y4.0596
G01 X10.4277 Y4.5084
G01 X10.4382 Y4.5250
G01 X10.4633 Y4.5672
G01 X10.4769 Y4.5933
G01 X10.4977 Y4.6378
G01 X10.5087 Y4.6651
G01 X10.5219 Y4.7021
G01 X10.5281 Y4.7207
G01 X10.5333 Y4.7396
G01 X10.5428 Y4.7777
G01 X10.5489 Y4.8065
G01 X10.5576 Y4.8648
G01 X10.5601 Y4.8941
G01 X10.5620 Y4.9334
G01 X10.5625 Y4.9530
G01 X10.5620 Y4.9726
G01 X10.5601 Y5.0119
G01 X10.5576 Y5.0412
G01 X10.5489 Y5.0995
G01 X10.5428 Y5.1283
G01 X10.5308 Y5.1759
G01 X10.5219 Y5.2039
G01 X10.5087 Y5.2409
G01 X10.5016 Y5.2592
G01 X10.4937 Y5.2772
G01 X10.4769 Y5.3127
G01 X10.4633 Y5.3388
G01 X10.4382 Y5.3810
G01 X10.4277 Y5.3976
G01 X10.1278 Y5.8464
G01 X10.0529 Y6.2230
G01 X10.1278 Y6.5996
G01 X10.4277 Y7.0484
G01 X10.4382 Y7.0650
G01 X10.4633 Y7.1072
G01 X10.4769 Y7.1333
G01 X10.4937 Y7.1688
G01 X10.5016 Y7.1868
G01 X10.5087 Y7.2051
G01 X10.5219 Y7.2421
G01 X10.5308 Y7.2701
G01 X10.5451 Y7.3273
G01 X10.5505 Y7.3562
G01 X10.5563 Y7.3951
G01 X10.5587 Y7.4146
G01 X10.5601 Y7.4341
G01 X10.5620 Y7.4734
G01 X10.5624 Y7.5028
G01 X10.5595 Y7.5617
G01 X10.5563 Y7.5909
G01 X10.5505 Y7.6298
G01 X10.5471 Y7.6491
G01 X10.5428 Y7.6683
G01 X10.5333 Y7.7064
G01 X10.5251 Y7.7346
G01 X10.5053 Y7.7901
G01 X10.4937 Y7.8172
G01 X10.4726 Y7.8615
G01 X10.4584 Y7.8873
G01 X10.4382 Y7.9210
G01 X10.4277 Y7.9376
G01 X10.1278 Y8.3864
G01 X10.0529 Y8.7630
G01 X10.0659 Y8.8292
G01 X10.0746 Y8.8875
G01 X10.0771 Y8.9168
G01 X10.0794 Y8.9659
G01 X10.0790 Y8.9953
G01 X10.0771 Y9.0345
G01 X10.0756 Y9.0541
G01 X10.0732 Y9.0736
G01 X10.0675 Y9.1124
G01 X10.0621 Y9.1414
G01 X10.0503 Y9.1890
G01 X10.0450 Y9.2080
G01 X10.0389 Y9.2266
G01 X10.0256 Y9.2636
G01 X10.0147 Y9.2909
G01 X9.9938 Y9.3354
G01 X9.9850 Y9.3529
G01 X9.9753 Y9.3700
G01 X9.9500 Y9.4120
G01 X9.9333 Y9.4363
G01 X9.9099 Y9.4678
G01 X9.8978 Y9.4833
G01 X9.8850 Y9.4982
G01 X9.8567 Y9.5294
G01 X10.1855 Y9.2006
G01 X10.1640 Y9.1547
G01 X10.1565 Y9.1366
G01 X10.1332 Y9.0719
G01 X10.1243 Y9.0439
G01 X10.1075 Y8.9772
G01 X10.1032 Y8.9581
G01 X10.0999 Y8.9387
G01 X10.0912 Y8.8805
G01 X10.0880 Y8.8512
G01 X10.0845 Y8.7826
G01 X10.0840 Y8.7630
G01 X10.0845 Y8.7434
G01 X10.0874 Y8.6846
G01 X10.0888 Y8.6650
G01 X10.0912 Y8.6455
G01 X10.0999 Y8.5873
G01 X10.1032 Y8.5679
G01 X10.1075 Y8.5488
G01 X10.1243 Y8.4821
G01 X10.1332 Y8.4541
G01 X10.1565 Y8.3894
G01 X10.1640 Y8.3713
G01 X10.1933 Y8.3091
G01 X10.2068 Y8.2830
G01 X10.2420 Y8.2240
G01 X10.2525 Y8.2074
G01 X10.2638 Y8.1914
G01 X10.2989 Y8.1441
G01 X10.3110 Y8.1286
G01 X10.3238 Y8.1137
G01 X10.3634 Y8.0701
G01 X10.3769 Y8.0559
G01 X10.3911 Y8.0424
G01 X10.4347 Y8.0028
G01 X10.4496 Y7.9900
G01 X10.4651 Y7.9779
G01 X10.5203 Y7.9371
G01 X10.5450 Y7.9210
G01 X10.5955 Y7.8908
G01 X10.6126 Y7.8811
G01 X10.6301 Y7.8723
G01 X10.6834 Y7.8471
G01 X10.7013 Y7.8391
G01 X10.7196 Y7.8321
G01 X10.7751 Y7.8122
G01 X10.7937 Y7.8061
G01 X10.8126 Y7.8008
G01 X10.8698 Y7.7865
G01 X10.8889 Y7.7822
G01 X10.9083 Y7.7789
G01 X10.9665 Y7.7702
G01 X10.9860 Y7.7678
G01 X11.0056 Y7.7664
G01 X11.0644 Y7.7635
G01 X11.0840 Y7.7630
G01 X12.2840 Y7.7630
G01 X12.3036 Y7.7635
G01 X12.3624 Y7.7664
G01 X12.3918 Y7.7689
G01 X12.4597 Y7.7789
G01 X12.4791 Y7.7822
G01 X12.4982 Y7.7865
G01 X12.5554 Y7.8008
G01 X12.5743 Y7.8061
G01 X12.5929 Y7.8122
G01 X12.6484 Y7.8321
G01 X12.6667 Y7.8391
G01 X12.6846 Y7.8471
G01 X12.7379 Y7.8723
G01 X12.7554 Y7.8811
G01 X12.7725 Y7.8908
G01 X12.8230 Y7.9210
G01 X12.8396 Y7.9315
G01 X12.8556 Y7.9428
G01 X12.9107 Y7.9839
G01 X12.9259 Y7.9963
G01 X12.9769 Y8.0424
G01 X12.9911 Y8.0559
G01 X13.0046 Y8.0701
G01 X13.0442 Y8.1137
G01 X13.0570 Y8.1286
G01 X13.0691 Y8.1441
G01 X13.1042 Y8.1914
G01 X13.1155 Y8.2074
G01 X13.1260 Y8.2240
G01 X13.1612 Y8.2830
G01 X13.1704 Y8.3003
G01 X13.1847 Y8.3301
G01 X13.1962 Y8.3431
G01 X13.2087 Y8.3582
G01 X13.2350 Y8.3937
G01 X13.2459 Y8.4100
G01 X13.2686 Y8.4479
G01 X13.2822 Y8.4741
G01 X13.2927 Y8.4963
G01 X13.3006 Y8.5142
G01 X13.3077 Y8.5325
G01 X13.3160 Y8.5556
G01 X13.3221 Y8.5743
G01 X13.3274 Y8.5932
G01 X13.3333 Y8.6170
G01 X13.3376 Y8.6362
G01 X13.3410 Y8.6555
G01 X13.3459 Y8.6895
G01 X13.3478 Y8.7091
G01 X13.3500 Y8.7532
G01 X13.3500 Y8.7728
G01 X13.3484 Y8.8071
G01 X13.3470 Y8.8267
G01 X13.3446 Y8.8462
G01 X13.3394 Y8.8802
G01 X13.3356 Y8.8994
G01 X13.3274 Y8.9328
G01 X13.3221 Y8.9517
G01 X13.3160 Y8.9704
G01 X13.3077 Y8.9935
G01 X13.3006 Y9.0118
G01 X13.2927 Y9.0297
G01 X13.2779 Y9.0608
G01 X13.2686 Y9.0781
G01 X13.2511 Y9.1076
G01 X13.2350 Y9.1323
G01 X13.2146 Y9.1600
G01 X13.2026 Y9.1754
G01 X13.1847 Y9.1959
G01 X13.1704 Y9.2257
G01 X13.1612 Y9.2430
G01 X13.1260 Y9.3020
G01 X13.1099 Y9.3267
G01 X13.0631 Y9.3897
G01 X13.0442 Y9.4123
G01 X13.0046 Y9.4559
G01 X12.9911 Y9.4701
G01 X12.9769 Y9.4836
G01 X12.9406 Y9.5166
G01 X13.1267 Y9.3924
G01 X13.1687 Y9.3670
G01 X13.1945 Y9.3528
G01 X13.2478 Y9.3276
G01 X13.2751 Y9.3167
G01 X13.3121 Y9.3035
G01 X13.3307 Y9.2973
G01 X13.3496 Y9.2921
G01 X13.3973 Y9.2803
G01 X13.4165 Y9.2764
G01 X13.4651 Y9.2691
G01 X13.4846 Y9.2667
G01 X13.5041 Y9.2653
G01 X13.5434 Y9.2633
G01 X13.5630 Y9.2629
G01 X13.5826 Y9.2633
G01 X13.6219 Y9.2653
G01 X13.6414 Y9.2667
G01 X13.6609 Y9.2691
G01 X13.7095 Y9.2764
G01 X13.7383 Y9.2825
G01 X13.7764 Y9.2921
G01 X13.7953 Y9.2973
G01 X13.8139 Y9.3035
G01 X13.8601 Y9.3201
G01 X13.8782 Y9.3276
G01 X13.9227 Y9.3485
G01 X13.9402 Y9.3573
G01 X13.9573 Y9.3670
G01 X13.9910 Y9.3872
G01 X14.0076 Y9.3977
G01 X14.0236 Y9.4090
G01 X14.0552 Y9.4324
G01 X14.0706 Y9.4445
G01 X14.0855 Y9.4573
G01 X14.1218 Y9.4904
G01 X14.1424 Y9.5115
G01 X14.1687 Y9.5406
G01 X14.1816 Y9.5554
G01 X14.1936 Y9.5709
G01 X14.2228 Y9.6104
G01 X14.2337 Y9.6267
G01 X14.2590 Y9.6688
G01 X14.2687 Y9.6858
G01 X14.2775 Y9.7034
G01 X14.2943 Y9.7389
G01 X14.3023 Y9.7568
G01 X14.3094 Y9.7752
G01 X14.3258 Y9.8214
G01 X14.3315 Y9.8402
G01 X14.3435 Y9.8878
G01 X14.3496 Y9.9166
G01 X14.3569 Y9.9651
G01 X14.3593 Y9.9846
G01 X14.3608 Y10.0042
G01 X14.3628 Y10.0463
G01 X14.3628 Y7.6767
G01 X13.6593 Y6.9732
G01 X12.9443 Y6.9732
G01 X12.9259 Y6.9897
G01 X12.9107 Y7.0021
G01 X12.8556 Y7.0432
G01 X12.8313 Y7.0598
G01 X12.7725 Y7.0952
G01 X12.7554 Y7.1049
G01 X12.7379 Y7.1137
G01 X12.6846 Y7.1389
G01 X12.6576 Y7.1505
G01 X12.5929 Y7.1738
G01 X12.5743 Y7.1799
G01 X12.5554 Y7.1852
G01 X12.4982 Y7.1995
G01 X12.4791 Y7.2038
G01 X12.4597 Y7.2071
G01 X12.4015 Y7.2158
G01 X12.3820 Y7.2182
G01 X12.3624 Y7.2196
G01 X12.2938 Y7.2229
G01 X11.0840 Y7.2230
G01 X11.0644 Y7.2225
G01 X11.0056 Y7.2196
G01 X10.9860 Y7.2182
G01 X10.9665 Y7.2158
G01 X10.9083 Y7.2071
G01 X10.8889 Y7.2038
G01 X10.8698 Y7.1995
G01 X10.8126 Y7.1852
G01 X10.7937 Y7.1799
G01 X10.7751 Y7.1738
G01 X10.7196 Y7.1539
G01 X10.7013 Y7.1469
G01 X10.6834 Y7.1389
G01 X10.6301 Y7.1137
G01 X10.6040 Y7.1002
G01 X10.5367 Y7.0598
G01 X10.5124 Y7.0432
G01 X10.4573 Y7.0021
G01 X10.4421 Y6.9897
G01 X10.3911 Y6.9436
G01 X10.3769 Y6.9301
G01 X10.3634 Y6.9159
G01 X10.3238 Y6.8723
G01 X10.3110 Y6.8574
G01 X10.2989 Y6.8419
G01 X10.2638 Y6.7946
G01 X10.2525 Y6.7786
G01 X10.2420 Y6.7620
G01 X10.2118 Y6.7115
G01 X10.2021 Y6.6944
G01 X10.1933 Y6.6769
G01 X10.1681 Y6.6236
G01 X10.1601 Y6.6057
G01 X10.1531 Y6.5874
G01 X10.1332 Y6.5319
G01 X10.1271 Y6.5133
G01 X10.1218 Y6.4944
G01 X10.1075 Y6.4372
G01 X10.1032 Y6.4181
G01 X10.0999 Y6.3987
G01 X10.0912 Y6.3405
G01 X10.0888 Y6.3210
G01 X10.0874 Y6.3014
G01 X10.0845 Y6.2426
G01 X10.0840 Y6.2230
G01 X10.0845 Y6.2034
G01 X10.0874 Y6.1446
G01 X10.0888 Y6.1250
G01 X10.0912 Y6.1055
G01 X10.0999 Y6.0473
G01 X10.1032 Y6.0279
G01 X10.1075 Y6.0088
G01 X10.1218 Y5.9516
G01 X10.1271 Y5.9327
G01 X10.1332 Y5.9141
G01 X10.1531 Y5.8586
G01 X10.1601 Y5.8403
G01 X10.1681 Y5.8224
G01 X10.1933 Y5.7691
G01 X10.2021 Y5.7516
G01 X10.2118 Y5.7345
G01 X10.2420 Y5.6840
G01 X10.2525 Y5.6674
G01 X10.2638 Y5.6514
G01 X10.2989 Y5.6041
G01 X10.3110 Y5.5886
G01 X10.3238 Y5.5737
G01 X10.3634 Y5.5301
G01 X10.3769 Y5.5159
G01 X10.3911 Y5.5024
G01 X10.4347 Y5.4628
G01 X10.4496 Y5.4500
G01 X10.4651 Y5.4379
G01 X10.5124 Y5.4028
G01 X10.5284 Y5.3915
G01 X10.5450 Y5.3810
G01 X10.5955 Y5.3508
G01 X10.6126 Y5.3411
G01 X10.6301 Y5.3323
G01 X10.6834 Y5.3071
G01 X10.7013 Y5.2991
G01 X10.7196 Y5.2921
G01 X10.7751 Y5.2722
G01 X10.7937 Y5.2661
G01 X10.8126 Y5.2608
G01 X10.8698 Y5.2465
G01 X10.8889 Y5.2422
G01 X10.9083 Y5.2389
G01 X10.9665 Y5.2302
G01 X10.9860 Y5.2278
G01 X11.0056 Y5.2264
G01 X11.0644 Y5.2235
G01 X11.0840 Y5.2230
G01 X12.2840 Y5.2230
G01 X12.3036 Y5.2235
G01 X12.3624 Y5.2264
G01 X12.3820 Y5.2278
G01 X12.4015 Y5.2302
G01 X12.4694 Y5.2404
G01 X12.4982 Y5.2465
G01 X12.5554 Y5.2608
G01 X12.5743 Y5.2661
G01 X12.5929 Y5.2722
G01 X12.6484 Y5.2921
G01 X12.6667 Y5.2991
G01 X12.6846 Y5.3071
G01 X12.7379 Y5.3323
G01 X12.7554 Y5.3411
G01 X12.7725 Y5.3508
G01 X12.8313 Y5.3862
G01 X12.8556 Y5.4028
G01 X12.9107 Y5.4439
G01 X12.9259 Y5.4563
G01 X12.9443 Y5.4728
G01 X13.9798 Y5.4729
G01 X14.0240 Y5.4750
G01 X14.0435 Y5.4764
G01 X14.0630 Y5.4788
G01 X14.1067 Y5.4854
G01 X14.1260 Y5.4893
G01 X14.1688 Y5.4999
G01 X14.1971 Y5.5081
G01 X14.2480 Y5.5263
G01 X14.2750 Y5.5379
G01 X14.3061 Y5.5526
G01 X14.3236 Y5.5614
G01 X14.3407 Y5.5711
G01 X14.3702 Y5.5887
G01 X14.3949 Y5.6048
G01 X14.4382 Y5.6370
G01 X14.4534 Y5.6494
G01 X14.4934 Y5.6857
G01 X15.6503 Y6.8426
G01 X15.6801 Y6.8752
G01 X15.6929 Y6.8901
G01 X15.7050 Y6.9056
G01 X15.7254 Y6.9332
G01 X15.7421 Y6.9575
G01 X15.7649 Y6.9953
G01 X15.7746 Y7.0124
G01 X15.7834 Y7.0299
G01 X15.8022 Y7.0699
G01 X15.8131 Y7.0972
G01 X15.8247 Y7.1296
G01 X15.8309 Y7.1482
G01 X15.8361 Y7.1672
G01 X15.8445 Y7.2005
G01 X15.8506 Y7.2293
G01 X15.8585 Y7.2827
G01 X15.8610 Y7.3120
G01 X15.8627 Y7.3464
G01 X15.8632 Y7.3660
G01 X15.8632 Y14.2943
G01 X18.8253 Y17.2566
G01 X18.8616 Y17.2966
G01 X18.8740 Y17.3118
G01 X18.9062 Y17.3551
G01 X18.9171 Y17.3715
G01 X18.9449 Y17.4178
G01 X18.9541 Y17.4351
G01 X18.9772 Y17.4839
G01 X18.9881 Y17.5112
G01 X19.0029 Y17.5529
G01 X19.0086 Y17.5717
G01 X19.0217 Y17.6240
G01 X19.0256 Y17.6433
G01 X19.0322 Y17.6870
G01 X19.0346 Y17.7065
G01 X19.0360 Y17.7260
G01 X19.0377 Y17.7604
G01 X19.0382 Y17.7800
G01 X19.0382 Y23.0225
G01 X19.0868 Y23.0760
G01 X19.0997 Y23.0909
G01 X19.1117 Y23.1064
G01 X19.1497 Y23.1576
G01 X19.1610 Y23.1737
G01 X19.1715 Y23.1902
G01 X19.2043 Y23.2450
G01 X19.2140 Y23.2620
G01 X19.2228 Y23.2796
G01 X19.2501 Y23.3372
G01 X19.2581 Y23.3552
G01 X19.2651 Y23.3735
G01 X19.2866 Y23.4336
G01 X19.2928 Y23.4522
G01 X19.2980 Y23.4711
G01 X19.3135 Y23.5330
G01 X19.3178 Y23.5522
G01 X19.3212 Y23.5715
G01 X19.3305 Y23.6346
G01 X19.3329 Y23.6541
G01 X19.3344 Y23.6737
G01 X19.3375 Y23.7374
G01 X19.3380 Y23.7570
G01 X19.3380 Y24.7570
G01 X19.3375 Y24.7766
G01 X19.3344 Y24.8403
G01 X19.3319 Y24.8697
G01 X19.3196 Y24.9522
G01 X19.3135 Y24.9810
G01 X19.2980 Y25.0429
G01 X19.2928 Y25.0618
G01 X19.2866 Y25.0804
G01 X19.2651 Y25.1405
G01 X19.2581 Y25.1588
G01 X19.2501 Y25.1768
G01 X19.2228 Y25.2344
G01 X19.2140 Y25.2520
G01 X19.2043 Y25.2690
G01 X19.1715 Y25.3238
G01 X19.1610 Y25.3403
G01 X19.1497 Y25.3564
G01 X19.1117 Y25.4076
G01 X19.0997 Y25.4231
G01 X19.0868 Y25.4380
G01 X19.0440 Y25.4852
G01 X19.0305 Y25.4995
G01 X19.0162 Y25.5130
G01 X18.9690 Y25.5558
G01 X18.9541 Y25.5687
G01 X18.9386 Y25.5807
G01 X18.8874 Y25.6187
G01 X18.8713 Y25.6300
G01 X18.8548 Y25.6405
G01 X18.8000 Y25.6733
G01 X18.7743 Y25.6875
G01 X18.7078 Y25.7191
G01 X18.6898 Y25.7271
G01 X18.6715 Y25.7341
G01 X18.6114 Y25.7556
G01 X18.5928 Y25.7618
G01 X18.5739 Y25.7670
G01 X18.5120 Y25.7825
G01 X18.4928 Y25.7868
G01 X18.4735 Y25.7902
G01 X18.4104 Y25.7995
G01 X18.3909 Y25.8019
G01 X18.3713 Y25.8034
G01 X18.3076 Y25.8065
G01 X18.2880 Y25.8070
G01 X18.2684 Y25.8065
G01 X18.2047 Y25.8034
G01 X18.1753 Y25.8009
G01 X18.1025 Y25.7902
G01 X18.0832 Y25.7868
G01 X18.0640 Y25.7825
G01 X18.0021 Y25.7670
G01 X17.9832 Y25.7618
G01 X17.9646 Y25.7556
G01 X17.9045 Y25.7341
G01 X17.8862 Y25.7271
G01 X17.8682 Y25.7191
G01 X17.8106 Y25.6918
G01 X17.7930 Y25.6830
G01 X17.7760 Y25.6733
G01 X17.7212 Y25.6405
G01 X17.7047 Y25.6300
G01 X17.6886 Y25.6187
G01 X17.6374 Y25.5807
G01 X17.6219 Y25.5687
G01 X17.6070 Y25.5558
G01 X17.5598 Y25.5130
G01 X17.5455 Y25.4995
G01 X17.5320 Y25.4852
G01 X17.4892 Y25.4380
G01 X17.4763 Y25.4231
G01 X17.4643 Y25.4076
G01 X17.4263 Y25.3564
G01 X17.4150 Y25.3403
G01 X17.4045 Y25.3238
G01 X17.3717 Y25.2690
G01 X17.3620 Y25.2520
G01 X17.3532 Y25.2344
G01 X17.3259 Y25.1768
G01 X17.3179 Y25.1588
G01 X17.3109 Y25.1405
G01 X17.2894 Y25.0804
G01 X17.2805 Y25.0524
G01 X17.2602 Y24.9714
G01 X17.2548 Y24.9425
G01 X17.2455 Y24.8794
G01 X17.2431 Y24.8599
G01 X17.2416 Y24.8403
G01 X17.2381 Y24.7668
G01 X17.2380 Y23.7570
G01 X17.2385 Y23.7374
G01 X17.2416 Y23.6737
G01 X17.2441 Y23.6443
G01 X17.2564 Y23.5618
G01 X17.2625 Y23.5330
G01 X17.2805 Y23.4616
G01 X17.2894 Y23.4336
G01 X17.3109 Y23.3735
G01 X17.3179 Y23.3552
G01 X17.3259 Y23.3372
G01 X17.3456 Y23.2955
G01 X17.3166 Y23.3348
G01 X17.3046 Y23.3502
G01 X17.2917 Y23.3651
G01 X17.2587 Y23.4014
G01 X17.2448 Y23.4153
G01 X17.2085 Y23.4483
G01 X17.1936 Y23.4612
G01 X17.1782 Y23.4732
G01 X17.1466 Y23.4966
G01 X17.1306 Y23.5079
G01 X17.1140 Y23.5184
G01 X17.0803 Y23.5386
G01 X17.0632 Y23.5483
G01 X17.0457 Y23.5571
G01 X17.0102 Y23.5739
G01 X16.9922 Y23.5819
G01 X16.9739 Y23.5889
G01 X16.9369 Y23.6022
G01 X16.9183 Y23.6083
G01 X16.8994 Y23.6136
G01 X16.8517 Y23.6254
G01 X16.8325 Y23.6292
G01 X16.7839 Y23.6365
G01 X16.7644 Y23.6389
G01 X16.7449 Y23.6404
G01 X16.6958 Y23.6427
G01 X16.6762 Y23.6427
G01 X16.6271 Y23.6404
G01 X16.6076 Y23.6389
G01 X16.5881 Y23.6365
G01 X16.5492 Y23.6308
G01 X16.5299 Y23.6274
G01 X16.5107 Y23.6231
G01 X16.4726 Y23.6136
G01 X16.4537 Y23.6083
G01 X16.4351 Y23.6022
G01 X16.3981 Y23.5889
G01 X16.3798 Y23.5819
G01 X16.3618 Y23.5739
G01 X16.3263 Y23.5571
G01 X16.3088 Y23.5483
G01 X16.2917 Y23.5386
G01 X16.2497 Y23.5133
G01 X16.2333 Y23.5024
G01 X16.1938 Y23.4732
G01 X16.1784 Y23.4612
G01 X16.1635 Y23.4483
G01 X16.1272 Y23.4153
G01 X16.1133 Y23.4014
G01 X16.0803 Y23.3651
G01 X16.0674 Y23.3502
G01 X16.0554 Y23.3348
G01 X16.0320 Y23.3032
G01 X16.0207 Y23.2872
G01 X16.0102 Y23.2706
G01 X15.9900 Y23.2369
G01 X15.9803 Y23.2198
G01 X15.9715 Y23.2023
G01 X15.9547 Y23.1668
G01 X15.9467 Y23.1488
G01 X15.9396 Y23.1305
G01 X15.9264 Y23.0935
G01 X15.9203 Y23.0749
G01 X15.9150 Y23.0560
G01 X15.9032 Y23.0083
G01 X15.8994 Y22.9891
G01 X15.8921 Y22.9405
G01 X15.8897 Y22.9210
G01 X15.8882 Y22.9014
G01 X15.8863 Y22.8614
G01 X15.8863 Y24.9281
G01 X20.4357 Y29.4776
G01 X20.4357 Y28.3439
G01 X20.4147 Y28.3086
G01 X20.4055 Y28.2913
G01 X20.3698 Y28.2158
G01 X20.3589 Y28.1885
G01 X20.3374 Y28.1284
G01 X20.3285 Y28.1004
G01 X20.3105 Y28.0290
G01 X20.3062 Y28.0098
G01 X20.3028 Y27.9905
G01 X20.2935 Y27.9274
G01 X20.2911 Y27.9079
G01 X20.2896 Y27.8883
G01 X20.2865 Y27.8246
G01 X20.2860 Y27.8050
G01 X20.2860 Y26.8050
G01 X20.2865 Y26.7854
G01 X20.2902 Y26.7119
G01 X20.2935 Y26.6826
G01 X20.3028 Y26.6195
G01 X20.3062 Y26.6002
G01 X20.3105 Y26.5810
G01 X20.3260 Y26.5191
G01 X20.3312 Y26.5002
G01 X20.3374 Y26.4816
G01 X20.3589 Y26.4215
G01 X20.3659 Y26.4032
G01 X20.3739 Y26.3852
G01 X20.4077 Y26.3143
G01 X20.4077 Y19.9568
G01 X20.3880 Y19.9147
G01 X20.3805 Y19.8966
G01 X20.3572 Y19.8319
G01 X20.3483 Y19.8039
G01 X20.3315 Y19.7372
G01 X20.3254 Y19.7084
G01 X20.3139 Y19.6308
G01 X20.3114 Y19.6014
G01 X20.3085 Y19.5426
G01 X20.3080 Y19.5230
G01 X20.3081 Y18.3132
G01 X20.3120 Y18.2348
G01 X20.3152 Y18.2055
G01 X20.3239 Y18.1473
G01 X20.3272 Y18.1279
G01 X20.3315 Y18.1088
G01 X20.3483 Y18.0421
G01 X20.3572 Y18.0141
G01 X20.3771 Y17.9586
G01 X20.3841 Y17.9403
G01 X20.3921 Y17.9224
G01 X20.4173 Y17.8691
G01 X20.4261 Y17.8516
G01 X20.4357 Y17.8345
G01 X20.4357 Y16.4059
G01 X20.4147 Y16.3706
G01 X20.4055 Y16.3533
G01 X20.3698 Y16.2778
G01 X20.3589 Y16.2505
G01 X20.3374 Y16.1904
G01 X20.3285 Y16.1624
G01 X20.3105 Y16.0910
G01 X20.3062 Y16.0718
G01 X20.3028 Y16.0525
G01 X20.2935 Y15.9894
G01 X20.2911 Y15.9699
G01 X20.2896 Y15.9503
G01 X20.2865 Y15.8866
G01 X20.2860 Y15.8670
G01 X20.2860 Y14.8670
G01 X20.2865 Y14.8474
G01 X20.2896 Y14.7837
G01 X20.2911 Y14.7641
G01 X20.2935 Y14.7446
G01 X20.3028 Y14.6815
G01 X20.3062 Y14.6622
G01 X20.3105 Y14.6430
G01 X20.3260 Y14.5811
G01 X20.3342 Y14.5528
G01 X20.3589 Y14.4835
G01 X20.3698 Y14.4562
G01 X20.4055 Y14.3807
G01 X20.4147 Y14.3634
G01 X20.4336 Y14.3317
G01 X20.4357 Y8.3274
G01 X20.4261 Y8.3104
G01 X20.4173 Y8.2929
G01 X20.3921 Y8.2396
G01 X20.3841 Y8.2217
G01 X20.3771 Y8.2034
G01 X20.3572 Y8.1479
G01 X20.3511 Y8.1293
G01 X20.3458 Y8.1104
G01 X20.3315 Y8.0532
G01 X20.3272 Y8.0341
G01 X20.3239 Y8.0147
G01 X20.3152 Y7.9565
G01 X20.3128 Y7.9370
G01 X20.3114 Y7.9174
G01 X20.3085 Y7.8586
G01 X20.3080 Y7.8390
G01 X20.3080 Y6.6390
G01 X20.3085 Y6.6194
G01 X20.3114 Y6.5606
G01 X20.3139 Y6.5312
G01 X20.3254 Y6.4536
G01 X20.3315 Y6.4248
G01 X20.3483 Y6.3581
G01 X20.3572 Y6.3301
G01 X20.3805 Y6.2654
G01 X20.3880 Y6.2473
G01 X20.4077 Y6.2052
G01 X20.4077 Y4.6737
G01 X20.4012 Y4.6604
G01 X20.3698 Y4.5938
G01 X20.3589 Y4.5665
G01 X20.3374 Y4.5064
G01 X20.3312 Y4.4878
G01 X20.3260 Y4.4689
G01 X20.3105 Y4.4070
G01 X20.3062 Y4.3878
G01 X20.3028 Y4.3685
G01 X20.2935 Y4.3054
G01 X20.2911 Y4.2859
G01 X20.2896 Y4.2663
G01 X20.2865 Y4.2026
G01 X20.2860 Y4.1830
G01 X20.2860 Y3.1830
G01 X20.2865 Y3.1634
G01 X20.2896 Y3.0997
G01 X20.2911 Y3.0801
G01 X20.2935 Y3.0606
G01 X20.3028 Y2.9975
G01 X20.3062 Y2.9782
G01 X20.3105 Y2.9590
G01 X20.3260 Y2.8971
G01 X20.3342 Y2.8688
G01 X20.3589 Y2.7995
G01 X20.3698 Y2.7722
G01 X20.4055 Y2.6967
G01 X20.4147 Y2.6794
G01 X20.4336 Y2.6477
G01 X20.4357 Y-1.8326
G01 X20.4261 Y-1.8496
G01 X20.4173 Y-1.8671
G01 X20.3921 Y-1.9204
G01 X20.3841 Y-1.9383
G01 X20.3771 Y-1.9566
G01 X20.3572 Y-2.0121
G01 X20.3511 Y-2.0307
G01 X20.3458 Y-2.0496
G01 X20.3315 Y-2.1068
G01 X20.3272 Y-2.1259
G01 X20.3239 Y-2.1453
G01 X20.3152 Y-2.2035
G01 X20.3120 Y-2.2328
G01 X20.3085 Y-2.3014
G01 X20.3080 Y-2.3210
G01 X20.3080 Y-3.5210
G01 X20.3085 Y-3.5406
G01 X20.3114 Y-3.5994
G01 X20.3128 Y-3.6190
G01 X20.3152 Y-3.6385
G01 X20.3239 Y-3.6967
G01 X20.3272 Y-3.7161
G01 X20.3315 Y-3.7352
G01 X20.3458 Y-3.7924
G01 X20.3511 Y-3.8113
G01 X20.3572 Y-3.8299
G01 X20.3771 Y-3.8854
G01 X20.3841 Y-3.9037
G01 X20.3921 Y-3.9216
G01 X20.4173 Y-3.9749
G01 X20.4261 Y-3.9924
G01 X20.4357 Y-4.0095
G01 X20.4357 Y-5.1841
G01 X20.4147 Y-5.2194
G01 X20.4055 Y-5.2367
G01 X20.3698 Y-5.3122
G01 X20.3589 Y-5.3395
G01 X20.3374 Y-5.3996
G01 X20.3285 Y-5.4276
G01 X20.3105 Y-5.4990
G01 X20.3062 Y-5.5182
G01 X20.3028 Y-5.5375
G01 X20.2935 Y-5.6006
G01 X20.2911 Y-5.6201
G01 X20.2896 Y-5.6397
G01 X20.2865 Y-5.7034
G01 X20.2860 Y-5.7230
G01 X20.2860 Y-6.7230
G01 X20.2865 Y-6.7426
G01 X20.2896 Y-6.8063
G01 X20.2911 Y-6.8259
G01 X20.2935 Y-6.8454
G01 X20.3028 Y-6.9085
G01 X20.3062 Y-6.9278
G01 X20.3105 Y-6.9470
G01 X20.3260 Y-7.0089
G01 X20.3342 Y-7.0372
G01 X20.3589 Y-7.1065
G01 X20.3698 Y-7.1338
G01 X20.4055 Y-7.2093
G01 X20.4147 Y-7.2266
G01 X20.4336 Y-7.2583
G01 X20.4357 Y-15.8522
G01 X20.4147 Y-15.8874
G01 X20.4055 Y-15.9047
G01 X20.3698 Y-15.9802
G01 X20.3589 Y-16.0075
G01 X20.3374 Y-16.0676
G01 X20.3285 Y-16.0956
G01 X20.3105 Y-16.1670
G01 X20.3062 Y-16.1862
G01 X20.3028 Y-16.2055
G01 X20.2935 Y-16.2686
G01 X20.2911 Y-16.2881
G01 X20.2896 Y-16.3077
G01 X20.2865 Y-16.3714
G01 X20.2860 Y-16.3910
G01 X20.2860 Y-17.3910
G01 X20.2865 Y-17.4106
G01 X20.2902 Y-17.4841
G01 X20.2935 Y-17.5134
G01 X20.3028 Y-17.5765
G01 X20.3062 Y-17.5958
G01 X20.3105 Y-17.6150
G01 X20.3260 Y-17.6769
G01 X20.3312 Y-17.6958
G01 X20.3374 Y-17.7144
G01 X20.3589 Y-17.7745
G01 X20.3659 Y-17.7928
G01 X20.3739 Y-17.8108
G01 X20.4077 Y-17.8817
G01 X20.4077 Y-19.9212
G01 X20.3880 Y-19.9633
G01 X20.3805 Y-19.9814
G01 X20.3572 Y-20.0461
G01 X20.3483 Y-20.0741
G01 X20.3315 Y-20.1408
G01 X20.3254 Y-20.1696
G01 X20.3139 Y-20.2472
G01 X20.3114 Y-20.2766
G01 X20.3085 Y-20.3354
G01 X20.3080 Y-20.3550
G01 X20.3080 Y-21.5550
G01 X20.3085 Y-21.5746
G01 X20.3114 Y-21.6334
G01 X20.3128 Y-21.6530
G01 X20.3152 Y-21.6725
G01 X20.3239 Y-21.7307
G01 X20.3292 Y-21.7597
G01 X20.3458 Y-21.8264
G01 X20.3540 Y-21.8546
G01 X20.3771 Y-21.9194
G01 X20.3841 Y-21.9377
G01 X20.3921 Y-21.9556
G01 X20.4077 Y-21.9888
G01 X20.4077 Y-27.0332
G01 X20.3880 Y-27.0753
G01 X20.3805 Y-27.0934
G01 X20.3572 Y-27.1581
G01 X20.3483 Y-27.1861
G01 X20.3315 Y-27.2528
G01 X20.3254 Y-27.2816
G01 X20.3139 Y-27.3592
G01 X20.3114 Y-27.3886
G01 X20.3085 Y-27.4474
G01 X20.3080 Y-27.4670
G01 X20.3080 Y-28.6670
G01 X20.3085 Y-28.6866
G01 X20.3114 Y-28.7454
G01 X20.3128 Y-28.7650
G01 X20.3152 Y-28.7845
G01 X20.3239 Y-28.8427
G01 X20.3292 Y-28.8717
G01 X20.3458 Y-28.9384
G01 X20.3540 Y-28.9666
G01 X20.3771 Y-29.0314
G01 X20.3841 Y-29.0497
G01 X20.3921 Y-29.0676
G01 X20.4077 Y-29.1008
G01 X20.4077 Y-32.9183
G01 X20.3739 Y-32.9892
G01 X20.3659 Y-33.0072
G01 X20.3589 Y-33.0255
G01 X20.3342 Y-33.0948
G01 X20.3260 Y-33.1231
G01 X20.3082 Y-33.1946
G01 X20.3044 Y-33.2138
G01 X20.2998 Y-33.2440
G01 X20.2984 Y-33.2180
G01 X20.2964 Y-33.1985
G01 X20.2894 Y-33.1499
G01 X20.2840 Y-33.1209
G01 X20.2722 Y-33.0733
G01 X20.2669 Y-33.0544
G01 X20.2608 Y-33.0357
G01 X20.2441 Y-32.9895
G01 X20.2366 Y-32.9714
G01 X20.2157 Y-32.9270
G01 X20.2069 Y-32.9094
G01 X20.1972 Y-32.8924
G01 X20.1719 Y-32.8503
G01 X20.1610 Y-32.8340
G01 X20.1318 Y-32.7945
G01 X20.1134 Y-32.7715
G01 X20.0805 Y-32.7350
G01 X20.0670 Y-32.7208
G01 X20.0528 Y-32.7073
G01 X20.0163 Y-32.6744
G01 X20.0012 Y-32.6619
G01 X19.9618 Y-32.6326
G01 X19.9458 Y-32.6213
G01 X19.9292 Y-32.6108
G01 X19.8955 Y-32.5906
G01 X19.8784 Y-32.5809
G01 X19.8609 Y-32.5721
G01 X19.8254 Y-32.5553
G01 X19.8074 Y-32.5474
G01 X19.7891 Y-32.5403
G01 X19.7521 Y-32.5271
G01 X19.7335 Y-32.5209
G01 X19.7145 Y-32.5157
G01 X19.6765 Y-32.5061
G01 X19.6476 Y-32.5000
G01 X19.5991 Y-32.4927
G01 X19.5796 Y-32.4903
G01 X19.5600 Y-32.4889
G01 X19.5110 Y-32.4866
G01 X19.4816 Y-32.4869
G01 X19.4423 Y-32.4889
G01 X19.4228 Y-32.4903
G01 X19.4033 Y-32.4927
G01 X19.3547 Y-32.5000
G01 X19.3259 Y-32.5061
G01 X19.2783 Y-32.5182
G01 X19.2595 Y-32.5239
G01 X19.2041 Y-32.5437
G01 X19.1770 Y-32.5553
G01 X19.1415 Y-32.5721
G01 X19.1240 Y-32.5809
G01 X19.1069 Y-32.5906
G01 X19.0732 Y-32.6108
G01 X19.0566 Y-32.6213
G01 X18.6837 Y-32.8704
G01 X18.2880 Y-32.9492
G01 X17.8923 Y-32.8704
G01 X17.5568 Y-32.6463
G01 X17.5016 Y-32.5637
G01 X17.5046 Y-32.5670
G01 X17.5043 Y-32.5678
G00 Z2.0000
G00 X17.9092 Y-32.8478
G01 F60.00
G01 Z-0.0000
G01 F120.00
G01 X17.8996 Y-32.8719
G00 Z2.0000
G00 X18.3941 Y-32.9281
G01 F60.00
G01 Z-0.0000
G01 F120.00
G01 X18.4001 Y-32.9129
G00 Z2.0000
G00 X19.0116 Y-32.6514
G01 F60.00
G01 Z-0.0000
G01 F120.00
G01 X19.0241 Y-32.6177
G00 Z2.0000
G00 X19.5831 Y-32.4907
G01 F60.00
G01 Z-0.0000
G01 F120.00
G01 X19.8151 Y-31.8163
G01 X20.0339 Y-31.1256
G01 X20.2357 Y-30.4298
G01 X20.4077 Y-29.7769
G01 X19.2380 Y-30.4236
G01 X19.3104 Y-30.1737
G01 X19.4891 Y-29.4959
G01 X19.6511 Y-28.8139
G01 X19.7962 Y-28.1282
G01 X19.9245 Y-27.4391
G01 X20.0359 Y-26.7470
G01 X20.1302 Y-26.0524
G01 X20.2075 Y-25.3558
G01 X20.2676 Y-24.6574
G01 X20.3106 Y-23.9578
G01 X20.3364 Y-23.2573
G01 X20.3450 Y-22.5564
G01 X20.3364 Y-21.8555
G01 X20.3335 Y-21.7772
G00 Z2.0000
G00 X20.3080 Y-21.1127
G01 F60.00
G01 Z-0.0000
G01 F120.00
G01 X20.2676 Y-20.4554
G01 X20.2075 Y-19.7570
G01 X20.1302 Y-19.0603
G01 X20.0359 Y-18.3658
G01 X19.9245 Y-17.6737
G01 X19.7962 Y-16.9846
G01 X19.6511 Y-16.2989
G01 X19.4891 Y-15.6169
G01 X19.3104 Y-14.9391
G01 X19.2962 Y-14.8899
G00 Z2.0000
G00 X18.9406 Y-15.4192
G01 F60.00
G01 Z-0.0000
G01 F120.00
G01 X19.0235 Y-15.7335
G01 X19.1827 Y-16.4040
G01 X19.3255 Y-17.0783
G01 X19.4516 Y-17.7558
G01 X19.5611 Y-18.4362
G01 X19.6538 Y-19.1191
G01 X19.7298 Y-19.8041
G01 X19.7889 Y-20.4907
G01 X19.8312 Y-21.1786
G01 X19.8565 Y-21.8673
G01 X19.8650 Y-22.5564
G01 X19.8565 Y-23.2455
G01 X19.8312 Y-23.9342
G01 X19.7889 Y-24.6221
G01 X19.7298 Y-25.3087
G01 X19.6538 Y-25.9937
G01 X19.5611 Y-26.6766
G01 X19.4516 Y-27.3570
G01 X19.3255 Y-28.0345
G01 X19.1827 Y-28.7088
G01 X19.0382 Y-29.3174
G01 X20.3080 Y-28.0016
G01 X20.2670 Y-28.2218
G01 X20.1194 Y-28.9191
G01 X19.9547 Y-29.6125
G01 X19.7731 Y-30.3017
G01 X19.5745 Y-30.9863
G01 X19.3593 Y-31.6657
G01 X19.3380 Y-31.7276
G01 X20.4077 Y-31.5347
G01 X20.2708 Y-31.9669
G01 X20.0313 Y-32.6631
G01 X20.0244 Y-32.6816
G00 Z2.0000
G00 X20.0744 Y-33.8967
G01 F60.00
G01 Z-0.0000
G01 F120.00
G01 X20.0739 Y-33.8980
G01 X20.0668 Y-33.9051
G01 X20.0938 Y-33.8753
G01 X20.1066 Y-33.8605
G01 X20.1187 Y-33.8450
G01 X20.1421 Y-33.8134
G01 X20.1534 Y-33.7974
G01 X20.1639 Y-33.7808
G01 X20.1841 Y-33.7471
G01 X20.1937 Y-33.7300
G01 X20.2026 Y-33.7125
G01 X20.2193 Y-33.6770
G01 X20.2273 Y-33.6590
G01 X20.2344 Y-33.6407
G01 X20.2508 Y-33.5945
G01 X20.2565 Y-33.5757
G01 X20.2708 Y-33.5185
G01 X20.2860 Y-33.4428
G01 X20.2860 Y-33.6859
G01 X20.0668 Y-33.9051
G00 Z2.0000
G00 X20.9160 Y-35.6022
G01 F60.00
G01 Z-0.0000
G01 F120.00
G01 X20.8989 Y-35.6395
G00 Z2.0000
G00 X21.5042 Y-35.4557
G01 F60.00
G01 Z-0.0000
G01 F120.00
G01 X21.5092 Y-35.4440
G00 Z2.0000
G00 X22.0326 Y-35.4413
G01 F60.00
G01 Z-0.0000
G01 F120.00
G01 X22.1622 Y-35.1390
G01 X22.2433 Y-34.9361
G00 Z2.0000
G00 X22.3565 Y-34.6531
G01 F60.00
G01 Z-0.0000
G01 F120.00
G01 X22.4618 Y-34.3897
G01 X22.7077 Y-33.7281
G01 X22.3714 Y-33.2381
G01 X22.5497 Y-32.7197
G01 X22.7077 Y-32.2208
G01 X22.2083 Y-32.2083
G01 X22.3305 Y-31.8223
G01 X22.5487 Y-31.0699
G01 X22.7077 Y-30.4665
G01 X22.2083 Y-30.4785
G01 X22.2828 Y-30.1957
G01 X22.4611 Y-29.4449
G01 X22.6110 Y-28.7370
G01 X22.3080 Y-27.7325
G01 X22.4099 Y-27.0992
G01 X22.5122 Y-26.3462
G01 X22.5959 Y-25.5910
G01 X22.6611 Y-24.8340
G01 X22.7077 Y-24.0755
G01 X22.7357 Y-23.3162
G01 X22.7446 Y-22.5926
G01 X22.2650 Y-22.5564
G01 X22.2558 Y-23.3044
G01 X22.2283 Y-24.0520
G01 X22.2083 Y-24.3781
G01 X23.2169 Y-23.2200
G01 X23.2155 Y-23.3280
G01 X23.1871 Y-24.0991
G01 X23.1398 Y-24.8693
G01 X23.0736 Y-25.6381
G01 X22.9886 Y-26.4050
G01 X22.9460 Y-26.7184
G00 Z2.0000
G00 X23.4630 Y-26.4783
G01 F60.00
G01 Z-0.0000
G01 F120.00
G01 X23.4649 Y-26.4637
G01 X23.5513 Y-25.6851
G01 X23.6185 Y-24.9046
G01 X23.6666 Y-24.1226
G01 X23.6826 Y-23.6858
G00 Z2.0000
G00 X24.1458 Y-24.1489
G01 F60.00
G01 Z-0.0000
G01 F120.00
G01 X24.0972 Y-24.9399
G01 X24.0290 Y-25.7322
G01 X23.9410 Y-26.5248
G00 Z2.0000
G00 X24.3832 Y-26.8354
G01 F60.00
G01 Z-0.0000
G01 F120.00
G01 X24.4177 Y-26.5813
G01 X24.5067 Y-25.7792
G01 X24.5759 Y-24.9752
G01 X24.5988 Y-24.6020
G00 Z2.0000
G00 X25.0509 Y-25.0540
G01 F60.00
G01 Z-0.0000
G01 F120.00
G01 X24.9844 Y-25.8262
G01 X24.8941 Y-26.6400
G01 X24.7839 Y-27.4513
G01 X24.6539 Y-28.2597
G01 X24.6080 Y-28.5060
G01 X24.9918 Y-29.0670
G01 X24.9748 Y-29.1583
G01 X24.8028 Y-29.9708
G01 X24.6109 Y-30.7788
G01 X24.5083 Y-31.1681
G01 X25.1578 Y-30.5529
G01 X25.0765 Y-30.8955
G01 X24.8618 Y-31.7100
G01 X24.6272 Y-32.5190
G01 X24.5083 Y-32.8944
G00 Z2.0000
G00 X25.0321 Y-32.8300
G01 F60.00
G01 Z-0.0000
G01 F120.00
G01 X25.0865 Y-32.6583
G01 X25.1578 Y-32.4124
G00 Z2.0000
G00 X24.8591 Y-33.3761
G01 F60.00
G01 Z-0.0000
G01 F120.00
G01 X24.8286 Y-33.4725
G01 X24.5507 Y-34.2802
G01 X24.5083 Y-34.3945
G01 X24.9025 Y-34.7114
G01 X24.7010 Y-35.2535
G01 X24.5083 Y-35.7354
G00 Z2.0000
G00 X25.1318 Y-35.4687
G01 F60.00
G01 Z-0.0000
G01 F120.00
G01 X25.1488 Y-35.4262
G01 X25.2293 Y-35.2098
G00 Z2.0000
G00 X25.6600 Y-35.4285
G01 F60.00
G01 Z-0.0000
G01 F120.00
G01 X25.6561 Y-35.4391
G00 Z2.0000
G00 X26.1549 Y-35.4747
G01 F60.00
G01 Z-0.0000
G01 F120.00
G01 X26.1737 Y-35.4241
G00 Z2.0000
G00 X26.5974 Y-35.6618
G01 F60.00
G01 Z-0.0000
G01 F120.00
G01 X26.5972 Y-35.6624
G00 Z2.0000
G00 X27.2337 Y-36.3656
G01 F60.00
G01 Z-0.0000
G01 F120.00
G01 X27.2177 Y-36.3320
G01 X27.2084 Y-36.3147
G01 X27.1833 Y-36.2725
G01 X27.1728 Y-36.2559
G01 X27.1615 Y-36.2399
G01 X27.1381 Y-36.2083
G01 X27.1260 Y-36.1928
G01 X27.1132 Y-36.1780
G01 X27.0883 Y-36.1505
G01 X27.1629 Y-36.2246
G01 X27.1952 Y-36.2541
G01 X27.2106 Y-36.2673
G01 X27.2152 Y-36.2917
G01 X27.2337 Y-36.3656
G00 Z2.0000
G00 X27.2927 Y-36.5185
G01 F60.00
G01 Z-0.0000
G01 F120.00
G01 X27.2825 Y-36.5032
G01 X27.2791 Y-36.4898
G01 X27.2927 Y-36.5185
G00 Z2.0000
G00 X27.6505 Y-36.9262
G01 F60.00
G01 Z-0.0000
G01 F120.00
G01 X27.6500 Y-36.9275
G00 Z2.0000
G00 X28.0997 Y-37.0955
G01 F60.00
G01 Z-0.0000
G01 F120.00
G01 X28.1047 Y-37.0829
G00 Z2.0000
G00 X28.6641 Y-36.9769
G01 F60.00
G01 Z-0.0000
G01 F120.00
G01 X28.6678 Y-36.9676
G00 Z2.0000
G00 X29.2555 Y-36.7760
G01 F60.00
G01 Z-0.0000
G01 F120.00
G01 X29.3396 Y-36.5498
G00 Z2.0000
G00 X29.7064 Y-36.9406
G01 F60.00
G01 Z-0.0000
G01 F120.00
G01 X29.7055 Y-36.9431
G00 Z2.0000
G00 X30.1589 Y-37.1009
G01 F60.00
G01 Z-0.0000
G01 F120.00
G01 X30.1650 Y-37.0845
G00 Z2.0000
G00 X30.7240 Y-36.9582
G01 F60.00
G01 Z-0.0000
G01 F120.00
G01 X30.7262 Y-36.9522
G00 Z2.0000
G00 X31.1273 Y-36.5185
G01 F60.00
G01 Z-0.0000
G01 F120.00
G01 X31.1369 Y-36.4983
G01 X31.1352 Y-36.5067
G01 X31.1273 Y-36.5185
G00 Z2.0000
G00 X31.1369 Y-34.8757
G01 F60.00
G01 Z-0.0000
G01 F120.00
G01 X31.1273 Y-34.8555
G01 X31.1352 Y-34.8673
G01 X31.1369 Y-34.8757
G00 Z2.0000
G00 X31.0490 Y-34.7193
G01 F60.00
G01 Z-0.0000
G01 F120.00
G01 X31.0051 Y-34.6603
G01 X30.9927 Y-34.6451
G01 X30.9762 Y-34.6267
G01 X30.9762 Y-34.4027
G01 X30.9788 Y-34.4546
G01 X30.9807 Y-34.4742
G01 X30.9878 Y-34.5227
G01 X30.9932 Y-34.5517
G01 X31.0050 Y-34.5993
G01 X31.0132 Y-34.6276
G01 X31.0331 Y-34.6831
G01 X31.0406 Y-34.7012
G01 X31.0490 Y-34.7193
G00 Z2.0000
G00 X30.9996 Y-34.6534
G01 F60.00
G01 Z-0.0000
G01 F120.00
G01 X31.0105 Y-34.6191
G00 Z2.0000
G00 X30.9762 Y-32.8637
G01 F60.00
G01 Z-0.0000
G01 F120.00
G01 X30.9762 Y-32.3880
G01 X31.0214 Y-32.3765
G01 X31.0402 Y-32.3708
G01 X31.1095 Y-32.3461
G01 X31.1278 Y-32.3391
G01 X31.1458 Y-32.3311
G01 X31.2123 Y-32.2995
G01 X31.2296 Y-32.2903
G01 X31.2489 Y-32.2789
G01 X31.2244 Y-32.3010
G01 X31.2102 Y-32.3146
G01 X31.1966 Y-32.3288
G01 X31.1703 Y-32.3579
G01 X31.1513 Y-32.3804
G01 X31.1220 Y-32.4198
G01 X31.1053 Y-32.4441
G01 X31.0750 Y-32.4946
G01 X31.0658 Y-32.5119
