(G-CODE GENERATED BY FLATCAM - www.flatcam.org 2018)

(Name: led_segments-B.Cu.gbr_ncc_cnc)
(Type: G-code from Geometry)
(Units: MM)

(Created on Thursday, 17 January 2019 at 01:37)

;TOOL DIAMETER: 0.8 mm

;Feedrate: 15.0 mm/min
;Feedrate_Z: 30.0 mm/min
;Feedrate rapids 1000.0 mm/min

;Z_Cut: -0.2 mm
;Z_Move: 1.0 mm
;Z Toolchange: 150.0 mm
;Z Start: None mm
;Z End: 50.0 mm
;Steps per circle: 64
;Postprocessor Geometry: marlin
;Spindle Speed: None RPM


G21
G90

G1 F15.00
G0 Z1.0000 F1000.00

M3
G0 X-2.7809 Y0.3126 F1000.00
G1 F30.00
G1 Z-0.2000 F15.00
G1 F15.00
G1 X-2.7173 Y0.3582 F15.00
G1 X-2.6771 Y0.3928 F15.00
G1 X-2.4484 Y0.3928 F15.00
G1 X-2.5239 Y0.3879 F15.00
G1 X-2.5494 Y0.3842 F15.00
G1 X-2.6194 Y0.3710 F15.00
G1 X-2.6416 Y0.3649 F15.00
G1 X-2.7073 Y0.3444 F15.00
G1 X-2.7309 Y0.3349 F15.00
G1 X-2.7809 Y0.3126 F15.00
G0 Z1.0000 F1000.00
G0 X-2.9288 Y0.2307 F1000.00
G1 F30.00
G1 Z-0.2000 F15.00
G1 F15.00
G1 X-2.9053 Y0.2410 F15.00
G1 X-2.8937 Y0.2469 F15.00
G1 X-2.9134 Y0.2338 F15.00
G1 X-2.9288 Y0.2307 F15.00
G0 Z1.0000 F1000.00
G0 X-4.9804 Y0.2470 F1000.00
G1 F30.00
G1 Z-0.2000 F15.00
G1 F15.00
G1 X-4.9682 Y0.2407 F15.00
G1 X-4.9452 Y0.2307 F15.00
G1 X-4.9606 Y0.2338 F15.00
G1 X-4.9804 Y0.2470 F15.00
G0 Z1.0000 F1000.00
G0 X-2.5149 Y2.3732 F1000.00
G1 F30.00
G1 Z-0.2000 F15.00
G1 F15.00
G1 X-2.5431 Y2.3920 F15.00
G1 X-2.5776 Y2.4130 F15.00
G1 X-2.5418 Y2.4349 F15.00
G1 X-2.5149 Y2.4528 F15.00
G1 X10.5485 Y2.4529 F15.00
G1 X10.5844 Y2.4539 F15.00
G1 X10.6357 Y2.4568 F15.00
G1 X10.6868 Y2.4616 F15.00
G1 X10.7192 Y2.4661 F15.00
G1 X10.7663 Y2.4740 F15.00
G1 X10.8209 Y2.4852 F15.00
G1 X10.8538 Y2.4935 F15.00
G1 X10.9003 Y2.5069 F15.00
G1 X10.9542 Y2.5244 F15.00
G1 X10.9862 Y2.5365 F15.00
G1 X11.0297 Y2.5545 F15.00
G1 X11.0843 Y2.5794 F15.00
G1 X11.1534 Y2.6166 F15.00
G1 X11.1888 Y2.6373 F15.00
G1 X11.2187 Y2.6565 F15.00
G1 X11.2686 Y2.6915 F15.00
G1 X11.2947 Y2.7109 F15.00
G1 X11.3323 Y2.7413 F15.00
G1 X11.3800 Y2.7838 F15.00
G1 X11.4109 Y2.8131 F15.00
G1 X24.4164 Y15.8187 F15.00
G1 X24.4436 Y15.7827 F15.00
G1 X24.4792 Y15.7408 F15.00
G1 X24.5347 Y15.6811 F15.00
G1 X24.5697 Y15.6473 F15.00
G1 X24.6285 Y15.5961 F15.00
G1 X24.6532 Y15.5759 F15.00
G1 X24.6753 Y15.5591 F15.00
G1 X24.7414 Y15.5131 F15.00
G1 X24.7912 Y15.4819 F15.00
G1 X11.6824 Y2.3732 F15.00
G1 X-2.5149 Y2.3732 F15.00
G0 Z1.0000 F1000.00
G0 X-2.5149 Y4.9132 F1000.00
G1 F30.00
G1 Z-0.2000 F15.00
G1 F15.00
G1 X-2.5444 Y4.9328 F15.00
G1 X-2.5776 Y4.9530 F15.00
G1 X-2.5444 Y4.9732 F15.00
G1 X-2.5149 Y4.9928 F15.00
G1 X6.2950 Y4.9928 F15.00
G1 X6.3057 Y4.9407 F15.00
G1 X6.3127 Y4.9132 F15.00
G1 X-2.5149 Y4.9132 F15.00
G0 Z1.0000 F1000.00
G0 X-2.5149 Y7.4532 F1000.00
G1 F30.00
G1 Z-0.2000 F15.00
G1 F15.00
G1 X-2.5444 Y7.4728 F15.00
G1 X-2.5776 Y7.4930 F15.00
G1 X-2.5392 Y7.5165 F15.00
G1 X-2.5149 Y7.5328 F15.00
G1 X4.2630 Y7.5328 F15.00
G1 X4.2737 Y7.4807 F15.00
G1 X4.2807 Y7.4532 F15.00
G1 X-2.5149 Y7.4532 F15.00
G0 Z1.0000 F1000.00
G0 X-2.7798 Y9.5926 F1000.00
G1 F30.00
G1 Z-0.2000 F15.00
G1 F15.00
G1 X-2.7309 Y9.5711 F15.00
G1 X-2.7073 Y9.5616 F15.00
G1 X-2.6416 Y9.5411 F15.00
G1 X-2.6185 Y9.5348 F15.00
G1 X-2.5494 Y9.5218 F15.00
G1 X-2.5260 Y9.5183 F15.00
G1 X-2.5026 Y9.5163 F15.00
G1 X-2.4485 Y9.5132 F15.00
G1 X-2.6771 Y9.5132 F15.00
G1 X-2.7173 Y9.5478 F15.00
G1 X-2.7798 Y9.5926 F15.00
G0 Z1.0000 F1000.00
G0 X-2.9288 Y9.6753 F1000.00
G1 F30.00
G1 Z-0.2000 F15.00
G1 F15.00
G1 X-2.9134 Y9.6722 F15.00
G1 X-2.8937 Y9.6591 F15.00
G1 X-2.9053 Y9.6650 F15.00
G1 X-2.9288 Y9.6753 F15.00
G0 Z1.0000 F1000.00
G0 X-2.3541 Y11.6279 F1000.00
G1 F30.00
G1 Z-0.2000 F15.00
G1 F15.00
G1 X-2.3504 Y11.6260 F15.00
G1 X-2.3249 Y11.6148 F15.00
G1 X-2.3388 Y11.6176 F15.00
G1 X-2.3541 Y11.6279 F15.00
G0 Z1.0000 F1000.00
G0 X-2.8728 Y11.8228 F1000.00
G1 F30.00
G1 Z-0.2000 F15.00
G1 F15.00
G1 X-2.6315 Y11.8228 F15.00
G1 X-2.5688 Y11.7666 F15.00
G1 X-2.5547 Y11.7545 F15.00
G1 X-2.5380 Y11.7418 F15.00
G1 X-2.5904 Y11.7649 F15.00
G1 X-2.6140 Y11.7744 F15.00
G1 X-2.6797 Y11.7949 F15.00
G1 X-2.7028 Y11.8012 F15.00
G1 X-2.7719 Y11.8142 F15.00
G1 X-2.7953 Y11.8177 F15.00
G1 X-2.8186 Y11.8197 F15.00
G1 X-2.8728 Y11.8228 F15.00
G0 Z1.0000 F1000.00
G0 X-2.5380 Y13.4042 F1000.00
G1 F30.00
G1 Z-0.2000 F15.00
G1 F15.00
G1 X-2.5688 Y13.3794 F15.00
G1 X-2.6315 Y13.3232 F15.00
G1 X-2.8728 Y13.3232 F15.00
G1 X-2.8186 Y13.3263 F15.00
G1 X-2.7953 Y13.3283 F15.00
G1 X-2.7719 Y13.3318 F15.00
G1 X-2.7028 Y13.3448 F15.00
G1 X-2.6797 Y13.3511 F15.00
G1 X-2.6140 Y13.3716 F15.00
G1 X-2.5904 Y13.3811 F15.00
G1 X-2.5380 Y13.4042 F15.00
G0 Z1.0000 F1000.00
G0 X-2.3249 Y13.5312 F1000.00
G1 F30.00
G1 Z-0.2000 F15.00
G1 F15.00
G1 X-2.3504 Y13.5200 F15.00
G1 X-2.3541 Y13.5181 F15.00
G1 X-2.3388 Y13.5284 F15.00
G1 X-2.3249 Y13.5312 F15.00
G0 Z1.0000 F1000.00
G0 X-0.4399 Y13.5181 F1000.00
G1 F30.00
G1 Z-0.2000 F15.00
G1 F15.00
G1 X-0.4436 Y13.5200 F15.00
G1 X-0.4691 Y13.5312 F15.00
G1 X-0.4552 Y13.5284 F15.00
G1 X-0.4399 Y13.5181 F15.00
G0 Z1.0000 F1000.00
G0 X-0.2042 Y11.7853 F1000.00
G1 F30.00
G1 Z-0.2000 F15.00
G1 F15.00
G1 X-0.1605 Y11.8247 F15.00
G1 X-0.1462 Y11.8392 F15.00
G1 X-0.0906 Y11.9012 F15.00
G1 X-0.0731 Y11.9222 F15.00
G1 X-0.0204 Y11.9957 F15.00
G1 X-0.0036 Y12.0214 F15.00
G1 X0.0387 Y12.0975 F15.00
G1 X0.0383 Y12.0977 F15.00
G1 X0.0501 Y12.1196 F15.00
G1 X0.0861 Y12.2052 F15.00
G1 X0.0947 Y12.2281 F15.00
G1 X0.1211 Y12.3176 F15.00
G1 X0.1274 Y12.3427 F15.00
G1 X0.1456 Y12.4486 F15.00
G1 X0.1483 Y12.4778 F15.00
G1 X0.1530 Y12.5730 F15.00
G1 X0.1483 Y12.6682 F15.00
G1 X0.1455 Y12.6979 F15.00
G1 X0.1273 Y12.8040 F15.00
G1 X0.1211 Y12.8284 F15.00
G1 X0.0947 Y12.9179 F15.00
G1 X0.0861 Y12.9408 F15.00
G1 X0.0498 Y13.0270 F15.00
G1 X0.0387 Y13.0485 F15.00
G1 X-0.0036 Y13.1246 F15.00
G1 X-0.0204 Y13.1503 F15.00
G1 X-0.0731 Y13.2238 F15.00
G1 X-0.0906 Y13.2448 F15.00
G1 X-0.1468 Y13.3075 F15.00
G1 X-0.1607 Y13.3215 F15.00
G1 X-0.2042 Y13.3607 F15.00
G1 X-0.1197 Y13.3042 F15.00
G1 X0.1044 Y12.9687 F15.00
G1 X0.1832 Y12.5730 F15.00
G1 X0.1044 Y12.1773 F15.00
G1 X-0.1197 Y11.8418 F15.00
G1 X-0.2042 Y11.7853 F15.00
G0 Z1.0000 F1000.00
G0 X-0.4691 Y11.6148 F1000.00
G1 F30.00
G1 Z-0.2000 F15.00
G1 F15.00
G1 X-0.4436 Y11.6260 F15.00
G1 X-0.4399 Y11.6279 F15.00
G1 X-0.4552 Y11.6176 F15.00
G1 X-0.4691 Y11.6148 F15.00
G0 Z1.0000 F1000.00
G0 X3.6926 Y9.5132 F1000.00
G1 F30.00
G1 Z-0.2000 F15.00
G1 F15.00
G1 X3.7432 Y9.5159 F15.00
G1 X3.7757 Y9.5191 F15.00
G1 X3.8522 Y9.5324 F15.00
G1 X3.8758 Y9.5385 F15.00
G1 X3.9362 Y9.5563 F15.00
G1 X3.9567 Y9.5639 F15.00
G1 X4.0027 Y9.5829 F15.00
G1 X4.0210 Y9.5910 F15.00
G1 X4.0431 Y9.6023 F15.00
G1 X4.0873 Y9.6268 F15.00
G1 X4.1108 Y9.6413 F15.00
G1 X4.1711 Y9.6844 F15.00
G1 X4.1920 Y9.7019 F15.00
G1 X4.2302 Y9.7362 F15.00
G1 X4.0073 Y9.5132 F15.00
G1 X3.6926 Y9.5132 F15.00
G0 Z1.0000 F1000.00
G0 X6.0118 Y11.5177 F1000.00
G1 F30.00
G1 Z-0.2000 F15.00
G1 F15.00
G1 X6.0461 Y11.5560 F15.00
G1 X6.0636 Y11.5769 F15.00
G1 X6.1088 Y11.6405 F15.00
G1 X6.1235 Y11.6649 F15.00
G1 X6.1457 Y11.7049 F15.00
G1 X6.1578 Y11.7288 F15.00
G1 X6.1651 Y11.7453 F15.00
G1 X6.1904 Y11.8080 F15.00
G1 X6.2095 Y11.8722 F15.00
G1 X6.2156 Y11.8962 F15.00
G1 X6.2295 Y11.9765 F15.00
G1 X6.2314 Y11.9957 F15.00
G1 X6.2348 Y12.0554 F15.00
G1 X6.2348 Y11.7407 F15.00
G1 X6.0118 Y11.5177 F15.00
G0 Z1.0000 F1000.00
G0 X9.8218 Y10.7557 F1000.00
G1 F30.00
G1 Z-0.2000 F15.00
G1 F15.00
G1 X9.8561 Y10.7940 F15.00
G1 X9.8736 Y10.8149 F15.00
G1 X9.9167 Y10.8752 F15.00
G1 X9.9335 Y10.9029 F15.00
G1 X9.9557 Y10.9429 F15.00
G1 X9.9667 Y10.9644 F15.00
G1 X9.9751 Y10.9833 F15.00
G1 X9.9941 Y11.0293 F15.00
G1 X10.0015 Y11.0492 F15.00
G1 X10.0195 Y11.1102 F15.00
G1 X10.0256 Y11.1342 F15.00
G1 X10.0388 Y11.2099 F15.00
G1 X10.0421 Y11.2428 F15.00
G1 X10.0448 Y11.2934 F15.00
G1 X10.0448 Y10.9787 F15.00
G1 X9.8218 Y10.7557 F15.00
G0 Z1.0000 F1000.00
G0 X5.7246 Y6.9732 F1000.00
G1 F30.00
G1 Z-0.2000 F15.00
G1 F15.00
G1 X5.7835 Y6.9765 F15.00
G1 X5.8030 Y6.9785 F15.00
G1 X5.8640 Y6.9885 F15.00
G1 X5.8846 Y6.9925 F15.00
G1 X5.9078 Y6.9985 F15.00
G1 X5.9720 Y7.0176 F15.00
G1 X5.9932 Y7.0257 F15.00
G1 X6.0525 Y7.0508 F15.00
G1 X6.0751 Y7.0623 F15.00
G1 X6.1144 Y7.0841 F15.00
G1 X6.1374 Y7.0978 F15.00
G1 X6.2031 Y7.1444 F15.00
G1 X6.2240 Y7.1619 F15.00
G1 X6.2617 Y7.1956 F15.00
G1 X6.0393 Y6.9732 F15.00
G1 X5.7246 Y6.9732 F15.00
G0 Z1.0000 F1000.00
G0 X9.9156 Y4.4332 F1000.00
G1 F30.00
G1 Z-0.2000 F15.00
G1 F15.00
G1 X9.9753 Y4.4366 F15.00
G1 X9.9945 Y4.4385 F15.00
G1 X10.0550 Y4.4485 F15.00
G1 X10.0933 Y4.4569 F15.00
G1 X10.1419 Y4.4709 F15.00
G1 X10.1630 Y4.4776 F15.00
G1 X10.1842 Y4.4857 F15.00
G1 X10.2446 Y4.5113 F15.00
G1 X10.3061 Y4.5445 F15.00
G1 X10.3305 Y4.5592 F15.00
G1 X10.3941 Y4.6044 F15.00
G1 X10.4097 Y4.6171 F15.00
G1 X10.4527 Y4.6556 F15.00
G1 X10.2303 Y4.4332 F15.00
G1 X9.9156 Y4.4332 F15.00
G0 Z1.0000 F1000.00
G0 X10.0448 Y17.9551 F1000.00
G1 F30.00
G1 Z-0.2000 F15.00
G1 F15.00
G1 X10.0417 Y18.0094 F15.00
G1 X10.0395 Y18.0337 F15.00
G1 X10.0362 Y18.0561 F15.00
G1 X10.0236 Y18.1235 F15.00
G1 X10.0169 Y18.1483 F15.00
G1 X9.9972 Y18.2118 F15.00
G1 X9.9869 Y18.2376 F15.00
G1 X9.9638 Y18.2899 F15.00
G1 X9.9886 Y18.2592 F15.00
G1 X10.0448 Y18.1967 F15.00
G1 X10.0448 Y17.9551 F15.00
G0 Z1.0000 F1000.00
G0 X9.8495 Y18.4745 F1000.00
G1 F30.00
G1 Z-0.2000 F15.00
G1 F15.00
G1 X9.8396 Y18.4892 F15.00
G1 X9.8368 Y18.5031 F15.00
G1 X9.8398 Y18.4959 F15.00
G1 X9.8495 Y18.4745 F15.00
G0 Z1.0000 F1000.00
G0 X11.6262 Y18.2899 F1000.00
G1 F30.00
G1 Z-0.2000 F15.00
G1 F15.00
G1 X11.6031 Y18.2376 F15.00
G1 X11.5928 Y18.2118 F15.00
G1 X11.5731 Y18.1483 F15.00
G1 X11.5664 Y18.1235 F15.00
G1 X11.5538 Y18.0561 F15.00
G1 X11.5505 Y18.0337 F15.00
G1 X11.5483 Y18.0094 F15.00
G1 X11.5452 Y17.9551 F15.00
G1 X11.5452 Y18.1967 F15.00
G1 X11.6014 Y18.2592 F15.00
G1 X11.6262 Y18.2899 F15.00
G0 Z1.0000 F1000.00
G0 X11.7532 Y18.5031 F1000.00
G1 F30.00
G1 Z-0.2000 F15.00
G1 F15.00
G1 X11.7504 Y18.4892 F15.00
G1 X11.7405 Y18.4745 F15.00
G1 X11.7502 Y18.4959 F15.00
G1 X11.7532 Y18.5031 F15.00
G0 Z1.0000 F1000.00
G0 X12.0700 Y19.6451 F1000.00
G1 F30.00
G1 Z-0.2000 F15.00
G1 F15.00
G1 X12.0198 Y19.5884 F15.00
G1 X12.0059 Y19.5700 F15.00
G1 X11.9733 Y19.5238 F15.00
G1 X11.9565 Y19.4961 F15.00
G1 X11.9244 Y19.4368 F15.00
G1 X11.8977 Y19.3742 F15.00
G1 X11.8878 Y19.3476 F15.00
G1 X11.8829 Y19.3319 F15.00
G1 X11.8689 Y19.2833 F15.00
G1 X11.8605 Y19.2450 F15.00
G1 X11.8530 Y19.2008 F15.00
G1 X11.8490 Y19.1700 F15.00
G1 X11.8450 Y19.1016 F15.00
G1 X11.8450 Y19.4201 F15.00
G1 X12.0700 Y19.6451 F15.00
G0 Z1.0000 F1000.00
G0 X12.9476 Y20.2048 F1000.00
G1 F30.00
G1 Z-0.2000 F15.00
G1 F15.00
G1 X12.8800 Y20.2010 F15.00
G1 X12.8609 Y20.1988 F15.00
G1 X12.8050 Y20.1895 F15.00
G1 X12.7852 Y20.1856 F15.00
G1 X12.7612 Y20.1795 F15.00
G1 X12.7002 Y20.1615 F15.00
G1 X12.6758 Y20.1523 F15.00
G1 X12.6154 Y20.1267 F15.00
G1 X12.5939 Y20.1157 F15.00
G1 X12.5395 Y20.0852 F15.00
G1 X12.5166 Y20.0701 F15.00
G1 X12.4659 Y20.0336 F15.00
G1 X12.4450 Y20.0161 F15.00
G1 X12.4067 Y19.9818 F15.00
G1 X12.6297 Y20.2048 F15.00
G1 X12.9476 Y20.2048 F15.00
G0 Z1.0000 F1000.00
G0 X13.4478 Y20.1254 F1000.00
G1 F30.00
G1 Z-0.2000 F15.00
G1 F15.00
G1 X13.3989 Y20.1469 F15.00
G1 X13.3753 Y20.1564 F15.00
G1 X13.3547 Y20.1632 F15.00
G1 X13.2934 Y20.1815 F15.00
G1 X13.2650 Y20.1877 F15.00
G1 X13.2174 Y20.1962 F15.00
G1 X13.1869 Y20.2004 F15.00
G1 X13.1128 Y20.2048 F15.00
G1 X13.3451 Y20.2048 F15.00
G1 X13.3853 Y20.1702 F15.00
G1 X13.4478 Y20.1254 F15.00
G0 Z1.0000 F1000.00
G0 X13.5968 Y20.0427 F1000.00
G1 F30.00
G1 Z-0.2000 F15.00
G1 F15.00
G1 X13.5814 Y20.0458 F15.00
G1 X13.5618 Y20.0589 F15.00
G1 X13.5727 Y20.0533 F15.00
G1 X13.5968 Y20.0427 F15.00
G0 Z1.0000 F1000.00
G0 X15.6482 Y20.0589 F1000.00
G1 F30.00
G1 Z-0.2000 F15.00
G1 F15.00
G1 X15.6286 Y20.0458 F15.00
G1 X15.6132 Y20.0427 F15.00
G1 X15.6373 Y20.0533 F15.00
G1 X15.6482 Y20.0589 F15.00
G0 Z1.0000 F1000.00
G0 X18.9384 Y20.2001 F1000.00
G1 F30.00
G1 Z-0.2000 F15.00
G1 F15.00
G1 X18.8501 Y20.2591 F15.00
G1 X18.6368 Y20.5784 F15.00
G1 X18.5619 Y20.9550 F15.00
G1 X18.6368 Y21.3316 F15.00
G1 X18.8565 Y21.6604 F15.00
G1 X18.8898 Y21.7154 F15.00
G1 X18.9035 Y21.7406 F15.00
G1 X18.9349 Y21.8099 F15.00
G1 X18.9431 Y21.8322 F15.00
G1 X18.9566 Y21.8728 F15.00
G1 X18.9630 Y21.8939 F15.00
G1 X18.9679 Y21.9141 F15.00
G1 X18.9770 Y21.9560 F15.00
G1 X18.9814 Y21.9792 F15.00
G1 X18.9839 Y21.9982 F15.00
G1 X18.9891 Y22.0474 F15.00
G1 X18.9904 Y22.0676 F15.00
G1 X18.9908 Y22.1264 F15.00
G1 X18.9904 Y22.1424 F15.00
G1 X18.9885 Y22.1692 F15.00
G1 X18.9814 Y22.2308 F15.00
G1 X18.9679 Y22.2959 F15.00
G1 X18.9630 Y22.3161 F15.00
G1 X18.9566 Y22.3372 F15.00
G1 X18.9431 Y22.3778 F15.00
G1 X18.9328 Y22.4054 F15.00
G1 X18.9035 Y22.4694 F15.00
G1 X18.8931 Y22.4890 F15.00
G1 X18.8669 Y22.5331 F15.00
G1 X18.6368 Y22.8784 F15.00
G1 X18.5619 Y23.2550 F15.00
G1 X18.6368 Y23.6316 F15.00
G1 X18.8501 Y23.9509 F15.00
G1 X18.9384 Y24.0099 F15.00
G1 X18.8859 Y23.9621 F15.00
G1 X18.8256 Y23.8956 F15.00
G1 X18.8082 Y23.8747 F15.00
G1 X18.7587 Y23.8057 F15.00
G1 X18.7437 Y23.7828 F15.00
G1 X18.7353 Y23.7685 F15.00
G1 X18.6924 Y23.6896 F15.00
G1 X18.6571 Y23.6062 F15.00
G1 X18.6472 Y23.5797 F15.00
G1 X18.6221 Y23.4938 F15.00
G1 X18.6147 Y23.4613 F15.00
G1 X18.6024 Y23.3892 F15.00
G1 X18.5984 Y23.3584 F15.00
G1 X18.5974 Y23.3446 F15.00
G1 X18.5936 Y23.2774 F15.00
G1 X18.5930 Y23.2550 F15.00
G1 X18.5936 Y23.2326 F15.00
G1 X18.5984 Y23.1516 F15.00
G1 X18.6024 Y23.1208 F15.00
G1 X18.6137 Y23.0545 F15.00
G1 X18.6221 Y23.0162 F15.00
G1 X18.6472 Y22.9303 F15.00
G1 X18.6571 Y22.9038 F15.00
G1 X18.6924 Y22.8204 F15.00
G1 X18.7023 Y22.8012 F15.00
G1 X18.7437 Y22.7272 F15.00
G1 X18.7587 Y22.7043 F15.00
G1 X18.7977 Y22.6494 F15.00
G1 X18.8116 Y22.6310 F15.00
G1 X18.8256 Y22.6144 F15.00
G1 X18.8859 Y22.5479 F15.00
G1 X18.9524 Y22.4876 F15.00
G1 X18.9733 Y22.4702 F15.00
G1 X19.0423 Y22.4207 F15.00
G1 X19.0652 Y22.4057 F15.00
G1 X19.0795 Y22.3973 F15.00
G1 X19.1584 Y22.3544 F15.00
G1 X19.1796 Y22.3449 F15.00
G1 X19.2463 Y22.3173 F15.00
G1 X19.2841 Y22.3043 F15.00
G1 X19.3542 Y22.2841 F15.00
G1 X19.3867 Y22.2767 F15.00
G1 X19.4588 Y22.2644 F15.00
G1 X19.4896 Y22.2604 F15.00
G1 X19.5706 Y22.2556 F15.00
G1 X19.5930 Y22.2550 F15.00
G1 X20.7930 Y22.2550 F15.00
G1 X20.8154 Y22.2556 F15.00
G1 X20.8826 Y22.2594 F15.00
G1 X20.9142 Y22.2624 F15.00
G1 X21.0133 Y22.2796 F15.00
G1 X21.0372 Y22.2857 F15.00
G1 X21.1177 Y22.3092 F15.00
G1 X21.1442 Y22.3191 F15.00
G1 X21.2064 Y22.3449 F15.00
G1 X21.2283 Y22.3547 F15.00
G1 X22.7470 Y22.3547 F15.00
G1 X22.7694 Y22.3554 F15.00
G1 X22.8254 Y22.3585 F15.00
G1 X22.8571 Y22.3616 F15.00
G1 X22.9451 Y22.3768 F15.00
G1 X22.9691 Y22.3829 F15.00
G1 X23.0387 Y22.4033 F15.00
G1 X23.0653 Y22.4133 F15.00
G1 X23.1330 Y22.4419 F15.00
G1 X23.1007 Y22.4041 F15.00
G1 X23.0826 Y22.3812 F15.00
G1 X23.0403 Y22.3186 F15.00
G1 X23.0265 Y22.2945 F15.00
G1 X23.0021 Y22.2479 F15.00
G1 X22.9930 Y22.2285 F15.00
G1 X22.9714 Y22.1741 F15.00
G1 X22.9575 Y22.1322 F15.00
G1 X22.9460 Y22.0895 F15.00
G1 X22.9386 Y22.0568 F15.00
G1 X22.9301 Y22.0027 F15.00
G1 X22.9271 Y21.9778 F15.00
G1 X22.9235 Y21.8974 F15.00
G1 X22.9244 Y21.8704 F15.00
G1 X22.9298 Y21.8021 F15.00
G1 X22.9421 Y21.7314 F15.00
G1 X22.9509 Y21.6961 F15.00
G1 X22.9634 Y21.6537 F15.00
G1 X22.9710 Y21.6308 F15.00
G1 X22.9783 Y21.6122 F15.00
G1 X22.9954 Y21.5715 F15.00
G1 X23.0063 Y21.5479 F15.00
G1 X23.0364 Y21.4932 F15.00
G1 X23.0474 Y21.4746 F15.00
G1 X23.0913 Y21.4123 F15.00
G1 X23.1132 Y21.3855 F15.00
G1 X23.1390 Y21.3566 F15.00
G1 X23.0086 Y21.4863 F15.00
G1 X22.9931 Y21.5009 F15.00
G1 X22.9472 Y21.5411 F15.00
G1 X22.8968 Y21.5777 F15.00
G1 X22.8739 Y21.5928 F15.00
G1 X22.8588 Y21.6016 F15.00
G1 X22.8052 Y21.6306 F15.00
G1 X22.7840 Y21.6400 F15.00
G1 X22.7432 Y21.6569 F15.00
G1 X22.7211 Y21.6650 F15.00
G1 X22.6622 Y21.6823 F15.00
G1 X22.6239 Y21.6907 F15.00
G1 X22.5852 Y21.6973 F15.00
G1 X22.5544 Y21.7013 F15.00
G1 X22.5014 Y21.7045 F15.00
G1 X22.4790 Y21.7052 F15.00
G1 X21.4529 Y21.7052 F15.00
G1 X21.4127 Y21.7398 F15.00
G1 X21.3437 Y21.7893 F15.00
G1 X21.3208 Y21.8043 F15.00
G1 X21.2468 Y21.8457 F15.00
