(G-CODE GENERATED BY FLATCAM - www.flatcam.org 2018)

(Name: led_segments-B.Cu.gbr_iso_cnc_1)
(Type: G-code from Geometry)
(Units: MM)

(Created on Wednesday, 16 January 2019 at 16:14)

;TOOL DIAMETER: 0.8 mm

;Feedrate: 15.0 mm/min
;Feedrate_Z: 30.0 mm/min
;Feedrate rapids 60.0 mm/min

;Z_Cut: -0.2 mm
;Z_Move: 1.0 mm
;Z Toolchange: 1.0 mm
;Z Start: None mm
;Z End: 50.0 mm
;Steps per circle: 64
;Postprocessor Geometry: marlin
;Spindle Speed: None RPM


G21
G90

G1 F15.00
G0 Z1.0000 F60.00

M3
G0 X-5.4469 Y0.7297 F60.00
G1 F30.00
G1 Z-0.2000 F15.00
G1 F15.00
G1 X-5.4747 Y0.7963 F15.00
G1 X-5.4877 Y0.8341 F15.00
G1 X-5.5079 Y0.9042 F15.00
G1 X-5.5163 Y0.9425 F15.00
G1 X-5.5276 Y1.0088 F15.00
G1 X-5.5316 Y1.0396 F15.00
G1 X-5.5364 Y1.1206 F15.00
G1 X-5.5370 Y1.1430 F15.00
G1 X-5.5364 Y1.1654 F15.00
G1 X-5.5326 Y1.2326 F15.00
G1 X-5.5316 Y1.2464 F15.00
G1 X-5.5276 Y1.2772 F15.00
G1 X-5.5163 Y1.3435 F15.00
G1 X-5.5079 Y1.3818 F15.00
G1 X-5.4877 Y1.4519 F15.00
G1 X-5.4747 Y1.4897 F15.00
G1 X-5.4471 Y1.5564 F15.00
G1 X-5.4277 Y1.5968 F15.00
G1 X-5.3880 Y1.6680 F15.00
G1 X-5.3713 Y1.6937 F15.00
G1 X-5.3218 Y1.7627 F15.00
G1 X-5.3044 Y1.7836 F15.00
G1 X-5.2441 Y1.8501 F15.00
G1 X-5.1776 Y1.9104 F15.00
G1 X-5.1567 Y1.9278 F15.00
G1 X-5.0877 Y1.9773 F15.00
G1 X-5.0620 Y1.9940 F15.00
G1 X-4.9908 Y2.0337 F15.00
G1 X-4.9504 Y2.0531 F15.00
G1 X-4.8837 Y2.0807 F15.00
G1 X-4.8459 Y2.0937 F15.00
G1 X-4.7758 Y2.1139 F15.00
G1 X-4.7375 Y2.1223 F15.00
G1 X-4.6712 Y2.1336 F15.00
G1 X-4.6404 Y2.1376 F15.00
G1 X-4.6266 Y2.1386 F15.00
G1 X-4.5370 Y2.1430 F15.00
G1 X-3.3370 Y2.1430 F15.00
G1 X-3.3146 Y2.1424 F15.00
G1 X-3.2336 Y2.1376 F15.00
G1 X-3.2028 Y2.1336 F15.00
G1 X-3.1365 Y2.1223 F15.00
G1 X-3.0982 Y2.1139 F15.00
G1 X-3.0281 Y2.0937 F15.00
G1 X-2.9903 Y2.0807 F15.00
G1 X-2.9236 Y2.0531 F15.00
G1 X-2.8832 Y2.0337 F15.00
G1 X-2.8120 Y1.9940 F15.00
G1 X-2.7863 Y1.9773 F15.00
G1 X-2.7173 Y1.9278 F15.00
G1 X-2.6771 Y1.8932 F15.00
G1 X11.8813 Y1.8932 F15.00
G1 X27.0628 Y17.0747 F15.00
G1 X27.0628 Y18.1967 F15.00
G1 X27.0066 Y18.2592 F15.00
G1 X26.9891 Y18.2802 F15.00
G1 X26.9786 Y18.2943 F15.00
G1 X26.9364 Y18.3537 F15.00
G1 X26.9196 Y18.3794 F15.00
G1 X26.8773 Y18.4555 F15.00
G1 X26.8578 Y18.4959 F15.00
G1 X26.8281 Y18.5678 F15.00
G1 X26.8151 Y18.6056 F15.00
G1 X26.7949 Y18.6756 F15.00
G1 X26.7849 Y18.7194 F15.00
G1 X26.7727 Y18.7912 F15.00
G1 X26.7687 Y18.8220 F15.00
G1 X26.7636 Y18.9086 F15.00
G1 X26.7630 Y18.9310 F15.00
G1 X26.7630 Y19.9310 F15.00
G1 X26.7636 Y19.9534 F15.00
G1 X26.7687 Y20.0400 F15.00
G1 X26.7727 Y20.0708 F15.00
G1 X26.7849 Y20.1426 F15.00
G1 X26.7934 Y20.1809 F15.00
G1 X26.8151 Y20.2564 F15.00
G1 X26.8281 Y20.2942 F15.00
G1 X26.8578 Y20.3661 F15.00
G1 X26.8773 Y20.4065 F15.00
G1 X26.9196 Y20.4826 F15.00
G1 X26.9364 Y20.5083 F15.00
G1 X26.9786 Y20.5677 F15.00
G1 X26.9891 Y20.5818 F15.00
G1 X27.0066 Y20.6028 F15.00
G1 X27.0551 Y20.6572 F15.00
G1 X27.0705 Y20.6735 F15.00
G1 X27.0868 Y20.6889 F15.00
G1 X27.1412 Y20.7374 F15.00
G1 X27.1622 Y20.7549 F15.00
G1 X27.2357 Y20.8076 F15.00
G1 X27.2614 Y20.8244 F15.00
G1 X27.3375 Y20.8667 F15.00
G1 X27.3779 Y20.8862 F15.00
G1 X27.4498 Y20.9159 F15.00
G1 X27.4876 Y20.9289 F15.00
G1 X27.5576 Y20.9491 F15.00
G1 X27.6014 Y20.9591 F15.00
G1 X27.6732 Y20.9713 F15.00
G1 X27.7040 Y20.9753 F15.00
G1 X27.7906 Y20.9804 F15.00
G1 X27.8130 Y20.9810 F15.00
G1 X27.8354 Y20.9804 F15.00
G1 X27.9220 Y20.9753 F15.00
G1 X27.9528 Y20.9713 F15.00
G1 X28.0246 Y20.9591 F15.00
G1 X28.0629 Y20.9506 F15.00
G1 X28.1384 Y20.9289 F15.00
G1 X28.1762 Y20.9159 F15.00
G1 X28.2192 Y20.8981 F15.00
G1 X28.8065 Y21.4855 F15.00
G1 X28.8521 Y21.5270 F15.00
G1 X28.8731 Y21.5445 F15.00
G1 X28.9192 Y21.5777 F15.00
G1 X28.9449 Y21.5945 F15.00
G1 X28.9572 Y21.6016 F15.00
G1 X28.9916 Y21.6206 F15.00
G1 X29.0320 Y21.6400 F15.00
G1 X29.0728 Y21.6569 F15.00
G1 X29.1106 Y21.6699 F15.00
G1 X29.1538 Y21.6823 F15.00
G1 X29.1921 Y21.6907 F15.00
G1 X29.2308 Y21.6973 F15.00
G1 X29.2616 Y21.7013 F15.00
G1 X29.3146 Y21.7045 F15.00
G1 X29.3370 Y21.7052 F15.00
G1 X30.3631 Y21.7052 F15.00
G1 X30.4033 Y21.7398 F15.00
G1 X30.4723 Y21.7893 F15.00
G1 X30.4980 Y21.8060 F15.00
G1 X30.5692 Y21.8457 F15.00
G1 X30.6096 Y21.8651 F15.00
G1 X30.6763 Y21.8927 F15.00
G1 X30.7141 Y21.9057 F15.00
G1 X30.7842 Y21.9259 F15.00
G1 X30.8225 Y21.9343 F15.00
G1 X30.8888 Y21.9456 F15.00
G1 X30.9196 Y21.9496 F15.00
G1 X31.0006 Y21.9544 F15.00
G1 X31.0230 Y21.9550 F15.00
G1 X32.2230 Y21.9550 F15.00
G1 X32.2454 Y21.9544 F15.00
G1 X32.3264 Y21.9496 F15.00
G1 X32.3572 Y21.9456 F15.00
G1 X32.4235 Y21.9343 F15.00
G1 X32.4618 Y21.9259 F15.00
G1 X32.5319 Y21.9057 F15.00
G1 X32.5697 Y21.8927 F15.00
G1 X32.6364 Y21.8651 F15.00
G1 X32.6768 Y21.8457 F15.00
G1 X32.7480 Y21.8060 F15.00
G1 X32.7737 Y21.7893 F15.00
G1 X32.8427 Y21.7398 F15.00
G1 X32.8636 Y21.7224 F15.00
G1 X32.9301 Y21.6621 F15.00
G1 X32.9904 Y21.5956 F15.00
G1 X33.0078 Y21.5747 F15.00
G1 X33.0573 Y21.5057 F15.00
G1 X33.0740 Y21.4800 F15.00
G1 X33.1137 Y21.4088 F15.00
G1 X33.1331 Y21.3684 F15.00
G1 X33.1589 Y21.3062 F15.00
G1 X33.1737 Y21.2639 F15.00
G1 X33.1939 Y21.1938 F15.00
G1 X33.2023 Y21.1555 F15.00
G1 X33.2136 Y21.0892 F15.00
G1 X33.2176 Y21.0584 F15.00
G1 X33.2186 Y21.0446 F15.00
G1 X33.2230 Y20.9550 F15.00
G1 X33.2186 Y20.8654 F15.00
G1 X33.2176 Y20.8516 F15.00
G1 X33.2136 Y20.8208 F15.00
G1 X33.2023 Y20.7545 F15.00
G1 X33.1939 Y20.7162 F15.00
G1 X33.1737 Y20.6461 F15.00
G1 X33.1607 Y20.6083 F15.00
G1 X33.1331 Y20.5416 F15.00
G1 X33.1137 Y20.5012 F15.00
G1 X33.0740 Y20.4300 F15.00
G1 X33.0573 Y20.4043 F15.00
G1 X33.0078 Y20.3353 F15.00
G1 X32.9904 Y20.3144 F15.00
G1 X32.9455 Y20.2642 F15.00
G1 X32.9301 Y20.2479 F15.00
G1 X32.9138 Y20.2325 F15.00
G1 X32.8636 Y20.1876 F15.00
G1 X32.8427 Y20.1702 F15.00
G1 X32.8286 Y20.1597 F15.00
G1 X32.7737 Y20.1207 F15.00
G1 X32.7480 Y20.1040 F15.00
G1 X32.6768 Y20.0643 F15.00
G1 X32.6364 Y20.0449 F15.00
G1 X32.5697 Y20.0173 F15.00
G1 X32.5319 Y20.0043 F15.00
G1 X32.4618 Y19.9841 F15.00
G1 X32.4235 Y19.9757 F15.00
G1 X32.3572 Y19.9644 F15.00
G1 X32.3264 Y19.9604 F15.00
G1 X32.2454 Y19.9556 F15.00
G1 X32.2230 Y19.9550 F15.00
G1 X31.0230 Y19.9550 F15.00
G1 X31.0006 Y19.9556 F15.00
G1 X30.9196 Y19.9604 F15.00
G1 X30.8888 Y19.9644 F15.00
G1 X30.8225 Y19.9757 F15.00
G1 X30.7788 Y19.9857 F15.00
G1 X30.7141 Y20.0043 F15.00
G1 X30.6763 Y20.0173 F15.00
G1 X30.6096 Y20.0449 F15.00
G1 X30.5692 Y20.0643 F15.00
G1 X30.4980 Y20.1040 F15.00
G1 X30.4723 Y20.1207 F15.00
G1 X30.4033 Y20.1702 F15.00
G1 X30.3631 Y20.2048 F15.00
G1 X29.6477 Y20.2048 F15.00
G1 X28.8630 Y19.4201 F15.00
G1 X28.8630 Y18.9310 F15.00
G1 X28.8624 Y18.9086 F15.00
G1 X28.8573 Y18.8220 F15.00
G1 X28.8533 Y18.7912 F15.00
G1 X28.8411 Y18.7194 F15.00
G1 X28.8326 Y18.6811 F15.00
G1 X28.8109 Y18.6056 F15.00
G1 X28.7961 Y18.5632 F15.00
G1 X28.7682 Y18.4959 F15.00
G1 X28.7487 Y18.4555 F15.00
G1 X28.7135 Y18.3917 F15.00
G1 X28.7064 Y18.3794 F15.00
G1 X28.6896 Y18.3537 F15.00
G1 X28.6369 Y18.2802 F15.00
G1 X28.6194 Y18.2592 F15.00
G1 X28.5632 Y18.1967 F15.00
G1 X28.5632 Y16.7640 F15.00
G1 X28.5625 Y16.7416 F15.00
G1 X28.5593 Y16.6886 F15.00
G1 X28.5553 Y16.6578 F15.00
G1 X28.5487 Y16.6191 F15.00
G1 X28.5403 Y16.5808 F15.00
G1 X28.5279 Y16.5376 F15.00
G1 X28.5149 Y16.4998 F15.00
G1 X28.4980 Y16.4590 F15.00
G1 X28.4786 Y16.4186 F15.00
G1 X28.4525 Y16.3719 F15.00
G1 X28.4357 Y16.3462 F15.00
G1 X28.4130 Y16.3142 F15.00
G1 X28.4025 Y16.3001 F15.00
G1 X28.3850 Y16.2791 F15.00
G1 X28.3435 Y16.2335 F15.00
G1 X12.7225 Y0.6125 F15.00
G1 X12.6769 Y0.5710 F15.00
G1 X12.6559 Y0.5535 F15.00
G1 X12.6418 Y0.5430 F15.00
G1 X12.6098 Y0.5203 F15.00
G1 X12.5841 Y0.5035 F15.00
G1 X12.5374 Y0.4774 F15.00
G1 X12.4970 Y0.4580 F15.00
G1 X12.4562 Y0.4411 F15.00
G1 X12.4184 Y0.4281 F15.00
G1 X12.3752 Y0.4157 F15.00
G1 X12.3369 Y0.4073 F15.00
G1 X12.2982 Y0.4007 F15.00
G1 X12.2674 Y0.3967 F15.00
G1 X12.2144 Y0.3935 F15.00
G1 X12.1920 Y0.3928 F15.00
G1 X-2.6771 Y0.3928 F15.00
G1 X-2.7173 Y0.3582 F15.00
G1 X-2.7863 Y0.3087 F15.00
G1 X-2.8120 Y0.2920 F15.00
G1 X-2.8832 Y0.2523 F15.00
G1 X-2.9236 Y0.2329 F15.00
G1 X-2.9903 Y0.2053 F15.00
G1 X-3.0281 Y0.1923 F15.00
G1 X-3.0982 Y0.1721 F15.00
G1 X-3.1365 Y0.1637 F15.00
G1 X-3.2028 Y0.1524 F15.00
G1 X-3.2336 Y0.1484 F15.00
G1 X-3.2474 Y0.1474 F15.00
G1 X-3.3370 Y0.1430 F15.00
G1 X-4.5370 Y0.1430 F15.00
G1 X-4.5594 Y0.1436 F15.00
G1 X-4.6404 Y0.1484 F15.00
G1 X-4.6712 Y0.1524 F15.00
G1 X-4.7375 Y0.1637 F15.00
G1 X-4.7812 Y0.1737 F15.00
G1 X-4.8459 Y0.1923 F15.00
G1 X-4.8837 Y0.2053 F15.00
G1 X-4.9504 Y0.2329 F15.00
G1 X-4.9908 Y0.2523 F15.00
G1 X-5.0620 Y0.2920 F15.00
G1 X-5.0877 Y0.3087 F15.00
G1 X-5.1426 Y0.3477 F15.00
G1 X-5.1567 Y0.3582 F15.00
G1 X-5.1776 Y0.3756 F15.00
G1 X-5.2441 Y0.4359 F15.00
G1 X-5.3044 Y0.5024 F15.00
G1 X-5.3218 Y0.5233 F15.00
G1 X-5.3323 Y0.5374 F15.00
G1 X-5.3713 Y0.5923 F15.00
G1 X-5.3880 Y0.6180 F15.00
G1 X-5.4277 Y0.6892 F15.00
G1 X-5.4469 Y0.7297 F15.00
G0 Z1.0000 F60.00
G0 X-5.4469 Y3.2697 F60.00
G1 F30.00
G1 Z-0.2000 F15.00
G1 F15.00
G1 X-5.4747 Y3.3363 F15.00
G1 X-5.4877 Y3.3741 F15.00
G1 X-5.5079 Y3.4442 F15.00
G1 X-5.5163 Y3.4825 F15.00
G1 X-5.5276 Y3.5488 F15.00
G1 X-5.5316 Y3.5796 F15.00
G1 X-5.5364 Y3.6606 F15.00
G1 X-5.5370 Y3.6830 F15.00
G1 X-5.5364 Y3.7054 F15.00
G1 X-5.5316 Y3.7864 F15.00
G1 X-5.5276 Y3.8172 F15.00
G1 X-5.5163 Y3.8835 F15.00
G1 X-5.5079 Y3.9218 F15.00
G1 X-5.4877 Y3.9919 F15.00
G1 X-5.4747 Y4.0297 F15.00
G1 X-5.4471 Y4.0964 F15.00
G1 X-5.4277 Y4.1368 F15.00
G1 X-5.3951 Y4.1957 F15.00
G1 X-5.3880 Y4.2080 F15.00
G1 X-5.3713 Y4.2337 F15.00
G1 X-5.3218 Y4.3027 F15.00
G1 X-5.3044 Y4.3236 F15.00
G1 X-5.2441 Y4.3901 F15.00
G1 X-5.1776 Y4.4504 F15.00
G1 X-5.1567 Y4.4678 F15.00
G1 X-5.0877 Y4.5173 F15.00
G1 X-5.0620 Y4.5340 F15.00
G1 X-4.9908 Y4.5737 F15.00
G1 X-4.9504 Y4.5931 F15.00
G1 X-4.8837 Y4.6207 F15.00
G1 X-4.8459 Y4.6337 F15.00
G1 X-4.7758 Y4.6539 F15.00
G1 X-4.7375 Y4.6623 F15.00
G1 X-4.6712 Y4.6736 F15.00
G1 X-4.6404 Y4.6776 F15.00
G1 X-4.5594 Y4.6824 F15.00
G1 X-4.5370 Y4.6830 F15.00
G1 X-3.3370 Y4.6830 F15.00
G1 X-3.3146 Y4.6824 F15.00
G1 X-3.2336 Y4.6776 F15.00
G1 X-3.2028 Y4.6736 F15.00
G1 X-3.1365 Y4.6623 F15.00
G1 X-3.0982 Y4.6539 F15.00
G1 X-3.0281 Y4.6337 F15.00
G1 X-2.9903 Y4.6207 F15.00
G1 X-2.9236 Y4.5931 F15.00
G1 X-2.8832 Y4.5737 F15.00
G1 X-2.8120 Y4.5340 F15.00
G1 X-2.7863 Y4.5173 F15.00
G1 X-2.7173 Y4.4678 F15.00
G1 X-2.6771 Y4.4332 F15.00
G1 X10.2303 Y4.4332 F15.00
G1 X23.2528 Y17.4557 F15.00
G1 X23.2528 Y18.1967 F15.00
G1 X23.1966 Y18.2592 F15.00
G1 X23.1791 Y18.2802 F15.00
G1 X23.1264 Y18.3537 F15.00
G1 X23.1096 Y18.3794 F15.00
G1 X23.1025 Y18.3917 F15.00
G1 X23.0673 Y18.4555 F15.00
G1 X23.0478 Y18.4959 F15.00
G1 X23.0199 Y18.5632 F15.00
G1 X23.0051 Y18.6056 F15.00
G1 X22.9834 Y18.6811 F15.00
G1 X22.9749 Y18.7194 F15.00
G1 X22.9627 Y18.7912 F15.00
G1 X22.9587 Y18.8220 F15.00
G1 X22.9536 Y18.9086 F15.00
G1 X22.9530 Y18.9310 F15.00
G1 X22.9530 Y19.4201 F15.00
G1 X22.1683 Y20.2048 F15.00
G1 X21.4529 Y20.2048 F15.00
G1 X21.4127 Y20.1702 F15.00
G1 X21.3437 Y20.1207 F15.00
G1 X21.3180 Y20.1040 F15.00
G1 X21.2468 Y20.0643 F15.00
G1 X21.2064 Y20.0449 F15.00
G1 X21.1397 Y20.0173 F15.00
G1 X21.1019 Y20.0043 F15.00
G1 X21.0372 Y19.9857 F15.00
G1 X20.9935 Y19.9757 F15.00
G1 X20.9272 Y19.9644 F15.00
G1 X20.8964 Y19.9604 F15.00
G1 X20.8154 Y19.9556 F15.00
G1 X20.7930 Y19.9550 F15.00
G1 X19.5930 Y19.9550 F15.00
G1 X19.5706 Y19.9556 F15.00
G1 X19.4896 Y19.9604 F15.00
G1 X19.4588 Y19.9644 F15.00
G1 X19.3925 Y19.9757 F15.00
G1 X19.3542 Y19.9841 F15.00
G1 X19.2841 Y20.0043 F15.00
G1 X19.2463 Y20.0173 F15.00
G1 X19.1796 Y20.0449 F15.00
G1 X19.1392 Y20.0643 F15.00
G1 X19.0680 Y20.1040 F15.00
G1 X19.0423 Y20.1207 F15.00
G1 X18.9733 Y20.1702 F15.00
G1 X18.9524 Y20.1876 F15.00
G1 X18.8859 Y20.2479 F15.00
G1 X18.8256 Y20.3144 F15.00
G1 X18.8082 Y20.3353 F15.00
G1 X18.7587 Y20.4043 F15.00
G1 X18.7420 Y20.4300 F15.00
G1 X18.7023 Y20.5012 F15.00
G1 X18.6829 Y20.5416 F15.00
G1 X18.6553 Y20.6083 F15.00
G1 X18.6423 Y20.6461 F15.00
G1 X18.6221 Y20.7162 F15.00
G1 X18.6137 Y20.7545 F15.00
G1 X18.6024 Y20.8208 F15.00
G1 X18.5984 Y20.8516 F15.00
G1 X18.5936 Y20.9326 F15.00
G1 X18.5930 Y20.9550 F15.00
G1 X18.5936 Y20.9774 F15.00
G1 X18.5984 Y21.0584 F15.00
G1 X18.6024 Y21.0892 F15.00
G1 X18.6137 Y21.1555 F15.00
G1 X18.6221 Y21.1938 F15.00
G1 X18.6423 Y21.2639 F15.00
G1 X18.6553 Y21.3017 F15.00
G1 X18.6829 Y21.3684 F15.00
G1 X18.7023 Y21.4088 F15.00
G1 X18.7420 Y21.4800 F15.00
G1 X18.7587 Y21.5057 F15.00
G1 X18.8082 Y21.5747 F15.00
G1 X18.8256 Y21.5956 F15.00
G1 X18.8705 Y21.6458 F15.00
G1 X18.8859 Y21.6621 F15.00
G1 X18.9022 Y21.6775 F15.00
G1 X18.9524 Y21.7224 F15.00
G1 X18.9733 Y21.7398 F15.00
G1 X18.9874 Y21.7503 F15.00
G1 X19.0423 Y21.7893 F15.00
G1 X19.0680 Y21.8060 F15.00
G1 X19.1392 Y21.8457 F15.00
G1 X19.1796 Y21.8651 F15.00
G1 X19.2463 Y21.8927 F15.00
G1 X19.2841 Y21.9057 F15.00
G1 X19.3542 Y21.9259 F15.00
G1 X19.3925 Y21.9343 F15.00
G1 X19.4588 Y21.9456 F15.00
G1 X19.4896 Y21.9496 F15.00
G1 X19.5706 Y21.9544 F15.00
G1 X19.5930 Y21.9550 F15.00
G1 X20.7930 Y21.9550 F15.00
G1 X20.8154 Y21.9544 F15.00
G1 X20.8964 Y21.9496 F15.00
G1 X20.9272 Y21.9456 F15.00
G1 X20.9935 Y21.9343 F15.00
G1 X21.0318 Y21.9259 F15.00
G1 X21.1019 Y21.9057 F15.00
G1 X21.1397 Y21.8927 F15.00
G1 X21.2064 Y21.8651 F15.00
G1 X21.2468 Y21.8457 F15.00
G1 X21.3180 Y21.8060 F15.00
G1 X21.3437 Y21.7893 F15.00
G1 X21.4127 Y21.7398 F15.00
G1 X21.4529 Y21.7052 F15.00
G1 X22.4790 Y21.7052 F15.00
G1 X22.5014 Y21.7045 F15.00
G1 X22.5544 Y21.7013 F15.00
G1 X22.5852 Y21.6973 F15.00
G1 X22.6239 Y21.6907 F15.00
G1 X22.6622 Y21.6823 F15.00
G1 X22.7054 Y21.6699 F15.00
G1 X22.7432 Y21.6569 F15.00
G1 X22.7840 Y21.6400 F15.00
G1 X22.8244 Y21.6206 F15.00
G1 X22.8711 Y21.5945 F15.00
G1 X22.8968 Y21.5777 F15.00
G1 X22.9429 Y21.5445 F15.00
G1 X22.9639 Y21.5270 F15.00
G1 X23.0086 Y21.4863 F15.00
G1 X23.5992 Y20.8991 F15.00
G1 X23.6398 Y20.9159 F15.00
G1 X23.6776 Y20.9289 F15.00
G1 X23.7531 Y20.9506 F15.00
G1 X23.7914 Y20.9591 F15.00
G1 X23.8632 Y20.9713 F15.00
G1 X23.8940 Y20.9753 F15.00
G1 X23.9806 Y20.9804 F15.00
G1 X24.0030 Y20.9810 F15.00
G1 X24.0254 Y20.9804 F15.00
G1 X24.1120 Y20.9753 F15.00
G1 X24.1428 Y20.9713 F15.00
G1 X24.2146 Y20.9591 F15.00
G1 X24.2529 Y20.9506 F15.00
G1 X24.3284 Y20.9289 F15.00
G1 X24.3708 Y20.9141 F15.00
G1 X24.4381 Y20.8862 F15.00
G1 X24.4785 Y20.8667 F15.00
G1 X24.5546 Y20.8244 F15.00
G1 X24.5803 Y20.8076 F15.00
G1 X24.6538 Y20.7549 F15.00
G1 X24.6748 Y20.7374 F15.00
G1 X24.7455 Y20.6735 F15.00
G1 X24.8094 Y20.6028 F15.00
G1 X24.8269 Y20.5818 F15.00
G1 X24.8374 Y20.5677 F15.00
G1 X24.8796 Y20.5083 F15.00
G1 X24.8964 Y20.4826 F15.00
G1 X24.9035 Y20.4703 F15.00
G1 X24.9387 Y20.4065 F15.00
G1 X24.9582 Y20.3661 F15.00
G1 X24.9879 Y20.2942 F15.00
G1 X25.0009 Y20.2564 F15.00
G1 X25.0226 Y20.1809 F15.00
G1 X25.0311 Y20.1426 F15.00
G1 X25.0433 Y20.0708 F15.00
G1 X25.0473 Y20.0400 F15.00
G1 X25.0524 Y19.9534 F15.00
G1 X25.0530 Y19.9310 F15.00
G1 X25.0530 Y18.9310 F15.00
G1 X25.0524 Y18.9086 F15.00
G1 X25.0473 Y18.8220 F15.00
G1 X25.0433 Y18.7912 F15.00
G1 X25.0311 Y18.7194 F15.00
G1 X25.0226 Y18.6811 F15.00
G1 X25.0009 Y18.6056 F15.00
G1 X24.9879 Y18.5678 F15.00
G1 X24.9582 Y18.4959 F15.00
G1 X24.9387 Y18.4555 F15.00
G1 X24.9035 Y18.3917 F15.00
G1 X24.8964 Y18.3794 F15.00
G1 X24.8796 Y18.3537 F15.00
G1 X24.8269 Y18.2802 F15.00
G1 X24.8094 Y18.2592 F15.00
G1 X24.7532 Y18.1967 F15.00
G1 X24.7532 Y17.1450 F15.00
G1 X24.7525 Y17.1226 F15.00
G1 X24.7493 Y17.0696 F15.00
G1 X24.7453 Y17.0388 F15.00
G1 X24.7387 Y17.0001 F15.00
G1 X24.7303 Y16.9618 F15.00
G1 X24.7179 Y16.9186 F15.00
G1 X24.7049 Y16.8808 F15.00
G1 X24.6880 Y16.8400 F15.00
G1 X24.6686 Y16.7996 F15.00
G1 X24.6496 Y16.7652 F15.00
G1 X24.6425 Y16.7529 F15.00
G1 X24.6257 Y16.7272 F15.00
G1 X24.5925 Y16.6811 F15.00
G1 X24.5750 Y16.6601 F15.00
G1 X24.5335 Y16.6145 F15.00
G1 X11.0715 Y3.1525 F15.00
G1 X11.0259 Y3.1110 F15.00
G1 X11.0049 Y3.0935 F15.00
G1 X10.9588 Y3.0603 F15.00
G1 X10.9331 Y3.0435 F15.00
G1 X10.9208 Y3.0364 F15.00
G1 X10.8864 Y3.0174 F15.00
G1 X10.8460 Y2.9980 F15.00
G1 X10.8097 Y2.9829 F15.00
